ncols 400
nrows 403
xllcorner 680400.0
yllcorner 2515200.0
cellsize 60
NODATA_value -9999
22.28 21.51 20.66 20.24 19.45 19.11 20.68 21.67 19.79 18.33 10.93 9.20 10.80 15.68 17.61 17.61 20.37 22.65 23.01 23.05 23.11 23.05 23.02 22.91 22.85 22.90 23.03 23.02 22.99 22.99 23.05 23.06 23.18 23.29 23.51 23.59 23.53 23.48 23.20 22.92 22.67 22.84 22.98 23.21 23.38 23.52 23.76 24.03 24.25 24.61 24.69 24.80 25.06 25.12 25.15 25.21 25.35 25.42 25.50 25.57 25.79 25.94 25.86 25.98 26.07 26.00 26.18 26.33 26.43 26.68 26.95 26.99 27.05 26.85 26.74 26.74 26.82 26.89 27.01 27.19 27.32 27.54 27.70 27.88 28.15 28.33 28.40 28.70 28.89 29.03 29.11 29.13 29.25 29.39 29.39 29.43 29.31 29.48 29.61 29.63 29.70 29.74 29.73 29.73 29.68 29.82 29.69 29.80 30.15 29.87 29.53 29.28 29.40 29.18 29.10 28.92 28.82 28.96 29.10 29.18 29.20 29.09 29.10 29.02 28.85 28.99 29.13 29.17 29.30 29.23 29.16 29.22 29.25 29.31 29.27 29.14 29.11 29.08 29.17 29.22 29.33 29.24 29.19 29.22 29.27 29.36 29.44 29.56 29.54 29.35 28.93 28.82 28.46 27.47 27.37 27.82 27.58 27.46 25.13 24.48 25.47 26.56 26.71 26.67 26.72 26.91 26.59 27.26 29.21 30.45 30.90 30.99 30.92 31.06 31.22 30.98 29.80 29.27 29.21 29.48 29.90 31.15 31.84 32.51 32.90 32.74 32.85 32.91 33.00 33.03 33.19 33.25 33.26 33.34 33.49 33.68 33.77 33.94 34.05 34.20 34.32 34.55 34.65 34.54 34.49 34.60 34.77 35.05 35.20 35.30 35.46 35.50 35.64 35.68 35.66 35.73 36.01 36.50 36.91 36.95 36.82 36.66 36.29 36.10 36.10 36.08 36.35 36.51 36.77 36.59 36.72 36.87 37.00 37.13 37.50 37.47 37.28 37.47 37.80 37.81 37.84 38.06 38.20 38.33 38.29 38.23 38.24 38.47 38.42 38.49 38.70 38.78 38.90 38.94 39.15 39.33 39.38 39.53 39.55 39.63 39.73 39.86 40.13 40.17 40.25 40.27 40.21 40.39 40.73 40.98 41.08 41.08 41.15 41.22 41.33 41.32 41.00 40.51 40.67 40.85 40.94 41.02 40.95 40.84 40.56 40.40 40.21 40.05 40.21 39.49 37.52 36.88 37.95 40.24 40.27 40.65 40.68 40.74 40.77 40.78 40.69 40.36 39.04 36.59 38.45 39.99 39.64 39.63 40.58 41.05 40.79 40.77 40.80 40.85 40.83 40.59 40.44 40.60 40.61 40.09 39.57 39.28 40.83 41.65 41.81 42.14 42.31 42.45 42.60 42.65 42.62 42.65 42.67 41.24 41.03 39.76 37.99 39.45 40.66 41.82 41.41 41.57 42.60 42.21 42.18 40.98 38.66 33.05 34.79 38.85 41.61 42.81 42.88 44.87 45.26 46.31 47.27 45.83 45.30 45.94 46.09 45.89 46.23 46.49 46.91 47.34 48.16 48.80 49.25 49.26 49.40 48.96 48.47 48.47 48.39 48.45 48.62 48.63 48.65 48.71 48.71 48.72 49.12 49.25 49.33 49.55 49.69 49.68 49.80 49.76 49.80 50.04 50.15 50.09 50.10 50.11 50.23 50.91 50.56 50.62
22.22 21.52 21.25 21.38 20.58 19.03 18.46 20.72 20.52 19.41 10.84 9.05 11.23 15.90 17.58 17.94 19.70 22.36 23.01 23.01 23.10 23.14 23.04 22.96 23.03 23.02 23.02 22.99 22.94 22.96 23.01 23.06 23.22 23.31 23.48 23.58 23.50 23.48 23.27 23.09 22.72 22.85 23.04 23.23 23.33 23.58 23.89 24.11 24.42 24.67 24.69 24.86 24.97 25.14 25.15 25.28 25.42 25.54 25.53 25.54 25.62 25.86 25.99 26.13 26.03 26.08 26.22 26.34 26.48 26.69 26.84 26.92 27.02 26.85 26.79 26.87 26.98 27.06 27.14 27.31 27.53 27.76 27.88 28.00 28.08 28.29 28.51 28.75 28.94 29.15 29.29 29.31 29.46 29.68 29.47 29.37 29.26 29.38 29.65 29.72 29.85 29.86 29.75 29.82 29.77 29.90 29.97 30.18 30.60 30.18 29.41 29.30 29.42 29.22 29.19 28.87 29.26 29.26 29.06 29.27 29.39 29.17 29.17 29.13 29.17 29.38 29.26 29.27 29.26 29.23 29.41 29.30 29.32 29.45 29.39 29.25 29.19 29.26 29.36 29.18 29.10 29.20 29.20 29.29 29.40 29.61 29.64 29.61 29.65 29.38 29.25 29.29 28.92 27.87 27.61 28.29 28.23 27.56 24.50 25.09 25.93 26.89 26.81 26.73 26.68 26.80 26.78 26.97 28.27 29.92 30.80 30.99 31.16 31.28 31.29 31.32 31.07 31.12 30.87 30.25 30.07 29.80 31.06 32.24 32.79 32.81 32.86 32.92 33.04 33.14 33.26 33.35 33.35 33.47 33.62 33.68 33.97 34.08 34.09 34.27 34.46 34.62 34.78 34.73 34.57 34.74 34.90 35.16 35.25 35.34 35.54 35.66 35.78 35.91 36.27 36.80 37.06 36.94 36.65 36.41 36.34 36.31 36.28 36.27 36.26 36.24 36.35 36.50 36.70 36.71 36.85 36.97 37.07 37.34 37.59 37.73 37.61 37.70 37.65 37.79 37.91 38.19 38.37 38.55 38.53 38.51 38.44 38.47 38.43 38.58 38.81 38.97 39.03 39.10 39.34 39.49 39.53 39.60 39.67 39.79 39.90 40.14 40.37 40.42 40.47 40.45 40.43 40.62 40.87 41.01 41.18 41.19 41.25 41.36 41.43 41.41 41.15 40.88 40.93 41.07 41.16 41.20 40.99 40.87 40.69 40.54 40.34 40.34 40.22 38.29 37.13 37.11 38.89 40.61 40.78 40.82 40.82 40.83 40.85 40.64 40.36 40.19 38.97 36.77 37.83 40.13 40.53 40.49 40.69 40.86 41.04 41.08 41.10 41.11 40.93 40.86 40.93 41.08 40.99 40.58 40.51 40.19 40.81 41.56 41.78 42.03 42.26 42.51 42.63 42.69 42.76 42.92 43.07 42.98 42.93 42.53 40.03 39.82 41.87 41.86 42.37 42.90 43.70 44.20 44.23 44.15 42.75 35.63 33.08 36.64 41.03 43.78 44.94 45.64 45.74 45.48 45.46 45.67 46.22 46.75 46.57 46.31 46.56 46.83 47.02 47.38 47.86 48.67 49.18 49.27 49.32 49.13 48.74 48.63 48.59 48.62 48.64 48.68 48.63 48.77 48.75 48.85 49.17 49.28 49.35 49.51 49.71 49.79 50.06 50.09 49.94 50.01 50.18 50.17 50.28 50.34 50.49 50.91 50.74 50.72
22.47 21.71 21.71 22.67 22.04 20.46 18.76 19.68 20.67 18.98 10.80 9.46 12.56 16.04 17.40 18.26 18.99 21.33 22.86 23.07 23.20 23.20 23.10 23.09 23.00 22.89 22.94 22.92 22.87 22.83 23.00 23.06 23.21 23.38 23.54 23.64 23.62 23.55 23.38 23.26 22.87 22.87 23.20 23.29 23.29 23.59 23.88 24.10 24.39 24.71 24.78 24.77 24.94 25.14 25.13 25.24 25.42 25.54 25.59 25.59 25.78 25.89 26.00 26.10 26.22 26.31 26.37 26.38 26.45 26.62 26.73 26.78 27.01 26.77 26.77 26.96 26.99 27.10 27.27 27.42 27.59 27.83 28.05 28.22 28.30 28.41 28.63 28.90 29.12 29.30 29.38 29.49 29.62 29.78 29.61 29.45 29.44 29.58 29.76 29.80 29.94 30.05 29.93 29.96 29.92 30.02 30.09 30.25 30.68 30.23 29.41 29.36 29.36 29.26 29.21 28.27 28.36 29.12 29.26 29.28 29.53 29.29 29.25 29.25 29.32 29.43 29.42 29.44 29.46 29.30 29.47 29.42 29.41 29.49 29.42 29.28 29.23 29.38 29.33 29.24 29.17 29.28 29.29 29.37 29.45 29.66 29.73 29.62 29.69 29.60 29.54 29.52 29.21 28.23 28.02 28.88 28.65 26.68 24.48 25.65 26.73 27.08 26.90 26.61 26.79 26.86 26.90 27.29 28.68 29.75 30.77 31.07 31.35 31.37 31.40 31.55 31.69 31.83 31.98 31.92 31.79 30.54 30.04 31.59 32.54 32.80 32.97 33.09 33.10 33.18 33.30 33.44 33.48 33.57 33.69 33.84 34.13 34.16 34.23 34.39 34.58 34.76 34.83 34.90 34.77 34.88 35.04 35.20 35.26 35.34 35.57 35.76 35.84 36.62 36.78 36.30 36.28 36.32 36.39 36.42 36.43 36.52 36.47 36.44 36.36 36.48 36.52 36.66 36.70 36.79 37.02 37.11 37.22 37.44 37.71 37.99 37.81 37.84 37.70 37.86 38.15 38.34 38.47 38.58 38.74 38.82 38.66 38.60 38.70 38.78 39.06 39.21 39.20 39.23 39.37 39.52 39.65 39.71 39.75 39.85 40.07 40.24 40.60 40.63 40.70 40.66 40.80 40.92 41.00 41.13 41.22 41.29 41.33 41.46 41.52 41.47 41.30 40.97 40.96 41.20 41.25 41.27 41.21 40.97 40.83 40.70 40.47 40.60 40.50 38.51 37.46 37.85 39.43 40.74 41.11 41.10 41.10 41.07 41.02 40.64 40.78 40.71 39.62 37.92 37.67 38.70 40.28 40.73 40.90 41.04 41.45 41.36 41.37 41.28 41.14 41.10 41.20 41.30 41.22 41.14 41.10 40.45 41.02 41.71 41.82 42.07 42.31 42.66 42.68 42.80 42.95 43.14 43.13 43.19 43.23 43.22 42.60 40.78 42.13 43.20 42.94 43.10 43.51 44.29 44.64 44.68 41.60 36.48 33.46 33.88 39.23 43.48 44.94 45.40 44.97 45.64 45.71 45.98 46.41 46.98 47.31 47.37 47.18 47.45 47.54 47.55 47.75 48.68 49.05 48.90 48.93 48.73 48.66 48.72 48.65 48.68 48.65 48.72 48.77 48.85 48.89 49.08 49.30 49.27 49.41 49.56 49.72 49.90 50.16 50.25 50.11 50.20 50.31 50.31 50.44 50.55 50.71 50.70 50.90 51.15
23.04 23.10 22.66 23.30 22.89 21.65 19.43 19.63 21.22 18.49 10.07 10.05 13.45 16.52 17.79 18.91 19.29 21.29 22.89 23.15 23.35 23.33 23.23 23.23 23.15 23.02 23.07 22.96 23.06 23.00 23.17 23.27 23.29 23.50 23.62 23.79 23.65 23.56 23.58 23.37 23.01 22.83 23.15 23.40 23.28 23.45 23.77 24.05 24.35 24.70 24.81 24.82 24.90 25.14 25.17 25.23 25.30 25.50 25.60 25.75 25.89 26.04 25.97 26.08 26.28 26.18 26.31 26.40 26.49 26.59 26.74 26.74 27.05 26.89 26.82 26.87 27.01 27.09 27.28 27.50 27.76 27.95 28.07 28.31 28.44 28.62 28.75 28.94 29.19 29.34 29.51 29.62 29.66 29.83 29.83 29.73 29.83 29.90 29.86 30.01 30.07 30.20 30.08 30.09 30.09 30.17 30.15 30.38 31.01 30.53 29.53 29.31 29.21 29.20 29.20 28.37 28.57 29.14 29.39 29.35 29.81 29.43 29.36 29.33 29.34 29.43 29.48 29.55 29.64 29.67 29.70 29.57 29.53 29.50 29.48 29.32 29.33 29.32 29.24 29.27 29.31 29.35 29.32 29.38 29.56 29.65 29.69 29.79 29.79 29.89 29.78 29.55 29.18 28.34 28.32 28.96 28.94 25.32 24.55 26.22 27.08 27.05 26.67 27.03 28.04 27.66 27.52 28.27 29.65 30.11 30.69 31.13 31.35 31.42 31.60 31.66 31.86 32.02 32.15 32.17 32.19 31.49 30.31 30.62 32.12 32.48 32.99 33.19 33.21 33.33 33.34 33.46 33.60 33.75 33.93 33.97 34.19 34.27 34.39 34.52 34.73 34.83 34.88 34.94 34.94 35.04 35.03 35.28 35.38 35.51 35.69 35.99 36.51 36.62 36.16 36.15 36.38 36.51 36.57 36.57 36.70 36.71 36.61 36.55 36.45 36.54 36.82 36.82 37.09 37.14 37.21 37.17 37.37 37.74 38.01 37.85 37.81 37.93 37.88 37.89 38.21 38.41 38.51 38.59 38.84 39.00 38.97 38.97 38.91 38.98 39.25 39.42 39.43 39.39 39.52 39.60 39.71 39.81 39.97 40.05 40.17 40.46 40.74 40.80 40.81 40.85 41.39 41.61 41.14 41.23 41.40 41.51 41.48 41.51 41.50 41.48 41.31 41.06 41.05 41.25 41.32 41.29 41.29 41.09 40.89 40.77 40.75 40.89 40.78 39.21 37.51 39.01 40.49 40.93 41.22 41.35 41.43 41.11 41.04 40.95 40.99 40.91 40.04 39.09 38.69 37.55 39.21 40.46 40.96 41.16 41.41 41.63 41.51 41.39 41.35 41.36 41.41 41.47 41.57 41.56 41.46 41.10 40.58 41.31 41.90 42.28 42.65 42.81 42.82 42.94 42.99 43.12 43.21 43.29 43.37 43.41 43.27 42.31 41.93 42.87 43.32 43.33 43.53 43.90 44.30 44.10 40.13 37.41 35.61 33.10 35.75 41.23 44.97 45.24 44.70 46.81 47.05 46.99 47.55 47.93 47.92 47.96 47.60 47.72 47.93 47.76 47.96 49.06 49.09 48.54 48.68 48.90 48.89 48.87 48.74 48.79 48.87 48.93 49.07 49.13 49.20 49.27 49.35 49.31 49.49 49.65 49.77 49.98 50.21 50.38 50.21 50.38 50.48 50.42 50.58 50.82 50.84 50.88 50.97 51.19
23.84 23.90 23.84 23.76 23.21 21.87 20.39 19.85 20.93 17.85 9.70 9.98 13.59 16.75 18.11 19.11 19.33 20.73 22.30 23.12 23.42 23.39 23.37 23.37 23.40 23.19 23.12 23.11 23.01 23.02 23.13 23.34 23.35 23.50 23.72 23.90 23.68 23.59 23.66 23.59 23.31 23.01 23.10 23.30 23.35 23.50 23.73 23.93 24.27 24.54 24.75 24.88 24.87 25.12 25.20 25.20 25.31 25.56 25.70 25.94 26.08 26.12 26.17 26.11 26.26 26.19 26.23 26.31 26.54 26.61 26.69 26.74 27.05 26.94 26.88 26.95 27.06 27.12 27.28 27.45 27.76 27.92 28.09 28.22 28.42 28.66 28.90 29.17 29.42 29.43 29.62 29.67 29.67 29.85 29.99 29.88 29.89 30.07 29.96 29.96 30.19 30.29 30.28 30.18 30.26 30.19 30.24 30.45 30.86 30.72 30.00 29.59 29.32 29.22 29.09 28.96 29.05 29.27 29.48 29.43 29.49 29.49 29.51 29.42 29.42 29.46 29.52 29.63 29.70 29.69 29.65 29.78 29.75 29.75 29.57 29.46 29.47 29.33 29.35 29.44 29.43 29.51 29.48 29.48 29.57 29.73 29.73 29.82 29.87 29.89 29.88 29.67 29.26 28.44 28.67 29.28 29.24 25.35 24.79 26.52 27.19 27.01 26.91 27.97 28.91 28.76 28.66 29.42 30.34 30.63 30.71 31.11 31.37 31.58 31.71 31.83 31.95 32.01 32.34 32.25 32.10 31.13 30.73 31.00 31.71 32.43 32.83 33.09 33.19 33.48 33.53 33.56 33.73 33.90 34.06 34.15 34.26 34.33 34.46 34.68 34.83 34.89 34.98 35.06 35.12 35.26 35.19 35.35 35.55 35.69 35.83 36.48 36.63 36.28 36.24 36.43 36.53 36.57 36.68 36.74 36.81 36.89 36.82 36.76 36.59 36.68 36.88 36.91 37.09 37.20 37.29 37.39 37.69 38.09 38.29 38.31 37.99 38.21 38.41 38.36 38.30 38.54 38.67 38.67 38.97 39.22 39.17 39.20 39.20 39.17 39.34 39.56 39.58 39.67 39.68 39.78 39.82 40.00 40.06 40.21 40.35 40.53 40.73 40.97 41.00 41.31 42.11 42.13 41.72 41.42 41.47 41.52 41.62 41.56 41.50 41.43 41.37 41.17 41.16 41.37 41.59 41.51 41.35 41.14 41.03 40.96 40.91 40.82 40.61 39.18 37.57 39.55 40.86 41.06 41.30 41.52 41.44 41.22 41.21 41.30 41.17 41.01 40.30 39.67 39.03 37.53 39.26 40.30 40.70 41.15 41.39 41.61 41.51 41.47 41.53 41.60 41.59 41.72 41.73 41.62 41.52 41.44 41.06 41.37 41.66 42.16 42.75 42.92 43.02 43.04 43.16 43.45 43.81 43.51 43.56 43.56 43.40 43.12 43.30 43.41 43.44 43.40 43.60 43.82 43.75 42.19 40.62 41.47 38.30 35.17 33.10 36.39 41.54 42.13 43.67 46.42 46.44 46.47 48.03 48.82 48.48 48.31 48.10 48.36 48.18 48.06 48.14 48.49 48.70 48.51 48.67 48.78 48.92 48.91 48.83 48.96 48.85 48.85 49.03 49.14 49.27 49.33 49.47 49.62 49.64 49.79 49.83 50.06 50.54 50.70 50.44 50.90 50.73 50.65 50.80 51.03 51.02 50.99 51.07 51.15
24.22 24.26 24.44 23.84 22.77 21.99 21.08 20.08 19.52 16.33 10.10 10.53 13.75 16.54 18.03 19.05 19.39 20.20 21.84 23.01 23.46 23.55 23.55 23.49 23.36 23.30 23.18 23.15 22.95 23.02 23.10 23.29 23.38 23.41 23.56 23.85 23.87 23.69 23.73 23.77 23.60 23.38 23.22 23.10 23.28 23.42 23.66 23.88 24.22 24.47 24.78 24.80 24.88 25.05 25.12 25.24 25.53 25.68 25.80 25.92 26.09 26.24 26.28 26.32 26.36 26.33 26.31 26.30 26.49 26.54 26.66 26.82 27.14 27.02 26.96 27.04 27.14 27.26 27.31 27.53 27.76 27.92 28.07 28.24 28.49 28.75 28.99 29.11 29.33 29.49 29.55 29.71 29.87 29.94 29.92 29.85 29.97 29.97 29.95 29.97 30.19 30.33 30.41 30.36 30.39 30.35 30.32 30.45 30.75 30.65 29.84 29.58 29.40 29.30 29.02 28.97 29.06 29.40 29.56 29.55 29.79 29.89 29.56 29.53 29.52 29.54 29.53 29.62 29.70 29.64 29.61 29.73 29.76 29.78 29.84 29.89 29.73 29.41 29.41 29.46 29.54 29.52 29.68 29.67 29.76 29.77 29.85 29.92 30.00 29.97 29.98 29.85 29.34 28.68 29.05 29.65 29.42 25.66 24.77 26.57 27.30 26.95 27.38 28.77 29.46 29.81 29.74 30.06 30.61 30.79 30.90 31.19 31.43 31.65 31.85 31.99 32.10 32.15 32.34 32.29 31.60 30.58 31.02 31.56 32.07 32.81 32.91 33.00 33.24 33.45 33.57 33.77 33.84 33.98 34.15 34.25 34.42 34.51 34.67 34.73 34.88 35.10 35.18 35.14 35.26 35.40 35.40 35.51 35.67 35.79 36.31 36.60 36.20 36.25 36.33 36.53 36.66 36.76 36.88 36.90 36.86 36.90 36.88 36.88 36.75 36.86 37.10 37.03 37.23 37.44 37.57 37.69 37.72 37.82 38.04 38.22 38.49 38.91 39.21 39.10 38.45 38.61 38.88 38.88 38.99 39.26 39.26 39.16 39.40 39.44 39.41 39.56 39.78 39.92 39.91 40.02 39.98 40.04 40.27 40.46 40.60 40.82 40.93 41.06 41.28 41.84 42.28 42.21 42.00 41.64 41.66 41.70 41.64 41.63 41.56 41.62 41.55 41.34 41.21 41.43 41.64 41.60 41.49 41.37 41.24 41.12 41.03 40.89 40.82 39.64 37.82 39.88 41.06 41.26 41.53 41.64 41.57 41.41 41.34 41.40 41.33 41.06 40.68 40.02 38.61 38.39 39.46 40.04 40.82 41.27 41.42 41.58 41.67 41.60 41.71 41.81 41.82 41.89 41.73 41.71 41.71 41.68 41.77 41.86 41.72 41.92 42.24 42.20 42.84 43.03 43.22 43.44 43.62 43.63 43.73 43.54 43.48 43.53 43.69 43.81 43.75 43.62 43.60 43.73 43.95 43.42 42.65 43.70 42.73 39.29 35.60 33.44 36.48 38.71 42.94 44.86 44.55 46.66 48.25 47.96 48.21 48.13 48.42 48.24 48.04 48.32 48.32 48.29 48.45 48.50 48.63 48.70 48.92 48.90 48.92 49.08 48.98 48.95 49.11 49.20 49.29 49.40 49.60 49.74 49.84 49.93 49.97 50.17 50.57 50.63 50.65 51.15 51.07 51.09 51.07 51.36 51.38 51.45 51.70 51.57
24.62 24.67 24.49 23.95 23.02 22.72 21.80 20.22 17.95 15.22 10.02 10.44 13.34 16.36 18.14 19.18 19.54 19.86 21.59 22.98 23.62 23.69 23.65 23.54 23.34 23.38 23.35 23.29 23.03 23.07 23.17 23.29 23.40 23.48 23.60 23.90 24.03 23.88 23.96 23.92 23.76 23.64 23.43 23.18 23.15 23.38 23.66 23.91 24.25 24.44 24.62 24.70 24.97 25.11 25.22 25.33 25.49 25.65 25.74 25.92 26.19 26.21 26.34 26.45 26.47 26.54 26.46 26.39 26.48 26.45 26.68 26.77 27.07 27.10 27.06 27.07 27.14 27.30 27.40 27.54 27.77 27.88 28.03 28.22 28.42 28.72 28.94 29.07 29.31 29.48 29.63 29.81 29.99 30.04 30.00 29.98 30.15 30.20 30.14 30.10 30.24 30.53 30.63 30.75 30.59 30.59 30.43 30.45 30.74 30.95 30.02 29.52 29.39 29.44 29.26 29.13 29.47 29.94 29.63 29.69 29.84 29.97 29.75 29.68 29.66 29.63 29.64 29.66 29.65 29.78 29.76 29.70 29.74 29.77 29.85 29.87 29.90 29.91 29.78 29.63 29.58 29.60 29.71 29.72 29.73 29.78 29.91 30.02 30.04 30.05 30.02 30.04 29.43 28.80 29.32 29.78 28.61 26.21 24.92 26.69 27.36 26.99 27.81 29.40 30.09 30.28 30.27 30.38 30.63 30.91 31.04 31.31 31.55 31.69 31.91 32.03 32.14 32.28 32.45 32.55 30.88 29.91 30.98 31.55 31.94 32.30 32.86 33.24 33.41 33.44 33.59 33.79 33.78 33.94 34.15 34.22 34.40 34.58 34.66 34.87 35.05 35.28 35.40 35.23 35.35 35.49 35.58 35.78 35.81 36.35 36.56 36.19 36.20 36.39 36.55 36.74 36.84 36.86 36.89 36.94 37.04 37.00 36.89 36.94 36.95 37.00 37.32 37.44 37.51 37.61 37.63 37.70 37.85 37.91 38.19 38.32 38.66 38.55 38.63 38.68 38.62 38.64 39.00 39.02 39.02 39.40 39.48 39.26 39.55 39.70 39.60 39.61 39.85 40.02 40.09 40.13 40.17 40.22 40.53 40.67 40.80 40.90 41.08 41.38 41.68 41.68 41.68 41.66 41.74 41.69 41.71 41.68 41.72 41.83 41.76 41.68 41.64 41.57 41.46 41.56 41.68 41.66 41.57 41.52 41.37 41.27 41.21 41.04 40.53 38.88 37.87 40.32 41.29 41.43 41.65 41.80 41.74 41.56 41.49 41.62 41.53 41.28 40.96 40.20 38.29 38.87 40.37 40.61 41.03 41.34 41.56 41.71 41.92 41.86 41.87 41.98 41.93 41.97 41.94 41.93 42.02 41.92 42.16 42.11 42.11 42.11 42.16 42.17 42.75 43.00 43.13 43.37 43.58 43.75 43.85 43.70 43.73 43.82 43.88 44.02 43.99 43.87 43.94 44.21 44.43 44.55 44.56 44.86 45.05 43.79 38.48 33.33 33.87 36.86 40.87 42.51 45.32 47.81 48.06 46.19 47.14 47.68 48.14 48.31 48.21 48.37 48.47 48.40 48.59 48.61 48.70 48.85 49.10 49.04 49.02 49.26 49.22 49.15 49.27 49.35 49.48 49.56 49.73 49.86 49.98 50.10 50.19 50.44 50.75 50.81 51.11 51.44 51.60 51.53 51.19 51.38 51.54 51.62 51.76 51.68
24.75 24.76 24.75 24.45 23.74 22.56 20.94 19.68 19.72 17.28 9.56 10.35 13.00 15.66 17.75 18.92 19.12 19.29 20.98 22.96 23.62 23.71 23.66 23.61 23.54 23.48 23.46 23.32 23.09 23.04 23.20 23.18 23.30 23.51 23.74 23.92 24.04 24.03 24.01 23.93 23.83 23.84 23.72 23.53 23.27 23.44 23.72 24.03 24.36 24.46 24.62 24.75 24.89 25.13 25.23 25.37 25.47 25.63 25.82 26.04 26.18 26.24 26.36 26.50 26.52 26.62 26.66 26.65 26.64 26.55 26.55 26.71 27.06 27.19 27.17 27.25 27.34 27.31 27.50 27.64 27.79 27.89 28.11 28.31 28.44 28.65 28.87 28.95 29.23 29.44 29.66 29.84 30.01 30.13 30.04 30.19 30.31 30.32 30.22 30.22 30.29 30.58 30.67 30.71 30.56 30.66 30.81 31.06 30.80 30.91 30.00 29.58 29.41 29.37 29.37 29.27 29.53 29.96 29.72 29.71 29.85 30.03 29.96 29.78 29.77 29.73 29.80 29.80 29.73 29.85 29.88 29.85 29.87 29.87 29.93 30.01 30.01 29.81 29.91 30.17 29.96 29.88 29.77 29.79 29.83 29.95 30.15 30.13 30.11 30.13 30.03 30.00 29.54 29.07 29.58 29.88 28.31 27.34 25.30 26.66 27.34 27.01 27.57 28.96 29.55 29.59 30.01 30.47 30.64 30.84 30.83 31.30 31.63 31.75 32.03 32.20 32.25 32.33 32.55 32.63 31.64 30.69 30.89 31.27 31.36 31.35 32.53 33.21 33.45 33.57 33.78 33.75 33.83 34.03 34.28 34.34 34.46 34.65 34.78 35.01 35.14 35.25 35.46 35.47 35.50 35.55 35.71 35.91 36.44 36.49 36.19 36.28 36.42 36.55 36.72 36.93 36.90 36.88 36.88 37.04 37.16 37.16 37.13 37.11 37.17 37.14 37.44 37.63 37.66 37.78 37.84 37.86 38.02 38.15 38.25 38.44 38.79 38.63 38.82 38.98 39.16 38.88 39.10 39.24 39.21 39.37 39.59 39.46 39.72 39.92 39.80 39.80 39.98 40.15 40.27 40.33 40.35 40.39 40.69 40.86 40.90 41.06 41.29 41.58 41.78 41.57 41.64 41.77 41.78 41.80 41.78 41.82 41.86 41.99 41.91 41.76 41.76 41.73 41.59 41.55 41.82 41.75 41.68 41.65 41.62 41.54 41.40 41.15 40.72 38.48 38.02 40.78 41.58 41.65 41.82 41.96 41.89 41.72 41.72 41.77 41.67 41.32 40.66 39.73 38.82 38.16 39.87 41.00 41.26 41.46 41.63 41.80 41.99 42.06 42.08 42.14 42.20 42.29 42.20 42.25 42.43 42.27 42.39 42.32 42.35 42.48 42.35 42.61 42.85 43.08 43.10 43.17 43.45 43.65 43.88 43.90 43.93 44.02 44.16 44.47 44.94 44.81 44.53 44.28 44.28 44.46 44.73 44.81 45.08 44.81 40.56 37.06 34.54 34.07 36.37 41.07 45.66 47.60 46.49 44.12 46.30 47.76 48.74 49.03 48.34 47.95 48.15 48.34 48.67 48.88 48.91 49.04 49.17 49.18 49.21 49.35 49.35 49.33 49.52 49.57 49.68 49.81 50.20 50.36 50.30 50.33 50.39 50.76 50.66 50.65 50.89 51.26 51.13 51.16 51.17 51.34 51.58 51.65 51.75 51.80
24.80 24.83 25.02 24.76 23.71 21.42 19.97 21.11 21.47 19.36 10.61 9.97 12.53 15.13 17.38 18.66 18.69 18.90 20.53 22.75 23.69 23.83 23.86 23.82 23.67 23.69 23.58 23.38 23.22 23.16 23.11 23.18 23.39 23.59 23.71 23.88 24.25 24.12 24.03 23.98 24.03 23.98 23.85 23.65 23.33 23.49 23.75 23.98 24.21 24.39 24.57 24.60 24.85 25.16 25.25 25.26 25.64 25.88 25.88 26.03 26.11 26.21 26.41 26.48 26.49 26.64 26.73 26.69 26.71 26.76 26.62 26.75 27.05 27.25 27.29 27.27 27.35 27.37 27.53 27.68 27.91 28.06 28.27 28.41 28.56 28.65 28.70 28.79 29.15 29.43 29.67 29.82 30.00 30.19 30.26 30.39 30.44 30.32 30.28 30.34 30.37 30.59 30.59 30.57 30.62 31.41 31.82 31.73 30.64 30.32 29.86 29.59 29.48 29.34 29.40 29.33 29.31 29.60 29.82 29.87 29.99 30.54 30.06 29.99 29.91 29.86 29.94 29.84 29.71 29.86 29.97 30.00 30.02 30.01 30.02 30.05 30.08 29.99 30.14 30.27 30.09 30.10 30.10 29.99 30.01 30.04 30.13 30.21 30.21 30.23 30.18 30.13 29.67 29.20 29.64 29.89 29.75 28.45 25.32 26.46 27.61 27.49 27.59 27.96 28.25 28.58 29.22 29.89 30.19 30.23 30.49 31.17 31.45 31.75 32.04 32.18 32.26 32.45 32.61 32.73 32.58 32.12 32.05 32.66 32.28 31.86 31.71 32.07 32.69 32.93 33.05 33.66 34.06 34.24 34.38 34.49 34.68 34.72 34.83 35.00 35.13 35.29 35.55 35.58 35.53 35.71 35.88 36.36 36.84 36.28 36.13 36.23 36.43 36.71 36.85 36.86 37.03 37.02 37.15 37.29 37.31 37.36 37.42 37.33 37.37 37.31 37.54 37.78 37.84 37.93 38.00 38.00 38.11 38.22 38.37 38.55 39.10 38.99 39.16 39.29 39.43 39.39 39.22 39.36 39.53 39.53 39.73 39.66 39.84 40.02 40.07 40.09 40.21 40.30 40.45 40.45 40.48 40.56 40.82 41.00 41.07 41.27 41.47 41.70 41.79 41.75 41.83 41.96 42.01 42.04 42.00 42.07 42.01 42.02 41.98 41.94 41.92 41.96 41.80 41.78 42.00 41.91 41.87 42.00 41.98 41.82 41.64 41.41 40.89 39.10 38.28 40.35 41.91 41.98 42.05 42.15 42.05 41.94 42.09 41.97 41.75 41.32 40.74 40.00 39.39 39.22 38.71 40.70 41.41 41.64 41.73 41.93 42.10 42.22 42.29 42.31 42.27 42.26 42.30 42.33 42.42 42.41 42.72 42.66 42.57 42.70 42.58 42.61 42.86 42.89 43.10 43.19 43.34 43.52 43.84 44.19 44.40 44.57 44.88 44.93 44.90 44.84 44.69 44.44 44.42 44.51 44.73 44.84 45.07 45.27 45.27 45.25 42.25 36.84 34.51 35.70 39.68 42.38 42.55 41.74 44.67 47.20 48.77 49.26 47.67 47.13 46.91 47.54 48.42 48.85 48.92 49.16 49.38 49.41 49.45 49.47 49.49 49.51 49.66 49.58 49.73 49.88 50.10 50.27 50.19 50.28 50.50 50.89 50.66 50.64 51.02 51.30 51.25 51.20 51.26 51.42 51.62 51.71 51.88 52.04
24.74 24.77 24.73 24.06 22.62 21.44 22.37 22.28 21.82 20.85 11.86 9.90 12.08 14.60 17.04 18.59 18.70 18.90 20.13 22.18 23.60 23.93 24.07 23.96 23.83 23.69 23.63 23.47 23.30 23.28 23.28 23.28 23.41 23.53 23.70 23.98 24.30 24.29 24.23 24.29 24.13 24.00 23.93 23.79 23.38 23.40 23.68 24.04 24.20 24.32 24.56 24.68 24.94 25.15 25.37 25.44 25.59 25.81 25.92 26.02 26.08 26.20 26.41 26.54 26.61 26.70 26.79 26.68 26.66 26.74 26.78 26.94 27.06 27.27 27.24 27.32 27.43 27.36 27.50 27.63 27.86 28.01 28.30 28.44 28.53 28.58 28.61 28.84 29.14 29.42 29.68 29.81 30.01 30.25 30.39 30.49 30.58 30.58 30.56 30.63 30.63 30.69 30.64 30.75 30.72 31.16 31.41 31.30 30.80 30.04 29.93 29.72 29.50 29.45 29.45 29.47 29.62 29.72 29.94 29.92 30.13 30.12 30.04 29.98 30.00 30.02 29.98 29.99 29.98 29.94 29.95 30.11 30.19 30.14 30.09 29.94 29.77 29.97 30.15 30.23 30.18 30.06 30.13 30.18 30.29 30.28 30.30 30.30 30.32 30.37 30.29 30.22 29.85 29.37 29.62 30.08 30.05 28.71 25.44 25.76 27.13 27.45 28.24 28.13 27.96 28.91 29.30 29.15 29.78 29.96 30.17 30.89 31.29 31.68 31.95 32.17 32.32 32.45 32.72 33.00 33.07 32.97 32.77 33.11 33.16 32.94 32.31 31.53 31.80 32.01 32.29 33.42 33.99 34.15 34.38 34.54 34.78 34.88 34.91 35.06 35.16 35.36 35.52 35.60 35.73 35.89 36.47 36.99 36.20 36.21 36.38 36.48 36.63 36.74 36.83 36.98 37.22 37.31 37.41 37.46 37.47 37.49 37.59 37.55 37.49 37.48 37.62 37.80 38.07 38.12 38.13 38.10 38.20 38.24 38.38 38.61 39.21 39.18 39.31 39.34 39.29 39.45 39.34 39.49 39.76 39.80 39.94 39.94 39.96 40.11 40.20 40.28 40.46 40.50 40.52 40.58 40.54 40.73 40.91 41.06 41.26 41.53 41.66 41.80 41.85 41.94 42.11 42.19 42.24 42.14 42.17 42.24 42.22 42.15 42.19 42.14 42.09 42.14 42.00 42.01 42.12 42.15 42.09 42.13 42.02 41.98 41.87 41.25 40.53 40.27 38.72 39.74 41.95 42.14 42.20 42.20 42.02 41.96 41.98 41.88 41.69 41.48 41.36 40.84 40.38 39.72 38.56 40.18 41.47 41.86 41.95 42.22 42.31 42.32 42.36 42.28 42.21 42.32 42.42 42.48 42.56 42.58 42.83 42.93 42.81 42.88 42.76 42.76 43.03 43.04 43.21 43.35 43.53 43.83 43.95 44.22 44.35 44.42 44.63 44.81 44.83 44.87 44.89 44.87 44.74 44.83 44.98 44.94 44.97 44.91 43.72 42.07 41.21 39.10 37.19 35.35 34.18 34.77 35.84 38.18 40.65 42.26 45.37 46.32 44.60 43.38 44.23 47.44 48.40 48.74 48.79 48.93 49.21 49.36 49.50 49.45 49.41 49.45 49.58 49.57 49.64 49.73 49.90 50.36 50.25 50.38 50.65 51.04 50.76 50.75 50.93 51.21 51.29 51.33 51.39 51.49 51.73 51.99 52.00 52.06
25.27 24.69 23.85 22.90 23.17 24.04 24.76 23.25 22.23 20.90 13.08 10.08 11.98 13.88 16.65 18.45 18.85 19.16 20.04 21.85 23.52 23.97 24.02 23.94 23.97 23.81 23.67 23.57 23.44 23.43 23.45 23.44 23.53 23.51 23.68 23.93 24.25 24.25 24.34 24.31 24.22 24.01 23.99 23.83 23.55 23.47 23.84 24.10 24.30 24.46 24.68 24.85 25.05 25.18 25.41 25.51 25.63 25.83 25.96 26.04 26.14 26.25 26.38 26.54 26.62 26.75 26.82 26.78 26.79 26.74 26.84 26.90 27.10 27.30 27.08 27.35 27.42 27.46 27.43 27.55 27.81 27.97 28.19 28.32 28.41 28.38 28.49 28.76 29.06 29.27 29.62 29.84 30.03 30.31 30.51 30.55 30.75 30.79 30.86 30.76 30.73 30.87 30.95 30.90 30.74 30.82 30.63 30.71 30.67 30.78 30.23 29.70 29.61 29.53 29.44 29.54 29.82 29.91 30.05 30.14 30.24 30.35 30.12 30.04 30.11 30.11 30.13 30.15 30.05 29.99 29.88 30.16 30.28 30.20 30.20 30.11 29.96 30.08 30.24 30.25 30.19 30.14 30.31 30.27 30.32 30.35 30.51 30.47 30.45 30.48 30.44 30.40 30.03 29.75 29.65 30.08 30.21 29.19 25.93 25.59 27.15 27.64 28.81 29.36 28.58 29.29 30.13 30.54 31.07 30.87 30.25 30.64 30.97 31.30 31.68 32.12 32.23 32.47 32.66 33.05 33.16 33.17 33.18 33.33 33.42 33.32 33.48 32.98 32.06 32.01 32.04 32.73 32.94 32.74 33.38 33.73 34.58 34.93 35.04 35.08 35.23 35.37 35.47 35.63 35.80 36.40 36.94 36.40 36.14 36.28 36.48 36.65 36.73 36.91 36.98 37.18 37.31 37.38 37.53 37.56 37.51 37.66 37.69 37.67 37.73 37.72 37.75 37.85 38.12 38.14 38.22 38.31 38.30 38.29 38.50 38.78 39.22 39.58 39.05 39.38 39.39 39.55 39.47 39.64 39.92 40.02 40.06 40.22 40.23 40.22 40.31 40.44 40.69 40.64 40.63 40.77 40.71 40.85 40.97 41.15 41.28 41.56 41.83 41.94 42.01 42.02 42.32 42.34 42.37 42.38 42.42 42.45 42.43 42.41 42.35 42.33 42.25 42.21 42.04 42.07 42.25 42.43 42.24 42.29 42.30 42.13 41.86 41.49 41.64 41.16 39.05 38.83 41.34 42.21 42.34 42.29 42.26 42.24 42.16 42.06 42.02 41.84 41.71 40.93 40.75 40.42 38.84 40.41 41.75 41.94 42.18 42.41 42.42 42.53 42.54 42.49 42.44 42.50 42.60 42.57 42.75 42.90 43.04 43.23 43.11 43.03 42.98 42.98 43.13 43.21 43.42 43.51 43.83 43.86 43.74 43.94 44.12 44.36 44.64 44.84 44.95 44.93 45.14 45.27 45.03 45.09 45.28 45.14 44.85 44.51 42.62 41.85 40.48 41.55 40.60 37.95 36.19 34.44 35.41 36.05 36.27 37.00 38.84 38.35 36.68 36.69 39.56 45.25 47.89 48.89 49.09 49.34 49.50 49.50 49.67 49.67 49.63 49.47 49.57 49.70 49.74 49.80 49.89 50.18 50.32 50.59 50.77 50.98 50.81 50.85 51.22 51.31 51.43 51.57 51.72 51.85 52.17 52.22 52.16 52.36
24.42 24.11 23.70 23.04 23.58 24.58 25.35 23.71 22.55 21.77 15.58 10.07 11.56 13.27 16.23 18.42 19.00 19.29 20.04 21.49 23.24 23.83 23.93 24.02 24.10 24.00 23.79 23.68 23.39 23.43 23.46 23.45 23.64 23.44 23.58 23.93 24.30 24.33 24.32 24.31 24.18 24.12 24.16 23.95 23.58 23.63 23.86 24.11 24.35 24.55 24.82 24.96 25.14 25.20 25.40 25.57 25.69 25.90 26.07 26.15 26.34 26.47 26.56 26.42 26.70 27.05 27.01 26.94 26.97 26.79 26.92 26.96 27.09 27.31 27.12 27.40 27.44 27.48 27.61 27.62 27.72 27.94 28.01 28.36 28.53 28.33 28.40 28.60 28.96 29.03 29.38 29.70 29.85 30.11 30.34 30.63 30.87 30.83 30.89 30.85 30.80 30.86 30.89 30.95 30.78 30.63 30.61 30.74 30.61 30.87 30.36 30.15 29.94 29.74 29.56 29.66 29.94 30.02 30.18 30.16 30.19 30.53 30.53 30.24 30.19 30.18 30.24 30.26 30.17 30.06 30.20 30.45 30.35 30.41 30.28 30.23 30.12 30.02 30.33 30.34 30.30 30.27 30.39 30.45 30.49 30.46 30.56 30.54 30.64 30.64 30.55 30.53 30.42 30.15 29.92 30.04 30.38 30.14 27.45 25.57 27.13 27.87 29.11 29.78 29.73 29.56 31.00 32.06 32.41 32.38 31.57 31.16 31.35 31.22 31.62 32.06 32.18 32.48 32.62 32.85 33.06 33.14 33.44 33.55 33.56 33.55 33.67 33.74 33.59 33.32 33.03 31.85 31.16 31.30 32.79 33.19 33.62 34.17 34.88 35.18 35.36 35.54 35.66 35.80 36.39 36.98 36.39 36.31 36.32 36.43 36.60 36.85 36.89 37.02 37.15 37.33 37.44 37.51 37.70 37.74 37.78 37.86 37.78 37.73 37.84 37.87 37.88 38.05 38.14 38.23 38.65 38.55 38.52 38.51 38.75 38.98 39.38 39.89 39.32 39.45 39.57 39.58 39.66 39.76 40.05 40.07 40.20 40.34 40.27 40.15 40.41 40.54 40.70 40.85 40.85 40.91 40.90 40.96 41.14 41.26 41.52 41.73 41.89 42.06 42.11 42.19 42.37 42.43 42.56 42.58 42.63 42.64 42.57 42.45 42.42 42.53 42.46 42.29 42.23 42.21 42.42 42.64 42.52 42.50 42.44 42.23 42.00 41.91 42.05 41.70 39.90 38.91 41.12 42.33 42.47 42.45 42.43 42.32 42.32 42.26 42.18 42.06 41.85 41.09 41.07 40.64 38.52 40.00 41.55 41.99 42.22 42.37 42.45 42.60 42.61 42.58 42.56 42.63 42.76 42.76 42.93 43.16 43.31 43.55 43.59 43.23 43.28 43.14 43.29 43.63 43.77 43.48 43.63 43.69 43.72 43.90 44.12 44.39 44.75 44.89 45.05 45.13 45.31 45.44 45.35 45.44 45.58 45.50 44.97 43.86 44.39 44.62 44.53 43.98 42.72 40.03 38.07 37.19 35.38 34.53 35.15 36.72 37.55 39.10 39.87 36.51 37.11 41.51 46.68 49.89 50.61 50.23 48.83 48.85 49.41 49.58 49.65 49.47 49.51 49.68 49.73 49.91 49.88 49.99 50.30 50.51 50.75 50.97 50.74 50.83 51.37 51.32 51.51 51.72 51.92 51.97 52.18 52.21 52.22 52.54
24.18 24.41 24.22 23.45 23.22 23.27 24.19 23.29 22.77 22.62 17.98 10.06 11.31 12.86 15.34 17.95 18.89 19.41 20.13 21.15 22.92 23.85 24.01 24.10 24.13 24.09 23.91 23.78 23.57 23.63 23.46 23.46 23.55 23.46 23.59 23.91 24.25 24.43 24.35 24.40 24.32 24.30 24.18 24.06 23.65 23.78 24.00 24.11 24.35 24.57 24.71 25.00 25.14 25.19 25.45 25.64 25.69 25.93 26.07 26.24 26.47 26.63 26.60 24.79 25.94 27.09 27.09 27.01 27.10 27.06 27.11 27.13 27.23 27.70 27.44 27.48 27.50 27.42 27.51 27.61 27.65 27.86 27.98 28.34 28.51 28.33 28.36 28.62 28.82 28.92 29.17 29.50 29.62 29.85 30.10 30.54 30.84 30.92 30.99 31.03 30.94 30.89 30.84 30.86 30.90 30.64 30.76 30.73 30.63 30.43 30.15 30.44 30.15 29.69 29.64 29.63 29.88 30.20 30.18 30.15 30.34 30.36 30.35 30.27 30.27 30.28 30.31 30.34 30.30 30.13 30.33 30.54 30.42 30.47 30.38 30.25 30.05 30.00 30.36 30.51 30.44 30.35 30.24 30.19 30.51 30.62 30.64 30.70 30.71 30.63 30.62 30.67 30.59 30.37 30.24 30.22 30.49 30.24 28.27 25.77 27.09 28.01 29.51 29.87 30.17 30.51 31.37 32.36 32.73 32.92 32.56 31.74 31.70 31.68 32.10 32.04 32.11 32.39 32.59 32.85 33.08 33.22 33.43 33.61 33.64 33.67 33.82 34.11 34.21 34.05 34.17 33.65 32.24 32.92 33.85 34.05 34.17 34.03 34.45 35.20 35.42 35.65 35.79 36.32 37.00 36.49 36.30 36.34 36.53 36.80 36.83 36.90 37.00 37.14 37.27 37.45 37.64 37.82 37.90 37.91 37.93 37.97 37.90 37.98 37.99 38.07 37.98 38.21 38.32 38.36 38.50 38.56 38.70 38.83 38.94 39.11 39.31 39.72 39.62 39.70 39.84 39.74 39.77 39.88 40.07 40.27 40.46 40.44 40.50 40.43 40.56 40.66 40.81 40.99 41.11 41.09 41.15 41.16 41.35 41.51 41.61 41.81 42.08 42.25 42.37 42.42 42.54 42.61 42.75 42.75 42.86 42.90 42.76 42.62 42.60 42.74 42.67 42.54 42.58 42.55 42.63 42.80 42.79 42.73 42.63 42.54 42.32 42.22 42.12 41.37 39.63 39.53 41.91 42.59 42.57 42.55 42.51 42.44 42.42 42.23 42.05 42.00 41.82 41.70 41.63 40.93 39.09 38.78 40.76 41.76 42.18 42.54 42.57 42.59 42.56 42.65 42.66 42.72 42.76 42.86 42.99 43.30 43.47 43.69 43.80 43.45 43.34 43.35 43.54 43.78 43.58 43.57 43.71 43.87 43.99 43.96 44.17 44.59 44.93 45.07 45.15 45.26 45.32 45.50 45.64 45.75 45.72 45.75 46.01 45.79 45.68 45.86 45.88 45.97 44.21 41.27 40.12 39.43 37.73 35.52 37.80 42.24 41.56 41.17 44.08 41.59 38.10 37.36 41.32 47.32 49.22 49.07 47.28 48.48 49.03 49.20 49.30 49.39 49.64 49.72 49.72 49.93 49.99 50.01 50.36 50.47 50.52 50.57 50.53 50.79 51.01 51.34 51.43 51.72 52.04 52.09 52.25 52.38 52.32 52.51
24.48 24.54 23.61 22.88 23.02 23.15 23.39 23.21 23.10 22.93 19.86 10.55 11.01 12.37 14.47 17.33 18.60 19.31 19.99 20.90 22.26 23.62 23.98 24.24 24.21 24.02 23.96 23.79 23.68 23.62 23.70 23.62 23.62 23.60 23.59 23.78 24.17 24.60 24.50 24.58 24.44 24.28 24.33 24.18 23.68 23.85 24.10 24.07 24.33 24.59 24.76 24.97 25.19 25.32 25.49 25.61 25.69 25.95 26.09 26.26 26.43 26.52 26.27 25.40 26.42 27.03 27.12 27.11 27.12 27.14 27.28 27.29 27.34 27.66 27.49 27.51 27.64 27.59 27.63 27.76 27.74 27.84 27.91 28.25 28.55 28.29 28.37 28.59 28.64 28.83 29.10 29.31 29.40 29.60 29.80 30.14 30.66 30.93 31.01 31.08 31.04 31.07 30.89 30.87 30.91 30.78 30.85 30.83 30.70 30.39 30.32 30.38 29.93 29.85 29.84 29.99 29.87 30.41 30.59 30.42 30.49 30.57 30.74 30.45 30.50 30.53 30.45 30.43 30.40 30.03 30.18 30.59 30.55 30.55 30.52 30.38 30.24 30.26 30.44 30.61 30.64 30.58 30.49 30.52 30.65 30.69 30.73 30.79 30.75 30.79 30.82 30.85 30.66 30.56 30.40 30.35 30.51 30.50 29.42 25.96 26.76 28.17 30.03 30.96 30.53 30.77 31.21 32.12 32.73 32.93 32.52 31.95 31.97 32.25 32.19 32.09 32.25 32.32 32.50 32.70 32.99 33.21 33.48 33.67 33.83 33.88 34.02 34.26 34.27 34.29 34.48 34.24 32.30 32.54 34.42 34.51 34.56 34.47 34.61 35.12 35.31 35.64 36.27 36.95 36.46 36.26 36.31 36.52 36.59 36.93 36.99 37.03 37.10 37.32 37.48 37.56 37.75 37.95 38.01 38.02 38.01 38.09 38.09 38.18 38.24 38.28 38.16 38.33 38.44 38.56 38.73 38.84 38.92 38.96 39.00 39.21 39.50 39.73 39.72 39.85 40.00 39.96 39.91 40.07 40.17 40.46 40.68 40.69 40.81 40.60 40.64 40.73 40.91 41.09 41.29 41.26 41.25 41.36 41.34 41.49 41.67 41.90 42.23 42.32 42.53 42.59 42.61 42.77 42.93 42.91 42.93 42.94 43.04 42.90 42.84 42.92 42.92 42.78 42.69 42.71 42.76 42.91 42.87 42.75 42.77 42.75 42.68 42.34 41.65 40.28 39.85 41.50 42.63 42.67 42.70 42.65 42.66 42.67 42.51 42.31 42.21 42.29 42.14 42.09 41.95 41.37 39.86 38.94 39.92 41.55 42.21 42.51 42.58 42.74 42.73 42.86 42.95 42.81 42.93 43.02 43.12 43.43 43.62 43.79 43.96 43.69 43.45 43.52 43.57 43.91 43.82 43.71 43.90 43.99 44.17 44.19 44.27 44.58 44.93 45.03 45.19 45.35 45.50 45.70 45.71 45.79 45.77 45.88 46.09 46.52 46.07 46.30 46.16 46.53 45.29 42.22 41.74 40.40 37.76 35.99 39.02 45.37 45.05 43.57 45.66 46.53 44.77 41.10 42.46 44.92 46.09 45.77 46.42 48.21 48.81 49.02 49.26 49.34 49.56 49.49 49.67 49.94 50.03 49.99 50.13 50.02 50.16 50.52 50.65 50.88 51.15 51.41 51.44 51.72 52.17 52.26 52.40 52.53 52.43 52.65
23.99 24.15 23.97 23.89 23.60 23.02 22.91 23.27 23.42 23.13 21.24 11.89 10.44 11.95 13.62 16.56 18.39 19.34 19.84 20.55 21.56 22.94 23.99 24.40 24.34 24.08 23.99 23.95 23.78 23.76 23.89 23.71 23.65 23.62 23.57 23.64 24.04 24.47 24.39 24.48 24.49 24.46 24.33 23.99 23.76 24.01 24.15 24.12 24.38 24.50 24.79 24.95 25.23 25.36 25.58 25.68 25.88 26.02 26.16 26.27 26.37 26.42 26.60 26.66 26.85 27.05 27.18 27.14 27.14 27.16 27.28 27.41 27.49 27.62 27.67 27.62 27.66 27.83 27.72 27.83 27.89 27.94 28.15 28.16 28.22 28.18 28.29 28.43 28.63 28.86 29.04 29.06 29.23 29.41 29.79 30.10 30.53 30.64 30.86 31.00 31.00 31.18 30.89 30.89 31.02 30.91 30.89 30.77 30.75 30.75 31.06 30.69 30.14 30.01 30.08 30.23 30.19 30.38 30.42 30.46 30.81 30.90 31.15 30.73 30.76 30.72 30.68 30.67 30.74 30.56 30.46 30.62 30.62 30.59 30.62 30.52 30.40 30.47 30.54 30.60 30.67 30.73 30.68 30.67 30.81 30.85 30.87 30.86 30.95 31.01 30.84 30.93 30.80 30.73 30.56 30.54 30.57 30.67 30.14 27.20 26.78 28.01 29.30 31.24 30.80 30.92 31.48 31.29 31.24 30.70 30.70 31.06 31.67 32.24 32.19 32.23 32.40 32.38 32.52 32.65 32.90 33.15 33.56 33.78 33.93 34.06 34.25 34.37 34.32 34.40 34.57 34.41 33.62 34.24 34.70 34.82 34.79 34.69 34.81 35.11 35.33 35.27 36.40 36.25 36.20 36.27 36.46 36.66 36.81 36.98 37.03 37.13 37.36 37.47 37.53 37.67 37.85 37.99 38.04 38.04 38.13 38.23 38.29 38.39 38.39 38.35 38.39 38.53 38.68 38.74 38.92 39.07 38.97 39.00 39.12 39.26 39.58 39.87 39.79 40.08 40.22 40.21 40.11 40.09 40.28 40.43 40.72 40.78 40.95 40.82 40.70 40.83 41.05 41.26 41.48 41.49 41.38 41.45 41.50 41.54 41.85 42.13 42.33 42.56 42.72 42.80 42.85 42.97 43.04 43.06 43.03 43.07 43.10 43.07 42.97 43.10 43.15 43.02 42.93 42.84 42.99 43.18 43.00 42.87 42.69 42.50 42.20 41.40 40.17 39.82 40.61 42.58 43.01 42.92 42.78 42.76 42.88 42.87 42.70 42.59 42.54 42.59 42.44 42.03 41.39 40.93 39.72 40.04 39.78 40.98 42.23 42.72 42.75 42.95 42.87 43.24 43.17 43.02 43.10 43.22 43.36 43.56 43.63 43.73 44.02 43.89 43.81 43.66 43.58 43.92 43.98 43.85 43.93 44.16 44.28 44.33 44.40 44.50 44.73 44.95 45.14 45.28 45.44 45.55 45.68 45.72 45.89 46.11 46.10 46.14 46.17 46.42 46.49 46.67 45.56 43.11 40.80 40.61 38.90 36.14 39.07 45.07 45.82 46.23 47.65 47.41 47.24 46.81 45.27 45.00 45.00 45.03 45.41 46.04 47.76 48.57 49.06 49.28 49.49 49.50 49.67 49.77 49.73 49.25 49.14 49.61 49.88 50.28 50.61 50.88 51.15 51.36 51.52 51.77 52.18 52.24 52.25 52.46 52.50 52.90
24.10 24.22 23.87 23.42 23.36 23.14 23.01 23.30 23.40 22.77 20.57 14.12 10.62 10.94 12.96 15.50 17.85 19.00 19.83 20.34 20.92 22.01 23.64 24.37 24.40 24.27 24.23 24.24 24.07 24.00 23.97 23.66 23.67 23.74 23.70 23.89 24.23 24.59 24.47 24.51 24.58 24.45 24.31 23.98 23.80 24.02 24.16 24.39 24.56 24.80 24.93 25.03 25.27 25.47 25.75 25.71 25.91 26.07 26.23 26.34 26.42 26.57 26.67 26.74 26.86 27.07 27.13 27.19 27.26 27.25 27.32 27.46 27.55 27.67 27.71 27.72 27.77 27.90 27.84 27.95 28.23 28.18 28.15 28.24 28.30 28.32 28.45 28.47 28.57 29.02 29.33 29.32 29.34 29.46 29.79 30.15 30.37 30.55 30.73 30.87 30.95 31.07 30.94 30.98 30.98 30.81 30.76 30.71 30.68 30.69 31.07 30.28 30.14 30.10 30.24 30.31 30.30 30.52 30.60 30.55 30.79 30.91 30.94 30.84 30.75 30.82 30.81 30.82 30.75 30.72 30.60 30.69 30.69 30.71 30.69 30.63 30.52 30.56 30.71 30.84 30.81 30.86 30.88 30.60 30.74 31.01 31.05 31.01 31.02 31.12 31.15 31.08 31.03 30.90 30.84 30.72 30.65 30.23 28.64 27.07 26.67 27.54 28.18 29.23 29.55 30.67 29.96 29.07 28.92 29.01 29.72 30.33 30.78 31.31 32.19 32.39 32.50 32.63 32.73 32.85 33.19 33.30 33.52 33.72 34.01 34.19 34.36 34.61 34.64 34.63 34.70 34.51 33.95 34.76 35.01 35.09 35.14 35.09 35.25 35.18 35.71 35.95 35.49 35.93 36.30 36.45 36.70 36.86 36.95 37.09 37.17 37.32 37.42 37.55 37.69 37.85 38.01 38.09 38.20 38.24 38.23 38.29 38.36 38.38 38.46 38.59 38.60 38.62 38.83 38.90 39.05 39.18 39.11 39.14 39.21 39.38 39.56 39.90 39.85 40.15 40.32 40.42 40.38 40.25 40.39 40.57 40.94 40.98 41.02 41.06 41.02 40.92 41.15 41.43 41.59 41.66 41.63 41.63 41.67 41.63 42.03 42.32 42.46 42.72 42.88 43.02 43.00 43.03 43.15 43.16 43.18 43.20 43.24 43.22 43.20 43.30 43.37 43.27 43.18 43.09 43.07 43.07 42.98 42.95 42.60 41.95 41.02 40.17 40.93 40.94 41.20 42.59 43.15 43.25 42.89 42.84 42.94 43.01 42.96 42.92 42.82 42.71 42.40 41.60 40.47 39.61 39.36 40.49 40.56 40.44 41.95 42.81 42.99 43.09 43.13 43.12 43.26 43.31 43.35 43.38 43.49 43.61 43.72 43.97 44.12 44.06 43.92 43.90 43.84 43.98 44.11 44.09 44.06 44.39 44.56 44.52 44.57 44.71 44.77 44.99 45.19 45.33 45.50 45.68 45.75 45.86 46.08 46.18 46.17 46.22 46.39 46.51 46.67 46.81 45.30 44.19 44.02 45.09 44.02 37.84 40.15 44.62 45.66 48.94 49.94 48.23 47.26 45.56 45.00 45.01 45.01 45.00 45.00 45.14 46.44 47.50 48.14 49.06 49.37 49.21 48.91 49.46 48.60 48.44 49.19 49.95 50.11 50.32 50.46 50.76 51.21 51.45 51.49 51.79 52.20 52.34 52.38 52.61 52.62 52.89
24.19 24.13 23.73 23.50 23.40 23.30 23.31 23.48 23.52 22.42 20.46 16.48 11.99 10.29 12.05 14.35 17.06 18.67 19.50 20.06 21.06 22.36 23.74 24.35 24.56 24.47 24.36 24.31 24.20 24.18 24.13 23.94 23.91 24.01 24.14 24.16 24.24 24.57 24.49 24.54 24.69 24.65 24.55 24.30 24.06 24.01 24.14 24.43 24.58 24.72 24.99 25.15 25.37 25.62 25.71 25.75 25.95 26.05 26.30 26.39 26.43 26.55 26.70 26.88 26.92 27.06 27.17 27.30 27.32 27.25 27.35 27.49 27.68 27.81 27.92 27.80 27.95 28.03 28.08 28.12 28.20 28.24 28.30 28.34 28.26 28.31 28.53 28.53 28.70 29.15 28.97 28.93 29.24 29.35 29.65 29.87 30.16 30.40 30.61 30.83 31.00 31.00 31.01 30.99 30.87 30.86 30.76 30.70 30.55 30.63 31.02 30.34 30.18 30.31 30.36 30.38 30.48 30.70 30.91 30.76 30.88 31.01 31.11 30.98 30.85 30.83 30.97 30.90 30.82 30.86 30.76 30.83 30.81 30.73 30.81 30.76 30.56 30.65 30.74 30.87 30.93 31.05 31.11 30.93 31.06 31.19 31.26 31.16 31.05 31.14 31.17 31.19 31.08 30.99 31.00 30.95 30.81 30.19 28.20 26.88 26.61 27.12 28.11 28.40 28.81 30.71 30.19 30.42 30.23 29.52 30.46 30.81 30.72 31.41 31.99 32.20 32.54 32.85 32.99 33.10 33.19 33.24 33.38 33.60 33.95 34.20 34.38 34.68 34.82 34.71 34.79 34.44 33.99 33.86 34.74 35.19 35.38 35.48 35.51 35.74 36.35 36.05 35.81 35.88 36.05 36.18 36.51 36.71 36.76 37.07 37.22 37.29 37.34 37.56 37.80 38.02 38.10 38.20 38.33 38.44 38.39 38.46 38.55 38.56 38.66 38.72 38.75 38.83 38.90 38.98 39.19 39.31 39.25 39.22 39.28 39.53 39.67 40.10 40.06 40.16 40.34 40.36 40.51 40.65 40.65 40.78 41.02 41.19 41.19 41.13 41.15 41.03 41.36 41.61 41.74 41.80 41.81 41.79 41.92 41.90 42.18 42.39 42.58 42.81 42.89 43.04 43.17 43.26 43.35 43.26 43.24 43.31 43.30 43.37 43.39 43.54 43.61 43.52 43.40 43.38 43.16 43.08 43.35 43.46 43.25 43.05 41.81 40.40 41.17 41.53 41.51 42.33 42.91 43.38 43.23 43.07 43.11 43.20 43.16 43.12 42.98 42.69 42.02 40.41 39.49 39.64 40.38 40.75 41.45 40.46 41.23 42.62 43.05 43.21 43.34 43.38 43.52 43.58 43.60 43.57 43.63 43.84 43.99 44.21 44.26 44.27 44.08 44.11 44.04 44.11 44.21 44.10 44.17 44.54 44.64 44.73 44.90 45.05 45.09 45.31 45.52 45.52 45.65 45.89 45.86 45.90 46.15 46.26 46.38 46.42 46.52 46.63 46.90 47.07 46.68 46.77 47.01 47.49 46.65 44.58 45.12 46.63 47.41 48.57 47.90 47.29 46.29 45.09 45.00 45.59 45.53 45.04 45.00 45.00 45.12 45.63 46.43 47.95 48.48 47.53 47.15 48.28 47.72 48.87 49.65 49.99 50.27 50.54 50.56 50.75 51.20 51.53 51.52 51.83 52.13 52.27 52.44 52.65 52.66 52.81
24.13 24.10 23.93 23.83 23.58 23.52 23.55 23.62 23.61 22.46 22.19 20.23 15.85 10.99 11.12 13.11 15.86 18.33 19.33 20.25 21.55 22.75 23.84 24.38 24.61 24.58 24.46 24.44 24.39 24.30 24.27 24.11 24.05 24.11 24.03 23.96 23.92 24.42 24.53 24.72 24.86 24.81 24.66 24.37 24.26 24.24 24.07 24.26 24.49 24.69 25.02 25.25 25.33 25.60 25.73 25.84 25.99 26.02 26.24 26.39 26.52 26.58 26.72 26.81 26.84 27.04 27.17 27.28 27.33 27.32 27.45 27.59 27.72 27.80 28.12 27.99 28.16 28.24 28.26 28.23 28.23 28.32 28.38 28.39 28.35 28.48 28.35 28.55 28.71 29.21 28.96 28.92 29.16 29.26 29.56 29.81 29.98 30.24 30.52 30.85 30.95 31.08 30.92 30.95 30.90 30.88 30.70 30.71 30.58 30.59 31.03 30.49 30.42 30.45 30.47 30.57 30.62 30.82 30.91 30.83 30.96 31.05 31.18 31.12 30.99 31.00 31.10 31.13 31.03 30.93 30.83 30.76 30.82 30.83 30.83 30.66 30.64 30.84 30.88 30.95 30.93 30.98 31.08 31.15 31.15 31.17 31.33 31.39 31.41 31.50 31.39 31.34 31.29 31.19 31.32 31.25 31.01 29.95 28.82 27.87 26.78 26.93 27.89 28.85 29.10 30.14 29.15 29.65 31.26 29.99 30.16 30.85 31.47 31.91 31.93 32.00 32.22 32.59 33.01 33.21 33.28 33.33 33.43 33.65 33.95 34.15 34.43 34.73 34.94 34.98 35.00 35.01 34.82 34.40 34.59 35.02 35.52 35.73 36.01 36.57 36.15 36.06 35.96 35.97 35.97 36.15 36.37 36.49 36.70 36.92 37.13 37.20 37.40 37.65 37.84 38.09 38.16 38.04 37.91 38.51 38.62 38.61 38.68 38.74 38.78 38.80 38.94 39.06 39.06 39.12 39.34 39.63 39.57 39.49 39.45 39.67 39.73 40.19 40.13 40.25 40.44 40.56 40.77 40.84 40.84 40.91 40.97 41.24 41.19 41.25 41.22 41.25 41.44 41.62 41.77 41.87 42.00 42.02 41.98 42.14 42.29 42.52 42.69 42.84 42.94 43.10 43.24 43.35 43.45 43.40 43.48 43.38 43.32 43.49 43.62 43.76 43.88 43.86 43.81 43.69 43.44 43.34 43.48 43.65 43.66 43.51 42.36 41.05 40.62 41.35 42.09 42.91 43.31 43.56 43.57 43.50 43.31 43.34 43.27 43.24 43.03 42.68 41.76 40.15 40.07 40.76 41.16 41.38 42.25 41.67 40.87 41.45 42.61 43.25 43.49 43.69 43.83 44.03 43.99 43.92 44.03 44.11 44.16 44.34 44.36 44.37 44.32 44.48 44.42 44.33 44.35 44.34 44.41 44.63 44.88 44.84 44.92 45.08 45.19 45.27 45.36 45.51 45.75 45.98 45.99 46.03 46.19 46.29 46.45 46.57 46.64 46.71 46.92 47.39 47.88 48.45 48.42 47.57 46.13 45.62 45.15 45.12 45.41 46.22 46.10 45.61 45.24 45.42 45.16 46.55 47.17 46.01 45.35 45.01 45.00 45.00 45.37 45.66 45.93 45.67 46.62 46.74 47.14 48.08 48.22 48.82 49.95 50.65 50.68 50.78 51.10 51.42 51.66 51.90 52.06 52.30 52.57 52.81 52.73 52.90
24.15 24.05 24.04 24.04 23.75 23.71 23.78 23.83 23.79 23.07 22.83 22.15 20.15 12.79 10.82 12.28 14.75 17.46 19.07 20.31 21.37 22.33 23.50 24.45 24.57 24.54 24.51 24.51 24.39 24.34 24.54 24.27 24.04 23.94 23.86 23.92 24.05 24.44 24.62 24.62 24.74 24.85 24.78 24.51 24.37 24.27 24.14 24.10 24.41 24.70 25.03 25.23 25.38 25.62 25.79 25.82 25.98 26.07 26.19 26.45 26.62 26.65 26.76 26.83 26.90 27.04 27.17 27.32 27.40 27.44 27.56 27.62 27.68 27.90 28.17 28.29 28.12 28.25 28.30 28.37 28.36 28.31 28.39 28.53 28.59 28.62 28.52 28.71 28.74 29.01 29.04 29.20 29.24 29.36 29.53 29.79 29.96 30.28 30.72 30.91 30.93 30.98 30.87 30.89 30.93 30.85 30.80 30.68 30.68 30.74 30.68 30.58 30.28 30.34 30.58 30.80 30.83 30.69 30.94 30.96 30.96 31.17 31.27 31.26 31.15 31.20 31.22 31.15 31.06 31.05 30.93 30.84 30.87 30.95 30.72 30.73 30.77 30.92 31.01 31.07 31.04 31.07 31.16 31.14 31.11 31.10 31.27 31.40 31.47 31.56 31.53 31.55 31.43 31.31 31.38 31.26 31.26 31.01 30.99 29.71 27.12 26.65 27.55 28.91 29.03 30.15 30.44 30.02 29.83 29.87 30.19 30.66 31.82 32.17 32.26 32.26 32.41 32.69 33.12 33.28 33.37 33.44 33.56 33.75 33.96 34.12 34.38 34.70 34.92 35.12 35.09 35.37 35.36 35.21 35.18 34.90 34.75 35.49 36.41 36.11 36.00 36.25 36.23 36.19 36.15 36.40 36.67 36.67 36.23 36.88 37.10 37.33 37.66 37.82 37.99 38.10 38.29 36.30 35.63 38.46 38.75 38.79 38.84 38.84 38.94 39.02 39.07 39.15 39.22 39.34 39.56 39.70 39.72 39.76 39.63 39.70 39.90 40.07 40.19 40.36 40.64 40.71 40.90 41.09 41.12 41.13 41.01 41.07 41.34 41.60 41.52 41.39 41.54 41.75 41.86 42.09 42.19 42.21 42.26 42.42 42.52 42.62 42.80 42.98 43.12 43.30 43.40 43.43 43.53 43.55 43.56 43.50 43.50 43.67 43.85 43.98 44.06 44.04 44.01 43.87 43.76 43.54 43.60 43.75 43.71 43.53 43.03 41.88 41.23 42.03 42.63 43.03 43.41 43.77 43.81 43.64 43.48 43.48 43.51 43.49 43.09 42.19 41.04 40.94 40.84 41.44 41.66 42.14 42.73 42.58 42.12 41.23 41.13 42.53 43.35 43.90 44.07 44.22 44.35 44.23 44.38 44.47 44.45 44.44 44.44 44.39 44.39 44.64 44.68 44.58 44.47 44.66 44.90 44.94 44.99 45.07 45.20 45.31 45.22 45.35 45.51 45.63 45.77 45.95 46.06 46.19 46.31 46.39 46.50 46.61 46.75 46.79 46.93 47.69 47.90 47.69 46.96 45.57 45.01 45.00 45.00 45.00 45.06 45.47 45.86 46.37 46.91 47.38 45.81 46.32 47.69 47.57 46.98 45.26 45.00 45.00 45.29 45.70 45.42 45.15 45.72 46.62 47.58 48.56 48.62 48.14 48.89 50.45 50.93 51.04 51.05 51.75 52.03 51.95 52.05 52.18 52.41 52.87 53.04 53.03
24.24 24.19 24.19 24.13 23.91 23.83 23.82 23.78 23.84 23.83 23.79 23.35 22.69 16.53 10.93 11.76 13.86 16.34 18.65 20.07 21.24 22.18 23.23 24.41 24.64 24.61 24.63 24.65 24.59 24.45 24.47 24.30 24.21 24.09 24.08 24.13 24.28 24.49 24.70 24.65 24.81 24.86 24.74 24.60 24.42 24.19 24.12 24.19 24.29 24.68 25.01 25.25 25.34 25.52 25.64 25.72 25.94 26.14 26.32 26.43 26.58 26.73 26.93 26.99 27.00 27.06 27.15 27.28 27.43 27.57 27.61 27.65 27.67 27.94 28.15 28.50 28.24 28.32 28.39 28.47 28.45 28.43 28.59 28.66 28.70 28.76 28.73 28.87 28.87 28.88 29.09 29.27 29.32 29.37 29.63 29.79 29.92 30.36 30.66 30.71 30.85 30.95 30.99 30.98 31.05 30.99 30.82 30.69 31.07 31.76 31.21 30.89 30.41 30.38 30.64 30.75 30.79 30.66 31.00 31.09 31.18 31.33 31.39 31.40 31.32 31.34 31.25 31.22 31.13 31.15 31.06 30.86 30.93 30.87 30.85 31.03 31.06 31.02 31.13 31.14 31.19 31.21 31.17 31.20 31.17 31.18 31.36 31.57 31.59 31.65 31.69 31.67 31.55 31.59 31.56 31.38 31.45 31.48 31.70 30.44 27.62 26.79 26.94 28.33 29.22 30.95 32.05 32.59 30.81 29.92 30.37 31.68 32.12 32.31 32.48 32.60 32.70 32.96 33.11 33.35 33.38 33.41 33.57 33.74 33.93 34.14 34.37 34.65 34.87 35.15 35.23 35.47 35.52 35.47 35.56 35.54 35.29 36.15 36.20 35.73 35.85 36.07 36.28 36.26 36.33 36.47 36.71 36.95 36.83 36.98 37.13 37.42 37.53 37.75 37.95 38.16 38.32 37.72 37.10 38.48 38.70 38.82 38.89 38.95 39.03 39.12 39.15 39.23 39.35 39.63 39.75 39.88 39.97 39.86 39.75 39.82 40.11 40.42 40.29 40.49 40.76 40.89 41.10 41.33 41.37 41.28 41.24 41.27 41.48 41.75 41.78 41.58 41.65 41.90 42.01 42.24 42.26 42.32 42.45 42.55 42.66 42.67 42.79 43.07 43.33 43.48 43.57 43.65 43.72 43.70 43.67 43.65 43.58 43.70 43.97 44.09 44.16 44.18 44.16 44.06 44.00 43.92 43.82 43.77 43.99 43.98 43.32 41.12 41.44 42.16 42.83 43.15 43.49 43.91 43.90 43.86 43.73 43.65 43.74 43.67 43.13 41.96 41.27 41.43 41.74 42.35 42.11 42.28 42.85 43.04 42.98 42.57 41.40 41.80 42.77 43.52 44.10 44.42 44.56 44.56 44.59 44.59 44.58 44.64 44.61 44.66 44.65 44.71 44.83 44.72 44.62 44.89 45.03 45.14 45.08 45.33 45.50 45.44 45.40 45.51 45.79 45.99 45.92 45.99 46.13 46.26 46.39 46.49 46.55 46.65 46.75 46.80 46.97 47.96 47.42 47.28 45.96 45.02 45.00 45.00 45.00 45.06 45.35 47.03 47.97 48.18 48.21 48.02 47.21 45.96 47.51 48.07 47.86 46.19 45.03 45.00 45.32 46.72 47.05 46.58 46.77 47.99 48.92 49.73 50.05 49.91 48.75 49.57 50.63 51.18 50.99 51.51 51.81 51.91 52.04 51.98 52.21 52.76 53.02 52.97
24.36 24.34 24.29 24.15 24.11 23.98 24.01 23.96 23.98 24.21 24.06 23.24 21.15 17.89 11.95 10.97 13.07 15.32 17.73 19.73 20.47 21.46 22.85 24.18 24.77 24.78 24.81 24.79 24.73 24.57 24.48 24.34 24.31 24.39 24.32 24.30 24.34 24.59 24.81 24.73 24.74 24.89 24.88 24.81 24.47 24.28 24.30 24.26 24.29 24.62 25.00 25.26 25.44 25.54 25.62 25.71 25.94 26.10 26.26 26.51 26.61 26.70 26.89 27.01 27.10 27.10 27.20 27.39 27.57 27.58 27.69 27.81 27.77 28.02 28.04 28.37 28.40 28.37 28.42 28.52 28.51 28.64 28.76 28.89 28.90 28.95 28.99 29.13 29.16 29.11 29.24 29.29 29.49 29.46 29.65 29.92 30.01 30.37 30.76 30.67 30.79 31.02 31.06 31.08 31.19 30.97 30.75 30.61 31.04 32.11 31.04 30.64 30.43 30.57 30.74 30.85 31.00 31.14 31.26 31.30 31.40 31.56 31.61 31.61 31.45 31.44 31.44 31.38 31.38 31.26 31.16 31.01 30.98 30.91 31.06 31.07 31.18 31.24 31.25 31.34 31.31 31.25 31.23 31.29 31.33 31.36 31.42 31.60 31.75 32.24 32.67 32.87 32.20 32.21 32.51 32.41 32.33 31.80 31.05 29.45 28.15 27.39 26.92 27.39 29.01 31.71 33.33 33.75 33.38 31.88 31.96 32.59 32.32 32.59 32.67 32.68 32.83 33.09 33.25 33.37 33.46 33.46 33.64 33.73 33.85 34.09 34.37 34.68 34.95 35.21 35.28 35.45 35.64 35.68 35.73 35.92 36.63 36.42 35.98 36.08 36.05 35.88 36.24 36.46 36.53 36.57 36.79 37.06 37.16 37.16 37.26 37.54 37.64 37.88 38.09 38.06 38.26 38.41 38.62 38.67 38.78 38.89 38.90 39.05 39.19 39.27 39.31 39.40 39.49 39.75 39.87 40.06 40.32 40.09 40.00 39.96 40.20 40.62 40.45 40.61 40.88 41.05 41.27 41.50 41.61 41.57 41.46 41.57 41.62 41.75 41.98 41.94 41.79 42.10 42.26 42.32 42.50 42.62 42.62 42.68 42.73 42.82 43.00 43.27 43.43 43.59 43.69 43.77 43.80 43.86 43.87 43.84 43.86 43.91 44.14 44.27 44.34 44.41 44.38 44.23 44.13 44.18 44.04 43.93 44.24 44.26 43.80 42.32 41.12 41.66 43.05 43.46 43.75 44.17 44.18 44.13 43.97 43.94 43.93 43.62 42.97 41.97 41.42 41.77 42.41 43.02 42.48 42.40 42.85 43.34 43.51 43.33 42.55 40.94 41.33 42.02 43.65 44.44 44.59 44.63 44.74 44.77 44.73 44.77 44.79 44.74 44.78 44.68 44.79 44.78 44.82 45.02 45.21 45.45 45.33 45.48 45.64 45.67 45.75 45.83 46.00 46.06 46.11 46.16 46.23 46.37 46.48 46.58 46.67 46.82 46.87 46.92 47.46 48.22 47.25 46.67 45.54 45.00 45.00 45.00 45.00 45.43 46.50 47.46 48.18 48.49 48.61 48.38 48.14 47.20 47.12 48.06 48.11 47.57 46.22 45.07 45.12 46.23 47.40 48.09 48.08 48.60 49.64 49.92 50.12 50.34 50.11 49.91 50.21 50.57 50.85 51.32 51.76 51.99 52.18 52.23 52.37 52.77 53.01 53.00
24.34 24.35 24.26 24.27 24.31 24.17 24.09 24.02 24.03 24.08 23.43 22.97 20.49 17.05 15.29 10.81 11.90 14.45 16.60 18.60 20.04 21.53 22.81 24.00 24.59 24.94 24.80 24.74 24.76 24.67 24.60 24.38 24.35 24.44 24.43 24.39 24.46 24.62 24.72 24.72 24.79 24.89 24.99 24.92 24.61 24.49 24.56 24.50 24.27 24.49 24.85 25.10 25.27 25.50 25.66 25.84 25.98 26.07 26.27 26.46 26.66 26.77 26.95 27.10 27.15 27.17 27.35 27.57 27.65 27.73 27.82 27.89 28.01 28.13 28.00 28.18 28.61 28.59 28.56 28.69 28.70 28.79 28.85 28.93 28.99 29.07 29.21 29.36 29.41 29.45 29.50 29.47 29.72 29.58 29.86 30.17 30.40 30.79 30.92 30.69 30.74 31.12 31.06 31.15 31.13 31.02 30.89 30.62 30.51 31.07 31.60 31.17 30.60 30.76 30.79 30.91 31.09 31.22 31.39 31.49 31.51 31.64 31.59 31.60 31.40 31.52 31.53 31.42 31.36 31.28 31.30 31.21 31.09 31.02 31.04 31.19 31.30 31.39 31.39 31.52 31.43 31.44 31.46 31.46 31.46 31.50 31.57 31.75 31.91 32.57 33.07 33.40 33.02 33.19 33.59 33.54 33.40 31.81 29.61 28.33 28.04 27.95 27.93 27.20 27.91 29.09 29.77 30.55 31.82 32.22 32.19 30.96 30.40 30.88 31.42 31.87 32.56 33.07 33.34 33.41 33.49 33.67 33.97 33.76 33.97 34.10 34.26 34.65 34.99 35.63 35.43 35.50 35.64 35.74 35.98 36.59 36.65 36.23 36.20 36.23 36.40 36.34 36.14 36.25 36.52 36.50 36.84 37.13 37.24 37.42 37.35 37.48 37.77 37.89 38.17 38.15 38.26 38.46 38.67 38.81 38.84 39.02 39.03 39.22 39.31 39.39 39.50 39.58 39.66 39.76 39.96 40.08 40.21 40.21 40.27 40.18 40.35 40.71 40.61 40.87 40.99 41.20 41.42 41.70 41.82 41.76 41.67 41.67 41.67 41.80 41.95 42.07 42.06 42.13 42.39 42.44 42.72 42.81 42.85 42.81 42.89 43.11 43.23 43.39 43.56 43.70 43.81 43.88 43.93 44.08 44.09 43.91 44.05 44.17 44.34 44.47 44.42 44.50 44.51 44.41 44.33 44.37 44.22 44.08 44.19 44.28 44.10 43.41 42.06 42.73 43.74 43.93 44.11 44.34 44.55 44.38 44.24 44.05 43.94 43.72 43.32 42.33 41.74 42.01 43.11 43.43 42.93 42.90 43.15 43.60 43.95 43.96 43.14 41.10 40.96 41.56 43.71 44.61 44.75 44.74 44.79 44.95 44.90 44.94 44.87 44.82 44.91 44.81 44.83 44.91 44.92 45.14 45.35 45.67 45.72 45.68 45.83 46.01 46.02 45.99 45.87 45.94 46.31 46.51 46.69 46.80 46.70 46.73 46.80 47.02 47.05 47.12 47.88 47.91 46.63 45.17 45.24 45.00 45.00 45.00 45.00 45.49 47.72 48.19 48.36 48.74 48.93 48.84 48.61 48.32 47.72 48.07 48.27 47.36 45.56 45.07 45.00 45.32 45.96 45.68 45.71 47.02 49.06 49.97 50.16 50.29 50.55 50.51 50.55 50.78 50.93 51.20 51.59 51.95 52.19 52.52 52.72 52.92 52.95 53.00
24.47 24.16 23.99 24.11 24.21 24.22 24.20 23.71 23.11 22.38 20.19 18.64 17.74 18.54 20.66 12.18 11.43 13.81 15.61 17.62 19.32 20.96 22.70 23.87 24.54 24.94 24.95 24.76 24.78 24.73 24.75 24.53 24.48 24.54 24.61 24.57 24.62 24.70 24.89 24.79 24.92 24.99 24.99 25.00 24.72 24.55 24.59 24.54 24.34 24.45 24.66 25.02 25.26 25.55 25.78 25.88 25.98 26.06 26.22 26.42 26.63 26.75 26.88 27.10 27.12 27.22 27.36 27.56 27.59 27.78 27.77 27.91 28.09 28.18 28.12 28.23 28.58 28.83 28.65 28.85 28.91 29.02 29.08 29.14 29.18 29.36 29.43 29.54 29.67 29.77 29.81 29.73 29.98 30.09 30.37 30.51 30.44 30.67 30.70 30.80 30.88 31.19 31.27 31.16 30.91 30.95 30.98 30.76 30.76 30.76 31.18 31.36 30.94 30.96 30.99 31.11 31.16 31.29 31.48 31.45 31.54 31.60 31.60 31.56 31.48 31.58 31.58 31.46 31.47 31.38 31.34 31.23 31.20 31.23 31.20 31.35 31.46 31.56 31.60 31.54 31.56 31.50 31.53 31.59 31.60 31.61 31.64 31.74 32.16 32.56 33.21 33.57 33.46 33.44 33.67 33.66 33.04 31.35 29.99 28.94 28.14 28.35 28.48 28.17 27.74 28.31 28.34 28.16 28.28 28.68 29.38 29.40 29.62 29.77 29.86 30.24 31.27 32.01 32.97 33.51 33.65 33.76 33.74 33.78 34.12 34.29 34.49 34.73 34.84 35.18 35.36 35.56 35.71 36.02 36.69 36.66 36.42 36.36 36.43 36.49 36.54 36.66 36.52 36.45 36.62 36.83 36.94 37.25 37.44 37.60 37.49 37.41 37.59 37.96 38.21 38.32 38.42 38.61 38.67 38.80 38.96 39.16 39.26 39.42 39.45 39.49 39.63 39.73 39.81 39.91 40.02 40.21 40.29 40.33 40.45 40.41 40.52 40.90 40.80 41.02 41.08 41.27 41.49 41.90 41.97 41.93 41.90 41.83 41.78 41.93 42.01 42.07 42.30 42.44 42.46 42.39 42.91 43.00 42.97 43.02 43.07 43.20 43.35 43.58 43.83 43.89 43.96 44.06 44.09 44.11 44.15 44.07 44.14 44.25 44.41 44.61 44.59 44.54 44.63 44.69 44.59 44.54 44.47 44.38 44.39 44.34 44.08 43.55 42.47 43.58 44.14 44.29 44.40 44.57 44.71 44.56 44.43 44.30 44.13 43.75 43.15 42.88 42.26 42.29 43.18 43.86 43.73 43.50 43.48 43.92 44.23 44.30 43.75 42.61 41.57 40.77 43.04 44.65 44.83 44.97 44.96 45.12 45.06 45.05 44.90 44.89 45.07 44.94 45.02 45.13 45.09 45.33 45.43 45.68 45.86 45.98 46.04 46.06 46.15 46.24 46.19 46.25 46.45 46.90 47.06 47.03 46.93 47.04 47.00 47.17 47.21 47.27 48.16 47.40 46.49 45.49 45.12 45.00 45.00 45.00 45.00 45.32 47.65 48.57 48.87 49.04 49.09 49.04 48.88 48.64 48.14 48.20 48.43 47.11 45.00 45.00 45.00 45.48 46.51 45.23 45.00 45.17 47.36 49.51 50.04 50.08 50.38 50.70 50.75 50.99 51.18 51.20 51.28 51.72 52.14 52.44 52.71 52.90 52.95 53.10
24.56 23.61 22.53 22.37 22.89 23.17 22.95 21.82 20.14 18.27 18.04 19.28 17.21 20.16 22.19 14.28 10.92 13.34 14.89 16.66 18.62 20.60 22.41 23.77 24.56 24.81 24.99 24.97 24.80 24.81 24.88 24.93 24.78 24.76 24.73 24.68 24.61 24.66 24.90 24.99 25.04 25.08 25.04 25.01 24.90 24.69 24.67 24.61 24.60 24.73 24.80 25.13 25.37 25.63 25.82 25.79 25.82 25.98 26.20 26.43 26.68 26.77 26.93 27.13 27.16 27.30 27.46 27.65 27.72 27.73 27.89 27.91 28.05 28.15 28.20 28.36 28.50 28.95 29.03 28.96 29.05 29.12 29.23 29.32 29.35 29.47 29.64 29.84 30.15 30.24 30.25 30.09 30.18 30.28 30.44 30.73 30.81 30.87 30.82 31.04 31.09 31.34 31.32 31.14 31.00 31.00 31.07 30.95 30.85 30.88 31.16 31.80 31.55 31.24 31.37 31.28 31.23 31.32 31.75 31.67 31.63 31.62 31.78 31.83 31.82 31.81 31.66 31.56 31.69 31.59 31.46 31.41 31.41 31.42 31.30 31.39 31.47 31.51 31.61 31.61 31.60 31.50 31.50 31.61 31.66 31.78 31.84 31.96 32.37 33.01 33.35 33.89 33.57 33.44 33.83 33.38 31.89 31.70 31.09 29.69 28.35 28.31 28.52 28.55 27.57 27.98 28.68 28.94 28.80 27.92 28.00 29.10 29.67 29.92 29.99 30.10 30.79 32.28 32.91 33.31 33.63 33.87 34.09 33.92 34.12 34.24 34.49 34.92 34.99 35.19 35.36 35.59 35.90 36.59 36.71 36.38 36.37 36.27 36.69 36.75 36.66 36.80 36.79 36.69 36.66 37.06 37.07 37.23 37.57 37.63 37.73 37.80 37.88 37.98 38.05 38.30 38.47 38.64 38.75 38.79 39.19 39.33 39.44 39.47 39.54 39.65 39.79 39.91 39.92 40.09 40.18 40.33 40.43 40.47 40.65 40.63 40.61 40.89 40.99 41.12 41.25 41.37 41.65 42.02 42.18 42.16 42.20 42.11 41.99 42.07 42.10 42.29 42.45 42.59 42.60 42.75 43.33 43.09 43.07 43.12 43.12 43.31 43.46 43.64 43.94 44.04 44.09 44.13 44.21 44.23 44.23 44.24 44.31 44.34 44.50 44.68 44.76 44.72 44.81 44.82 44.78 44.64 44.61 44.51 44.37 44.14 43.66 43.17 42.90 43.80 44.36 44.55 44.68 44.77 44.80 44.76 44.49 44.26 43.91 43.66 43.45 43.01 42.32 42.66 43.27 44.09 44.10 43.81 43.64 44.11 44.32 44.28 43.35 41.78 41.11 41.11 43.40 44.70 44.89 45.00 45.07 45.22 45.23 45.09 44.97 45.05 45.28 45.23 45.41 45.54 45.62 45.68 45.72 45.92 45.92 46.17 46.23 46.28 46.42 46.52 46.40 46.47 46.46 46.76 47.14 47.09 47.08 47.23 47.29 47.44 47.46 47.75 48.43 46.29 45.38 45.27 45.22 45.00 45.00 45.00 45.00 45.04 47.17 48.77 49.00 49.09 49.16 49.13 49.11 48.99 48.68 48.46 48.86 48.41 46.54 45.13 45.00 45.00 45.00 45.00 45.00 45.01 45.88 47.95 48.94 49.06 49.90 50.65 50.92 51.23 51.35 51.22 51.14 51.55 52.09 52.26 52.47 52.71 52.94 53.12
24.57 23.92 22.81 21.59 20.64 19.96 19.17 18.52 18.93 19.64 20.52 20.53 20.71 25.19 23.68 16.65 11.02 12.69 14.28 15.58 17.98 20.31 21.98 23.61 24.38 24.89 25.07 25.16 25.10 25.11 25.01 25.03 24.83 24.83 24.75 24.73 24.72 24.74 24.86 25.10 25.11 25.25 25.16 25.02 25.01 24.92 24.73 24.67 24.69 24.78 24.93 25.02 25.38 25.51 25.65 25.86 25.98 26.07 26.24 26.55 26.76 26.84 27.00 27.17 27.21 27.29 27.45 27.71 27.70 27.77 27.97 28.01 27.96 28.14 28.22 28.43 28.63 28.82 29.17 29.25 29.15 29.21 29.37 29.63 29.62 29.67 29.97 30.17 30.32 30.48 30.54 30.39 30.42 30.45 30.63 30.98 31.09 31.08 31.21 31.24 31.30 31.38 31.27 31.20 31.10 30.96 30.96 30.93 30.77 30.81 31.07 31.75 31.55 31.35 31.39 31.15 31.23 31.29 32.21 31.64 31.63 31.64 31.73 31.85 32.11 32.14 31.75 31.73 31.73 31.63 31.58 31.56 31.52 31.61 31.59 31.45 31.65 31.73 31.63 31.69 31.82 31.70 31.58 31.63 31.85 31.90 31.98 32.07 32.24 32.72 33.48 34.09 33.78 33.86 34.02 32.61 32.17 32.37 31.90 30.32 28.71 28.41 28.60 28.69 28.04 27.56 28.56 29.13 29.49 28.97 27.83 28.83 29.43 29.72 29.86 30.23 31.77 32.86 33.18 33.45 33.75 33.82 34.13 34.12 34.19 34.37 34.48 34.85 35.04 35.21 35.38 35.51 36.29 36.63 36.24 36.36 36.55 36.48 36.70 36.86 36.86 36.89 36.99 36.85 36.80 37.14 37.29 37.24 37.48 37.66 37.87 38.02 38.10 38.16 38.23 38.26 38.51 38.64 38.68 38.82 39.13 39.42 39.52 39.63 39.73 39.80 39.90 40.01 40.08 40.20 40.38 40.44 40.56 40.53 40.65 40.78 40.82 41.11 41.14 41.21 41.42 41.43 41.76 42.08 42.27 42.36 42.36 42.33 42.35 42.35 42.39 42.43 42.59 42.72 42.78 42.99 43.16 43.10 43.15 43.27 43.30 43.36 43.63 43.71 43.82 44.06 44.24 44.27 44.37 44.27 44.38 44.47 44.55 44.67 44.78 44.88 45.02 45.02 45.09 45.10 44.98 44.76 44.70 44.62 44.47 43.72 42.64 42.73 43.91 44.26 44.51 44.68 44.74 44.85 45.00 44.85 44.62 44.41 44.14 44.00 43.80 42.98 42.59 43.23 43.71 44.33 44.32 44.13 44.03 44.21 44.36 44.25 42.59 41.40 41.81 42.22 43.15 44.61 44.91 45.12 45.26 45.36 45.43 45.17 45.13 45.23 45.38 45.59 45.71 45.69 45.75 45.86 46.05 46.27 46.24 46.37 46.48 46.49 46.68 46.82 46.62 46.64 46.70 46.85 47.14 47.19 47.32 47.38 47.46 47.52 47.65 48.23 48.07 46.50 45.99 45.86 46.27 45.00 45.00 45.00 45.00 45.00 46.18 48.42 48.76 49.04 49.26 49.27 49.24 49.22 49.00 48.74 49.05 49.34 48.87 46.55 46.00 45.72 45.03 45.00 45.00 45.00 45.02 45.79 46.46 46.84 48.44 49.68 50.38 50.86 51.30 51.49 51.47 51.73 52.11 52.33 52.52 52.70 53.02 53.18
24.52 24.19 22.86 21.21 21.08 20.67 19.47 20.63 21.44 23.03 22.30 21.87 22.49 25.73 23.98 18.09 11.41 12.24 13.59 14.54 16.21 19.08 21.47 22.83 23.51 24.47 25.18 25.08 25.42 25.39 25.21 24.96 24.85 24.72 24.68 24.62 24.75 24.85 24.99 25.30 25.14 25.23 25.19 25.02 24.99 24.91 24.76 24.74 24.82 24.93 25.04 25.05 25.26 25.45 25.66 25.86 26.02 26.17 26.34 26.49 26.73 26.88 27.01 27.15 27.17 27.34 27.48 27.76 27.75 27.90 27.99 28.02 28.09 28.22 28.31 28.54 28.73 28.86 28.99 29.29 29.29 29.31 29.51 29.71 29.74 29.90 30.06 30.13 30.43 30.62 30.72 30.66 30.72 30.74 30.87 31.15 31.36 31.49 31.66 31.64 31.64 31.51 31.34 31.35 31.20 30.99 30.90 30.80 31.08 31.09 31.21 31.84 31.52 31.45 31.40 31.25 31.31 31.29 31.57 31.56 31.56 31.56 31.71 31.84 31.99 32.00 31.89 31.87 31.86 31.69 31.63 31.68 31.72 31.86 31.72 31.59 31.76 31.76 31.79 31.88 31.90 31.78 31.79 31.68 31.85 32.03 32.06 32.08 32.17 32.45 33.21 34.33 34.25 34.74 33.30 32.38 32.54 32.18 31.45 30.08 29.30 28.84 28.69 28.74 28.86 27.73 28.46 29.34 29.55 29.32 28.21 28.58 29.16 29.19 29.45 30.64 32.25 33.11 33.56 33.75 33.83 33.93 34.23 34.34 34.30 34.36 34.56 34.82 35.02 35.24 35.51 35.83 36.51 36.11 36.21 36.41 36.57 36.81 36.80 36.93 37.01 37.16 37.17 37.08 36.95 37.18 37.29 37.41 37.53 37.77 37.96 38.11 38.17 38.32 38.38 38.40 38.58 38.63 38.74 38.92 39.06 39.44 39.63 39.74 39.89 39.97 40.17 40.23 40.34 40.45 40.54 40.55 40.52 40.65 40.75 40.95 41.11 41.21 41.30 41.36 41.44 41.54 41.78 42.03 42.21 42.38 42.44 42.47 42.48 42.50 42.56 42.69 42.84 42.90 42.93 43.24 43.14 43.13 43.25 43.27 43.47 43.64 43.72 43.88 44.01 44.18 44.34 44.32 44.34 44.35 44.57 44.65 44.76 44.92 45.02 45.05 45.11 45.22 45.33 45.26 45.11 44.95 44.85 44.72 44.56 43.99 43.32 43.68 44.40 44.65 44.71 44.95 45.05 45.20 45.30 45.24 45.01 44.82 44.58 44.23 43.90 43.22 42.85 43.61 44.11 44.57 44.55 44.42 44.40 44.52 44.65 44.41 42.60 42.02 43.23 43.16 43.19 44.59 45.12 45.27 45.38 45.48 45.59 45.40 45.33 45.42 45.68 45.93 46.04 45.97 45.88 46.00 46.25 46.39 46.43 46.62 46.86 46.77 46.91 47.01 46.93 46.79 46.89 46.98 47.23 47.49 47.63 47.63 47.65 47.66 47.79 48.47 47.90 47.57 47.56 47.89 47.25 45.13 45.00 45.00 45.00 45.00 45.25 47.29 48.43 49.00 49.40 49.44 49.40 49.50 49.28 49.00 49.07 49.59 49.61 47.85 47.05 47.21 45.22 45.06 45.10 45.00 45.00 45.00 45.00 45.12 47.28 49.44 50.31 50.90 51.36 51.61 51.76 51.99 52.18 52.36 52.56 52.79 53.09 53.16
24.12 23.22 22.43 21.94 23.12 21.04 21.62 22.99 23.05 24.15 23.83 23.11 23.07 23.39 22.71 17.61 12.39 11.63 12.98 13.85 14.57 16.75 20.12 22.58 22.99 22.63 23.57 24.50 25.36 25.39 25.25 25.15 25.02 24.98 24.84 24.77 24.84 24.94 25.00 25.28 25.23 25.14 25.19 25.24 25.11 24.99 24.92 24.84 24.89 24.91 25.07 25.06 25.17 25.35 25.61 25.84 26.15 26.40 26.48 26.59 26.79 26.93 27.09 27.31 27.29 27.39 27.52 27.74 27.74 27.83 27.84 28.00 28.14 28.32 28.40 28.62 28.76 28.88 28.99 29.22 29.37 29.62 29.75 29.77 29.75 29.95 30.01 30.27 30.49 30.70 30.86 30.93 31.02 31.08 31.14 31.37 31.61 31.74 31.78 31.87 31.92 31.82 31.61 31.40 31.19 31.07 30.86 30.96 31.06 31.14 31.59 31.92 31.37 31.16 31.18 31.29 31.29 31.31 31.45 31.62 31.62 31.71 31.91 32.08 32.03 32.01 32.09 32.05 32.03 31.86 31.77 31.77 31.89 31.85 31.69 31.74 31.88 31.89 31.95 32.04 32.05 31.96 31.94 31.84 31.69 32.05 32.05 32.18 32.42 32.54 32.67 33.89 34.90 33.97 32.56 32.44 32.28 32.02 31.69 30.20 30.22 30.20 29.18 29.04 29.11 28.17 27.77 28.99 29.48 29.54 28.78 28.31 29.23 29.37 29.52 30.37 31.90 32.77 33.65 33.91 33.99 34.04 34.27 34.77 34.50 34.49 34.45 34.53 34.83 35.26 35.94 36.64 36.25 36.05 36.24 36.42 36.57 36.76 36.94 37.10 37.19 37.23 37.26 37.36 37.30 37.39 37.45 37.59 37.68 37.81 38.05 38.19 38.24 38.43 38.47 38.46 38.72 38.87 38.92 38.94 39.06 39.34 39.78 39.97 40.03 40.04 40.25 40.30 40.41 40.57 40.67 40.72 40.71 40.85 41.00 41.10 41.28 41.41 41.39 41.47 41.47 41.66 41.87 42.05 42.23 42.46 42.60 42.63 42.52 42.60 42.65 42.86 42.96 42.99 43.34 43.38 43.22 43.24 43.31 43.44 43.71 43.82 43.87 44.04 44.18 44.31 44.44 44.49 44.54 44.69 44.82 44.72 44.92 45.04 45.07 45.24 45.39 45.44 45.47 45.38 45.19 45.09 44.97 44.82 44.73 44.50 44.24 44.47 44.70 44.89 45.06 45.29 45.39 45.50 45.65 45.50 45.19 45.02 44.85 44.28 43.38 42.85 43.00 43.48 44.30 44.74 44.79 44.75 45.07 45.48 45.59 45.13 43.12 42.34 43.43 43.79 44.16 44.66 45.08 45.49 45.65 45.71 45.72 45.58 45.53 45.77 45.99 46.38 46.83 46.54 46.17 46.15 46.34 46.61 46.65 46.88 47.17 47.15 47.24 47.74 48.61 47.62 47.22 47.27 47.54 47.71 47.84 47.93 48.02 47.98 48.15 48.53 47.99 48.17 48.71 48.76 46.68 45.07 45.00 45.00 45.00 45.00 45.00 45.34 47.67 48.87 49.03 48.90 49.46 49.71 49.43 49.28 49.25 49.63 49.93 48.98 47.58 48.07 47.12 46.96 46.48 45.24 45.00 45.00 45.00 45.26 48.05 49.89 50.80 51.18 51.38 51.62 51.88 52.01 52.16 52.42 52.52 52.77 52.92 52.78
23.89 22.88 22.45 22.37 23.68 20.88 21.36 23.39 24.13 24.37 24.38 23.92 23.21 21.59 19.92 19.55 16.01 11.77 12.37 13.24 13.75 14.61 16.66 19.78 21.11 22.15 23.89 25.55 26.09 25.74 25.47 25.33 25.28 25.16 24.93 24.83 24.84 24.93 25.04 25.34 25.32 25.23 25.32 25.44 25.33 25.10 25.03 25.01 24.96 24.98 25.04 25.16 25.23 25.40 25.61 25.88 26.06 26.23 26.47 26.61 26.76 27.13 27.27 27.28 27.34 27.48 27.57 27.67 27.77 27.93 27.88 28.17 28.26 28.50 28.52 28.61 28.70 28.81 29.06 29.33 29.54 29.87 29.82 30.02 29.95 30.03 30.00 30.24 30.54 30.76 31.02 31.12 31.29 31.37 31.42 31.64 31.73 31.87 31.94 32.06 32.08 31.86 31.65 31.38 31.19 31.08 31.11 31.46 31.84 31.94 32.09 32.20 31.49 31.22 31.34 31.61 31.58 31.34 31.53 31.68 31.60 31.75 32.00 32.03 32.04 32.03 32.12 32.19 32.10 31.91 31.82 31.80 31.86 31.83 31.70 31.86 31.87 32.06 32.14 32.14 32.18 32.15 32.01 31.84 31.78 31.99 32.30 32.39 32.54 32.61 32.63 32.92 34.28 33.07 32.59 32.53 32.44 32.30 31.43 29.69 30.52 29.95 30.01 29.94 29.35 29.23 28.12 28.24 29.07 29.54 29.37 28.56 29.36 29.77 29.69 30.40 32.29 32.99 33.46 33.81 33.98 33.93 34.10 34.47 34.39 34.48 34.00 34.07 34.57 34.99 35.98 36.33 36.05 36.11 36.32 36.58 36.74 36.83 36.94 37.11 37.22 37.29 37.27 37.33 37.42 37.54 37.71 37.76 37.79 37.89 38.06 38.29 38.42 38.53 38.62 38.74 38.84 39.00 39.01 39.16 39.42 39.51 39.81 40.00 40.10 40.12 40.33 40.37 40.44 40.71 40.77 40.85 40.80 41.03 41.19 41.30 41.42 41.60 41.55 41.72 41.71 41.79 41.89 42.08 42.37 42.58 42.72 42.71 42.69 42.82 42.88 43.01 43.11 43.28 43.62 43.44 43.41 43.39 43.41 43.64 43.81 43.95 43.94 44.16 44.31 44.33 44.55 44.67 44.69 44.93 44.99 45.05 45.07 45.17 45.19 45.33 45.47 45.49 45.59 45.52 45.37 45.14 45.12 45.07 45.01 44.90 44.26 44.54 44.96 45.09 45.28 45.45 45.62 45.72 45.72 45.64 45.41 45.12 44.65 44.06 43.19 43.29 43.59 43.94 44.55 44.79 45.29 45.55 45.66 45.69 45.19 44.80 43.76 43.32 44.05 44.24 45.03 44.66 44.82 45.49 45.75 45.86 45.87 45.85 45.91 46.20 46.35 46.70 47.24 46.83 46.52 46.56 46.74 46.89 47.01 47.23 47.58 47.65 47.90 48.88 50.12 49.17 47.86 47.82 47.89 48.07 47.99 48.21 48.33 48.20 48.56 48.41 48.11 48.27 48.19 47.12 45.14 45.09 45.02 45.00 45.00 45.00 45.00 45.03 46.84 48.32 46.65 45.95 47.03 47.35 48.38 49.44 49.42 49.55 49.78 49.15 48.38 48.70 48.84 48.62 47.97 45.80 45.00 45.00 45.00 45.19 47.17 48.81 50.28 51.19 51.31 51.58 51.81 51.90 52.21 52.43 52.55 52.74 52.58 52.21
24.36 23.81 23.23 22.86 23.38 22.00 20.27 22.59 24.31 24.56 24.54 24.18 22.56 20.34 21.46 22.45 20.09 12.90 12.36 12.60 13.21 13.68 14.28 16.06 19.60 23.43 25.08 25.77 25.70 26.05 25.61 25.61 25.37 25.17 25.06 24.93 24.91 24.98 25.06 25.45 25.51 25.42 25.36 25.39 25.41 25.17 25.08 25.14 25.23 25.18 25.18 25.28 25.46 25.52 25.70 25.84 26.01 26.13 26.34 26.55 26.74 27.09 27.22 27.41 27.44 27.56 27.61 27.55 27.73 28.00 28.20 28.21 28.31 28.53 28.54 28.64 28.82 28.85 29.19 29.41 29.59 29.88 29.90 30.09 30.03 30.13 30.08 30.20 30.34 30.61 30.82 31.12 31.34 31.66 31.86 32.19 32.09 32.21 32.34 32.38 32.19 31.87 31.76 31.50 31.27 31.27 31.28 32.08 32.07 31.98 32.07 32.35 31.75 31.52 31.43 31.43 31.53 31.40 31.55 31.66 31.80 31.90 32.00 32.16 32.20 32.16 32.18 32.16 32.05 32.00 31.93 31.92 31.79 31.84 31.87 31.91 31.94 32.08 32.20 32.24 32.37 32.27 32.15 32.12 32.12 32.05 32.20 32.40 32.52 32.58 32.71 32.86 33.13 32.81 32.81 32.83 32.77 32.41 31.47 31.06 31.56 30.03 29.48 30.07 29.83 29.62 29.24 28.16 28.81 29.42 29.65 28.87 29.01 29.90 30.05 30.25 31.41 33.00 33.60 33.76 33.55 33.14 32.47 32.13 32.52 33.17 33.44 34.58 34.86 35.16 36.12 35.83 35.89 36.04 36.22 36.55 36.80 36.91 37.02 37.19 37.23 37.29 37.39 37.47 37.56 37.63 37.72 37.94 37.99 37.95 38.11 38.32 38.57 38.79 38.94 38.91 39.00 39.11 38.99 39.25 39.47 39.42 39.58 39.88 40.18 40.31 40.46 40.55 40.71 40.81 40.87 40.99 41.09 41.16 41.24 41.45 41.62 41.95 41.75 41.83 41.95 42.00 42.09 42.16 42.48 42.71 42.83 42.87 42.95 43.00 43.05 43.06 43.27 43.67 43.67 43.63 43.64 43.59 43.69 43.82 43.84 43.95 44.11 44.31 44.45 44.54 44.67 44.73 44.84 44.97 45.07 45.25 45.16 45.25 45.38 45.48 45.60 45.73 45.80 45.67 45.46 45.29 45.37 45.28 45.27 44.85 44.14 44.32 45.07 45.26 45.51 45.70 45.89 45.99 45.97 45.85 45.59 45.08 44.74 44.27 43.77 44.04 44.07 44.14 44.72 45.27 45.80 45.59 45.66 45.65 45.25 44.83 43.65 43.92 44.83 44.79 45.33 45.22 45.08 45.58 45.86 46.02 46.03 46.02 46.07 46.35 46.51 46.81 47.35 47.22 47.25 47.47 47.34 47.13 47.38 47.83 47.97 47.78 48.14 49.02 49.98 50.20 48.77 48.66 48.91 48.69 48.48 48.57 48.47 48.30 48.82 48.30 48.20 48.38 48.18 46.59 45.35 46.20 45.12 45.00 45.00 45.00 45.00 45.00 45.26 45.54 45.10 45.00 45.00 45.03 45.87 48.82 49.49 49.60 49.62 49.12 48.89 49.18 49.27 49.05 47.23 46.25 45.10 45.07 45.07 45.04 45.41 45.90 46.39 49.50 50.84 51.18 50.13 51.04 51.74 51.95 52.55 52.78 52.55 51.85
24.43 23.71 22.80 22.05 22.84 22.07 20.80 22.70 24.23 24.65 24.60 23.54 22.72 21.82 23.47 24.51 22.24 13.86 12.34 12.96 12.91 13.11 13.29 13.66 15.79 19.82 23.89 25.93 24.43 24.76 25.39 25.64 25.43 25.12 25.14 25.05 25.10 25.11 25.07 25.40 25.54 25.44 25.42 25.47 25.43 25.30 25.27 25.27 25.26 25.20 25.24 25.30 25.46 25.52 25.68 25.85 26.05 26.17 26.38 26.52 26.77 27.08 27.35 27.56 27.49 27.34 27.05 27.23 27.70 28.00 28.08 28.16 28.33 28.38 28.60 28.73 28.88 28.92 29.23 29.45 29.60 29.83 30.02 30.01 30.13 30.21 30.25 30.39 30.46 30.57 30.75 30.98 31.33 31.85 32.40 32.81 32.77 32.73 32.72 32.56 32.46 32.10 31.82 31.67 31.49 31.38 31.24 31.40 31.41 31.57 31.65 32.01 31.91 31.37 31.44 31.43 31.53 31.52 31.66 31.78 31.92 31.92 32.01 32.28 32.32 32.36 32.31 32.35 32.26 32.25 32.17 32.18 32.05 31.98 32.03 31.97 32.09 32.16 32.29 32.31 32.43 32.28 32.28 32.28 32.33 32.35 32.31 32.51 32.65 32.60 32.87 33.19 33.15 33.10 33.11 33.13 32.97 32.58 32.20 32.13 32.19 30.85 30.56 30.95 30.78 30.08 29.54 28.76 28.25 29.53 29.94 29.10 29.03 29.82 30.22 30.43 31.07 31.57 32.76 32.88 32.80 32.12 31.43 31.88 31.78 32.63 33.80 34.91 35.37 36.25 36.11 35.77 35.83 36.03 36.11 36.29 36.70 36.98 37.10 37.27 37.32 37.36 37.52 37.74 37.80 37.80 37.80 37.96 38.09 38.21 38.36 38.52 38.66 38.86 38.99 39.04 39.11 39.16 39.17 39.26 39.39 39.39 39.48 39.77 40.19 40.38 40.38 40.60 40.84 40.93 41.04 41.24 41.27 41.28 41.41 41.61 41.83 42.04 41.80 41.97 42.17 42.23 42.44 42.42 42.52 42.66 42.72 42.94 43.08 43.23 43.21 43.31 43.49 43.87 43.66 43.67 43.82 43.68 43.85 44.01 43.99 43.98 44.07 44.35 44.61 44.73 44.85 44.92 45.04 45.17 45.34 45.46 45.52 45.45 45.53 45.69 45.75 45.92 45.98 45.75 45.64 45.48 45.65 45.52 45.29 44.65 44.56 44.23 44.91 45.32 45.60 45.85 45.99 46.14 46.22 46.08 45.83 45.61 45.28 44.59 44.03 44.32 44.54 44.45 45.20 45.48 45.65 45.70 45.72 45.82 45.28 44.68 43.75 43.96 45.01 45.30 45.58 45.77 45.97 45.89 45.90 46.12 46.18 46.26 46.43 46.60 46.68 46.91 47.35 47.54 47.72 47.94 47.75 47.42 47.79 48.17 48.34 48.42 48.84 48.88 49.10 49.70 49.81 50.26 50.22 49.41 48.95 49.03 48.84 48.72 49.03 48.49 48.42 47.83 46.12 45.27 45.63 46.88 45.17 45.02 45.00 45.00 45.00 45.00 45.00 45.00 45.00 45.00 45.00 45.00 45.08 46.08 47.59 48.94 49.72 49.46 49.38 49.62 49.71 49.55 48.57 48.68 47.49 46.90 47.23 45.82 45.71 46.39 45.50 47.70 50.47 50.30 48.74 49.10 49.73 50.58 52.14 52.72 52.47 51.66
24.21 23.07 22.11 21.29 21.26 20.95 22.22 23.95 24.63 24.80 24.69 24.09 24.30 23.79 23.82 24.56 23.00 15.24 12.23 13.41 13.16 12.94 12.91 12.87 13.00 14.96 19.63 23.43 23.40 23.99 25.36 25.27 25.39 25.36 25.20 25.10 25.28 25.37 25.28 25.33 25.53 25.56 25.51 25.50 25.42 25.31 25.33 25.35 25.29 25.32 25.28 25.30 25.40 25.56 25.63 25.76 26.07 26.28 26.51 26.59 26.79 27.00 27.23 27.16 27.25 27.48 27.36 27.26 27.62 28.08 28.15 28.13 28.33 28.44 28.59 28.80 28.91 29.06 29.22 29.43 29.81 29.82 30.14 30.07 30.24 30.37 30.45 30.49 30.57 30.68 30.85 31.07 31.44 31.94 32.55 33.41 34.27 34.23 33.54 32.63 32.43 32.16 31.83 31.60 31.27 31.25 31.26 31.38 31.43 31.48 31.43 32.24 32.11 31.58 31.65 31.58 31.60 31.52 31.78 31.86 31.99 32.12 32.17 32.35 32.38 32.45 32.44 32.47 32.43 32.36 32.21 32.07 32.18 32.12 32.14 32.12 32.24 32.31 32.42 32.48 32.49 32.43 32.35 32.48 32.48 32.56 32.52 32.48 32.59 32.80 33.13 33.22 33.19 33.21 33.24 33.27 33.08 32.85 32.64 32.56 32.52 31.76 31.55 31.98 31.89 30.93 30.15 29.35 28.09 29.46 30.18 29.82 29.09 29.51 29.67 29.96 29.69 29.34 30.76 31.61 32.06 31.85 31.76 32.45 32.08 32.70 33.62 34.69 35.58 36.35 35.94 35.97 36.03 36.11 36.23 36.43 36.70 36.90 37.20 37.39 37.41 37.50 37.62 37.84 37.88 37.95 38.01 38.13 38.09 38.37 38.51 38.72 38.77 38.86 39.01 39.19 39.27 39.31 39.33 39.37 39.52 39.64 39.70 39.81 40.10 40.38 40.52 40.69 40.84 41.08 41.19 41.18 41.40 41.39 41.57 41.75 41.93 42.23 41.98 42.15 42.30 42.39 42.50 42.59 42.70 42.73 42.88 43.08 43.25 43.33 43.41 43.54 43.78 43.95 43.93 43.87 43.86 43.87 44.02 44.15 44.28 44.25 44.24 44.42 44.59 44.75 44.94 45.13 45.22 45.26 45.51 45.63 45.82 45.71 45.72 45.83 46.00 46.12 46.16 45.94 45.82 45.59 45.46 45.31 45.24 44.97 44.86 44.73 44.76 45.48 45.77 46.13 46.21 46.23 46.28 46.31 46.07 45.94 45.64 44.94 44.32 44.53 44.88 45.02 45.53 45.64 45.88 45.96 45.97 45.98 45.14 44.13 44.27 44.51 44.99 45.64 46.09 46.09 46.35 46.41 46.09 46.24 46.41 46.47 46.65 46.85 46.97 47.15 47.36 47.63 47.75 48.08 48.00 47.80 48.40 48.65 48.88 49.02 49.33 49.41 49.32 49.49 50.09 50.85 50.79 49.89 49.44 49.54 49.60 49.54 49.35 48.89 47.97 45.76 45.88 46.72 45.56 46.82 46.66 45.35 45.00 45.01 45.03 45.00 45.00 45.00 45.00 45.00 45.00 45.00 45.00 45.00 45.17 46.36 49.61 49.92 49.95 50.02 50.08 49.99 49.29 49.36 49.21 48.98 48.91 47.92 48.21 47.40 45.79 46.81 48.84 47.98 46.85 47.28 48.46 49.69 51.07 51.60 51.35 51.27
23.57 22.10 22.42 22.50 21.06 21.06 23.05 24.24 24.80 24.83 24.90 24.80 24.81 24.48 24.31 24.10 22.17 16.57 12.26 13.16 13.83 13.42 13.08 12.89 12.75 12.67 13.97 17.73 20.68 23.51 25.22 25.42 24.89 25.36 25.40 25.20 25.30 25.37 25.38 25.49 25.65 25.58 25.63 25.52 25.52 25.42 25.42 25.42 25.44 25.39 25.34 25.38 25.53 25.64 25.75 25.82 26.04 26.27 26.45 26.52 26.47 26.26 26.41 26.93 27.39 27.64 27.69 27.70 27.72 27.86 28.04 28.16 28.32 28.50 28.65 28.83 29.02 29.23 29.28 29.52 29.80 29.89 30.08 30.24 30.35 30.46 30.45 30.51 30.72 30.73 30.96 31.17 31.58 32.01 32.52 33.27 34.42 34.44 33.91 33.15 32.86 32.58 32.55 31.77 31.36 31.29 31.31 31.54 31.54 31.50 31.47 32.03 32.23 31.70 31.82 31.65 31.76 31.58 32.03 32.12 32.03 32.28 32.33 32.41 32.45 32.51 32.56 32.55 32.55 32.43 32.29 32.17 32.27 32.45 32.23 32.25 32.46 32.50 32.51 32.59 32.63 32.65 32.38 32.55 32.60 32.75 32.82 32.76 32.57 32.91 33.15 33.17 33.17 33.31 33.37 33.37 33.23 33.01 32.93 32.79 32.73 31.92 31.90 32.54 32.70 32.31 30.99 29.46 27.93 29.29 30.14 30.34 29.19 28.96 28.88 29.06 29.29 29.33 29.91 30.95 31.65 31.09 31.68 33.08 33.79 32.45 32.73 33.23 34.11 35.28 35.79 36.27 36.32 36.43 36.54 36.65 36.80 36.93 37.21 37.32 37.42 37.66 37.81 37.96 38.05 38.11 38.12 38.21 38.26 38.56 38.74 38.84 38.87 39.03 39.16 39.30 39.42 39.47 39.51 39.61 39.58 39.77 39.84 39.95 40.07 40.23 40.55 40.86 40.97 41.16 41.24 41.27 41.50 41.65 41.69 41.88 42.19 42.46 42.12 42.35 42.47 42.56 42.81 42.91 42.98 43.05 43.13 43.18 43.39 43.53 43.65 43.80 43.99 43.88 44.13 44.11 44.00 44.11 44.17 44.29 44.39 44.48 44.52 44.52 44.64 44.89 45.08 45.32 45.38 45.42 45.57 45.74 45.95 46.10 46.07 46.00 46.21 46.29 46.27 46.09 45.93 45.67 45.54 45.36 45.32 45.16 45.11 45.19 44.93 45.64 46.01 46.20 46.32 46.41 46.47 46.44 46.27 46.34 46.07 45.23 44.68 44.90 45.06 45.20 45.64 45.85 46.05 46.21 46.26 46.18 45.42 44.48 44.63 44.95 45.56 46.18 46.43 46.31 46.52 46.67 46.45 46.39 46.57 46.62 46.79 47.10 47.24 47.38 47.64 47.97 48.11 48.33 48.37 48.23 48.71 49.07 49.42 49.51 49.61 49.72 49.74 49.94 50.46 51.09 50.92 50.41 50.13 50.05 50.34 50.63 49.94 49.43 48.62 46.18 47.35 48.30 45.92 46.94 47.97 45.44 45.02 45.31 46.13 45.09 45.00 45.00 45.00 45.00 45.00 45.00 45.00 45.00 45.00 45.43 48.25 49.77 50.07 50.25 50.45 50.33 50.07 49.87 49.89 49.81 48.74 48.82 49.68 48.02 45.93 46.68 46.35 46.42 47.57 48.33 48.30 48.77 49.11 48.84 49.67 50.42
22.94 22.19 23.39 22.94 20.91 22.03 22.59 23.40 24.49 24.72 24.94 24.92 25.02 24.74 24.46 24.23 22.92 21.73 15.72 12.43 13.53 13.84 13.55 13.30 12.83 12.72 12.85 13.16 15.85 20.40 24.54 25.50 23.98 24.93 25.55 25.55 25.98 25.79 25.85 25.92 25.84 25.64 25.68 25.58 25.57 25.61 25.52 25.45 25.55 25.45 25.46 25.46 25.58 25.71 25.75 25.84 26.01 26.20 26.27 25.86 25.39 25.89 26.62 27.18 27.45 27.59 27.74 27.82 27.96 28.09 28.25 28.45 28.65 28.67 28.81 28.92 29.15 29.30 29.28 29.57 29.88 29.95 30.16 30.37 30.47 30.59 30.61 30.62 30.61 30.72 30.92 31.22 32.54 32.19 32.24 32.85 33.78 34.39 33.78 33.39 33.57 33.44 33.14 32.11 31.47 31.20 31.11 31.72 31.72 31.60 31.61 32.16 32.38 31.88 32.13 31.97 31.98 31.72 31.70 31.90 32.09 32.24 32.41 32.43 32.55 32.67 32.73 32.64 32.63 32.56 32.44 32.38 32.40 32.27 32.29 32.35 32.46 32.50 32.56 32.70 32.82 32.85 32.61 32.62 32.72 32.78 32.40 32.87 32.94 32.94 33.07 33.10 33.19 33.43 33.49 33.52 33.46 33.38 33.20 33.00 32.78 32.04 32.09 32.85 32.80 31.45 29.45 28.32 28.14 29.71 30.28 30.58 29.82 29.33 29.59 29.38 29.28 29.85 30.00 30.00 30.67 30.38 31.26 33.40 34.71 33.86 33.78 34.30 33.60 34.11 35.70 36.43 36.64 36.61 36.82 36.98 37.06 37.13 37.24 37.50 37.59 37.66 37.80 38.05 38.17 38.27 38.30 38.39 38.59 38.68 38.82 38.90 39.05 39.18 39.36 39.54 39.60 39.65 39.65 39.71 39.73 39.85 39.99 40.01 40.17 40.39 40.66 41.05 41.09 41.19 41.30 41.37 41.53 41.78 41.89 42.05 42.29 42.38 42.11 42.28 42.48 42.67 42.81 42.97 43.17 43.34 43.39 43.43 43.46 43.67 43.79 44.25 43.70 43.84 44.09 44.24 44.07 44.26 44.34 44.49 44.57 44.73 44.70 44.63 44.60 44.87 45.17 45.41 45.59 45.60 45.79 45.92 46.00 46.19 46.25 46.29 46.24 46.36 46.41 46.27 46.20 45.93 45.70 45.56 45.45 45.51 45.39 45.43 45.20 45.80 46.33 46.59 46.77 46.92 46.91 46.73 46.66 46.76 46.33 45.61 45.11 45.11 45.19 45.35 45.63 45.88 46.08 46.49 46.35 45.95 45.65 45.52 45.45 45.69 46.13 46.36 46.60 46.47 46.60 46.78 46.80 46.63 46.70 46.77 46.92 47.20 47.50 47.75 48.00 48.26 48.46 48.64 48.81 48.74 49.00 49.62 49.99 49.90 49.86 49.94 50.25 50.61 51.51 51.86 51.42 51.13 51.02 51.03 51.33 51.38 50.98 50.38 49.12 47.71 48.73 48.71 47.77 47.96 47.74 45.31 45.67 46.20 47.59 45.30 45.00 45.00 45.06 45.00 45.00 45.00 45.00 45.00 45.00 45.00 45.95 48.92 50.10 50.30 50.61 50.77 50.58 50.32 50.34 50.25 49.22 49.20 50.20 50.26 48.02 47.09 46.50 47.25 47.62 48.76 49.73 48.45 48.13 49.83 50.53 49.33
23.52 23.07 23.67 23.16 21.31 21.85 22.34 22.95 24.31 24.68 24.97 25.04 25.14 25.03 24.63 24.42 22.70 21.18 18.88 14.48 12.55 12.95 13.03 12.79 12.48 12.41 12.29 12.06 12.01 13.94 19.02 23.38 22.93 24.58 24.79 24.63 25.69 25.18 25.19 25.40 25.89 25.75 25.73 25.62 25.58 25.60 25.63 25.59 25.61 25.62 25.70 25.63 25.65 25.76 25.79 25.90 25.93 26.19 26.03 25.17 26.09 26.80 27.07 27.22 27.43 27.69 27.82 27.92 28.11 28.27 28.40 28.45 28.67 28.89 28.94 29.04 29.21 29.26 29.47 29.75 29.88 30.03 30.16 30.36 30.56 30.55 30.78 30.79 30.79 30.89 31.05 31.35 32.50 32.03 31.83 32.25 32.64 32.95 32.76 33.03 33.89 33.44 33.03 32.30 31.53 31.46 31.38 31.70 31.66 31.59 31.69 32.16 32.61 32.27 31.98 31.91 31.86 31.79 31.94 32.13 32.27 32.35 32.39 32.55 32.64 32.63 32.70 32.71 32.66 32.58 32.54 32.46 32.20 31.19 32.39 32.53 32.57 32.67 32.74 32.86 32.94 32.90 32.92 32.82 33.06 33.18 33.15 33.08 33.12 33.14 33.09 33.24 33.34 33.46 33.58 33.58 33.56 33.47 33.29 33.12 32.88 32.31 32.27 32.64 31.01 28.46 28.33 28.73 29.40 29.87 30.21 30.62 30.25 29.97 30.21 30.12 29.96 29.77 30.93 30.92 30.38 30.31 31.37 33.67 34.87 35.35 35.72 35.86 34.66 33.87 35.22 36.02 36.53 36.71 36.91 37.13 37.16 37.29 37.46 37.58 37.65 37.76 37.89 38.09 38.18 38.39 38.54 38.59 38.60 38.78 38.83 38.98 39.10 39.35 39.44 39.72 39.82 39.80 39.77 39.81 39.95 39.99 39.97 40.18 40.40 40.44 40.65 41.03 41.25 41.27 41.40 41.61 41.68 41.93 42.06 42.25 42.52 42.64 42.38 42.54 42.70 42.79 42.90 43.21 43.35 43.39 43.43 43.57 43.62 43.80 43.91 44.51 44.32 44.20 44.15 44.17 44.25 44.41 44.58 44.69 44.75 44.89 44.84 44.91 44.76 44.87 45.27 45.57 45.62 45.71 45.87 45.99 46.15 46.24 46.37 46.45 46.37 46.44 46.51 46.48 46.46 46.18 45.82 45.72 45.73 45.68 45.59 45.67 45.58 45.40 46.16 46.56 46.90 47.06 47.12 47.01 46.84 46.68 46.32 45.88 45.48 45.26 45.40 45.48 45.56 45.95 46.42 46.99 46.57 46.04 45.91 45.74 45.81 45.92 46.02 46.37 46.73 46.84 46.92 46.95 46.83 46.80 47.03 46.96 47.18 47.41 48.14 48.87 49.07 48.94 49.20 49.30 49.31 49.45 49.81 50.23 50.38 50.13 49.93 50.28 51.06 51.69 52.33 52.52 52.04 51.75 51.60 51.85 52.27 52.66 52.58 51.34 50.18 49.99 49.45 50.53 50.46 49.03 46.64 45.22 47.08 48.39 47.44 45.60 45.00 45.21 46.28 45.56 45.10 45.00 45.00 45.00 45.00 45.00 45.47 48.58 50.17 50.57 50.92 51.09 50.91 50.83 50.74 50.58 50.14 50.12 50.36 51.05 50.41 49.25 48.44 47.74 47.95 49.79 51.12 51.00 49.80 51.13 52.03 50.06
24.19 23.97 24.17 24.04 23.06 22.79 22.33 22.82 23.74 24.35 24.92 24.97 24.93 25.16 24.72 24.05 22.30 19.80 20.76 19.97 14.40 12.93 12.65 13.44 15.72 15.61 14.24 12.07 11.36 11.75 12.81 15.40 18.60 22.31 23.37 24.96 25.37 24.24 24.68 25.49 25.93 25.86 25.84 25.75 25.76 25.73 25.78 25.81 25.80 25.81 25.83 25.81 25.87 25.83 25.84 25.93 26.04 26.27 25.70 25.15 26.54 26.90 27.06 27.33 27.52 27.68 27.85 28.05 28.19 28.32 28.44 28.50 28.67 28.93 28.99 29.22 29.27 29.33 29.54 29.73 29.81 30.01 30.10 30.36 30.60 30.56 30.75 30.96 30.97 30.97 31.10 31.29 31.48 31.58 31.70 31.94 32.12 32.26 32.22 32.55 33.65 32.76 32.06 31.72 31.49 31.45 31.49 31.61 31.58 31.63 31.77 32.21 32.66 32.19 32.09 31.99 31.97 31.81 31.97 32.13 32.31 32.39 32.47 32.59 32.70 32.72 32.83 32.85 32.62 32.52 32.48 32.49 32.30 31.00 32.34 32.60 32.69 32.69 32.98 33.07 33.00 33.00 32.97 32.39 32.99 33.37 33.33 33.19 33.15 33.19 33.08 33.11 33.34 33.59 33.70 33.63 33.65 33.57 33.50 33.27 33.07 32.77 32.42 31.20 28.95 29.21 30.07 30.43 30.42 30.19 30.31 30.75 30.80 30.27 30.30 30.70 30.62 29.95 30.71 33.07 32.52 31.35 31.53 33.37 34.25 35.22 36.21 35.87 35.16 34.05 34.73 35.61 36.45 36.83 37.27 37.32 37.35 37.55 37.66 37.73 37.79 37.83 38.04 38.24 38.34 38.38 38.62 38.77 38.79 39.01 39.03 39.05 39.17 39.35 39.52 39.72 39.93 40.01 39.88 39.96 40.02 40.15 40.26 40.39 40.46 40.56 40.71 41.03 41.18 41.38 41.38 41.61 41.81 41.97 42.23 42.33 42.61 42.88 42.45 42.51 42.69 42.84 43.00 43.26 43.42 43.55 43.64 43.76 43.86 43.88 44.07 44.31 44.35 44.26 44.30 44.30 44.46 44.49 44.63 44.80 44.84 45.03 45.04 45.13 45.06 45.33 45.51 45.62 45.74 45.77 45.85 46.06 46.28 46.33 46.48 46.66 46.65 46.59 46.67 46.65 46.65 46.43 46.00 45.81 45.92 45.89 45.78 45.86 45.81 45.53 45.98 46.51 47.03 47.20 47.31 47.26 47.13 46.91 46.58 46.20 45.93 45.68 45.84 45.85 45.72 46.10 46.71 47.38 46.74 46.08 45.83 45.83 46.14 46.27 46.05 46.00 46.68 46.86 47.16 47.25 47.11 47.17 47.20 47.23 47.47 47.65 48.16 49.11 50.20 50.05 50.08 49.99 50.06 50.33 50.71 50.88 50.81 50.43 50.34 50.55 51.40 52.13 52.74 53.09 52.81 52.40 52.29 52.65 53.02 53.42 53.33 52.89 52.23 52.01 51.32 51.94 52.43 49.81 46.31 46.99 49.19 48.73 45.57 45.00 45.00 46.25 48.26 48.25 46.40 45.00 45.00 45.00 45.00 45.00 45.42 48.25 49.92 50.63 51.13 51.40 51.37 51.43 51.14 50.85 50.71 50.93 50.98 51.27 51.47 50.88 49.62 48.94 48.78 48.86 49.65 51.42 51.43 51.55 52.60 51.06
24.59 24.46 24.63 24.62 24.14 23.93 22.62 23.36 24.19 24.63 24.90 24.82 24.79 24.79 24.33 23.49 21.66 23.07 23.27 20.99 18.11 17.44 15.13 16.44 20.36 19.94 18.45 16.37 13.51 11.56 11.25 11.29 12.89 17.32 22.95 25.74 24.22 23.48 25.34 26.00 26.01 26.14 25.96 26.00 25.96 25.99 25.88 25.81 25.79 25.80 25.85 25.84 25.93 25.93 26.00 25.96 26.18 26.32 25.62 25.02 26.47 26.99 27.06 27.29 27.50 27.65 27.81 28.07 28.23 28.34 28.46 28.58 28.76 28.91 29.06 29.13 29.27 29.40 29.67 29.86 29.91 30.06 30.29 30.44 30.64 30.58 30.65 30.85 30.99 31.06 31.19 31.38 31.51 31.55 31.64 31.85 31.97 32.00 32.07 32.48 33.03 32.30 31.95 31.66 31.62 31.54 31.47 31.61 31.66 31.79 31.98 32.36 33.27 32.34 32.16 32.04 32.05 31.91 32.01 32.18 32.35 32.45 32.48 32.60 32.73 32.70 32.80 32.90 32.76 32.59 32.60 32.62 32.74 32.37 32.58 32.69 32.76 32.79 33.13 33.11 33.13 33.12 33.04 32.62 32.88 33.45 33.27 33.33 33.27 33.18 33.15 33.30 33.46 33.57 33.74 33.82 33.74 33.67 33.60 33.46 33.23 32.92 31.97 29.17 29.55 30.41 30.57 30.83 30.89 30.58 30.57 30.87 31.05 30.76 30.73 31.03 30.91 30.39 30.17 32.48 33.15 32.27 32.00 31.81 32.17 34.02 35.97 35.94 35.70 34.64 34.35 34.47 36.00 35.96 36.49 37.20 37.46 37.58 37.81 38.00 38.18 38.06 38.11 38.21 38.40 38.42 38.59 38.86 38.98 39.12 39.17 39.27 39.26 39.45 39.61 39.77 39.94 40.10 40.07 40.08 40.13 40.26 40.43 40.49 40.55 40.59 40.79 41.05 41.14 41.47 41.60 41.63 41.87 42.07 42.27 42.41 42.62 42.85 42.60 42.63 42.74 42.93 43.23 43.32 43.56 43.63 43.83 43.77 43.96 44.08 44.29 44.48 44.52 44.33 44.40 44.45 44.60 44.64 44.68 44.82 45.01 45.26 45.35 45.51 45.52 45.53 45.48 45.65 45.90 45.94 46.05 46.18 46.32 46.50 46.57 46.71 46.69 46.68 46.82 46.82 46.87 46.71 46.25 45.67 45.89 46.16 46.11 46.10 46.00 45.81 46.10 46.70 47.07 47.19 47.29 47.37 47.47 47.03 46.88 46.66 46.39 46.17 46.20 46.10 46.04 46.26 46.74 46.99 46.68 46.28 46.15 46.29 46.52 46.67 46.39 45.66 46.42 46.95 47.38 47.41 47.24 47.27 47.41 47.61 47.91 48.08 48.48 49.42 50.56 50.73 50.47 50.09 50.45 51.15 51.70 51.92 51.97 51.43 51.19 51.19 51.92 52.69 53.33 53.74 53.79 53.60 53.25 53.84 54.17 54.22 53.94 53.50 53.43 53.21 52.36 52.40 52.86 50.93 48.53 49.02 50.16 47.97 45.04 45.11 45.43 45.85 47.06 46.23 45.45 45.00 45.00 45.00 45.00 45.00 47.70 50.16 50.48 51.23 51.71 51.97 51.98 51.79 51.36 51.13 51.23 51.57 51.70 51.68 51.54 50.55 49.71 50.77 50.10 49.80 50.04 50.72 51.87 51.89 52.71 52.57
25.04 24.84 24.98 24.94 24.47 24.32 23.29 23.73 24.70 24.84 24.93 24.86 24.82 24.42 23.32 23.28 23.28 24.35 22.66 19.78 21.03 22.35 19.12 17.04 20.33 20.89 20.33 19.24 17.75 15.12 12.39 11.45 11.11 12.54 19.66 23.96 22.82 25.49 26.04 26.21 26.32 26.39 26.14 26.06 26.05 26.03 25.87 25.90 25.81 25.88 25.87 25.88 26.01 26.13 26.11 26.08 26.21 26.27 25.25 24.83 26.25 26.89 27.15 27.31 27.57 27.69 27.71 27.86 28.20 28.33 28.45 28.68 28.74 28.96 29.10 29.21 29.42 29.54 29.79 29.95 30.09 30.31 30.47 30.49 30.68 30.69 30.64 30.71 30.87 31.01 31.17 31.42 31.61 31.73 31.69 31.79 31.83 31.90 31.97 32.22 32.42 31.94 31.64 31.53 31.73 31.70 31.58 31.71 31.83 32.00 32.09 32.39 33.13 32.30 32.25 32.19 32.24 32.15 32.72 33.13 32.27 32.43 32.54 32.61 32.59 32.67 32.93 33.00 32.90 32.69 32.71 32.56 32.17 32.59 32.74 32.73 32.80 32.88 33.17 33.23 33.37 33.28 33.12 33.23 33.34 33.42 33.46 33.43 33.36 33.31 33.31 33.48 33.52 33.65 33.86 33.90 33.88 33.84 33.74 33.63 33.35 32.71 30.95 28.72 30.06 30.70 30.89 31.30 31.12 30.67 30.87 31.23 31.33 31.04 30.85 31.11 31.19 30.66 30.57 32.85 33.84 33.66 34.29 33.33 32.84 33.09 35.24 36.16 36.27 36.07 35.78 34.48 34.56 34.40 34.73 36.40 36.77 35.86 36.59 37.78 38.23 38.25 38.28 38.31 38.44 38.62 38.73 38.89 39.08 39.25 39.30 39.35 39.44 39.58 39.78 39.92 39.97 40.09 40.21 40.34 40.34 40.30 40.44 40.63 40.64 40.78 40.83 41.07 41.37 41.62 41.85 41.83 41.95 42.18 42.33 42.47 42.58 42.74 42.78 42.85 42.86 42.98 43.30 43.41 43.55 43.65 43.86 43.90 44.05 44.21 44.54 44.54 44.62 44.53 44.58 44.52 44.66 44.82 44.88 45.02 45.30 45.53 45.64 45.71 45.63 45.65 45.55 45.75 45.99 46.07 46.16 46.28 46.42 46.55 46.67 46.75 46.80 46.88 46.81 46.93 47.12 46.89 46.53 45.90 46.01 46.45 46.54 46.37 46.26 46.16 46.29 46.65 46.74 46.95 47.20 47.45 47.68 47.37 47.43 47.02 46.70 46.68 46.50 46.29 46.18 46.29 46.80 47.11 47.04 46.59 46.34 46.52 46.81 46.92 46.84 46.18 46.21 47.02 47.55 47.52 47.40 47.42 47.54 47.89 48.19 48.66 49.24 50.25 51.04 51.20 51.00 50.39 50.61 51.36 52.33 53.05 53.10 52.58 51.84 51.97 52.53 53.44 54.17 54.49 54.64 54.37 53.90 54.59 55.12 55.15 54.77 54.26 53.94 53.99 53.87 53.86 53.53 52.50 51.61 51.29 50.77 47.26 45.23 46.27 47.09 45.15 45.00 45.00 45.00 45.00 45.00 45.00 45.00 45.01 48.13 50.51 51.34 53.05 53.27 53.10 52.86 52.38 52.04 51.78 51.95 52.15 52.28 52.08 51.09 50.38 51.22 51.94 51.43 51.25 51.63 50.56 50.98 52.40 52.98 52.87
25.23 25.18 25.10 24.79 24.09 23.91 23.63 24.45 24.96 24.97 24.99 25.01 25.02 24.93 24.08 24.52 23.95 22.05 21.41 21.27 21.88 24.04 21.71 16.64 17.68 20.29 21.07 20.51 19.59 17.99 15.65 13.58 12.09 11.21 12.46 16.31 22.53 26.78 26.45 26.20 26.24 26.12 26.13 26.04 26.15 26.02 25.91 25.97 25.91 25.94 25.98 26.06 26.23 26.25 26.31 26.04 26.11 25.83 25.43 25.86 26.44 27.00 27.38 27.50 27.60 27.73 27.62 27.76 28.08 28.22 28.45 28.69 28.88 29.19 29.12 29.39 29.52 29.62 29.79 30.08 30.26 30.45 30.45 30.55 30.78 30.88 30.70 30.70 30.86 31.13 31.27 31.44 31.33 32.25 31.73 31.82 31.73 31.76 31.89 32.14 32.18 31.82 31.61 31.63 31.70 31.81 31.69 31.84 31.99 32.13 32.09 32.25 32.89 32.52 32.33 32.35 32.44 32.46 32.76 33.19 32.38 32.55 32.66 32.71 32.74 32.85 33.10 33.08 33.09 32.86 32.83 32.80 32.60 32.75 32.93 32.77 32.87 33.02 33.26 33.44 33.48 33.40 33.40 33.50 33.44 33.56 33.62 33.64 33.59 33.53 33.42 33.52 33.62 33.67 33.84 33.96 33.92 33.96 33.90 33.78 33.34 32.04 30.62 29.66 29.41 30.15 29.95 29.84 30.52 30.94 31.18 31.39 31.56 31.35 31.05 31.09 30.59 30.27 31.20 34.07 34.96 34.59 35.00 35.09 35.34 33.29 33.35 36.24 36.34 36.56 36.61 35.66 34.79 34.64 34.33 35.29 35.64 35.58 35.97 36.43 37.69 38.27 38.33 38.36 38.55 38.67 38.90 39.05 39.14 39.28 39.46 39.60 39.61 39.78 39.84 39.94 40.00 40.05 40.15 40.28 40.49 40.53 40.67 40.74 40.80 40.90 40.96 41.02 41.31 41.53 41.83 41.90 42.00 42.23 42.46 42.52 42.69 42.91 42.98 42.97 43.03 43.15 43.35 43.47 43.66 43.79 43.92 44.04 44.07 44.26 44.65 44.55 44.73 44.69 44.73 44.73 44.72 44.91 45.04 45.23 45.37 45.57 45.66 45.87 45.86 45.75 45.75 45.90 46.04 46.21 46.47 46.64 46.74 46.78 46.76 46.86 46.96 46.93 46.94 47.09 47.10 46.91 46.56 45.91 46.49 46.85 46.84 46.78 46.63 46.36 46.35 46.48 46.77 46.96 47.10 47.32 47.67 47.62 47.69 47.35 47.13 47.04 46.76 46.49 46.28 46.50 46.99 47.30 47.21 46.86 46.56 46.74 47.09 47.06 47.21 46.91 46.87 47.16 47.41 47.57 47.72 47.76 47.76 48.12 48.60 49.32 49.87 50.87 51.41 51.47 51.36 50.70 50.86 51.71 52.55 53.59 54.09 53.14 51.95 52.30 52.94 53.99 54.84 55.18 55.11 54.87 55.04 55.29 55.64 56.05 55.78 55.26 54.63 54.38 55.01 54.99 54.88 54.37 54.01 53.32 49.65 45.98 46.70 49.58 49.48 45.59 45.00 45.00 45.00 45.00 45.00 45.00 45.00 45.05 47.93 50.58 52.56 55.62 54.99 54.31 53.97 53.63 53.15 52.77 52.78 52.73 52.74 52.48 51.57 51.26 52.49 52.80 52.52 52.19 52.40 51.93 51.69 51.60 52.61 52.45
25.45 25.26 24.98 24.61 23.50 23.07 23.96 24.92 25.12 25.10 25.08 25.16 25.12 25.31 24.98 24.86 23.87 21.73 23.55 24.03 23.69 23.82 23.58 21.19 16.80 17.87 20.81 20.96 20.70 19.93 18.52 16.58 14.04 12.64 11.60 11.67 14.11 19.69 24.65 26.21 26.22 26.17 26.17 26.12 26.20 26.18 26.27 26.08 26.08 26.08 26.08 26.14 26.16 26.14 26.31 26.25 25.93 24.95 25.77 26.54 26.74 27.05 27.35 27.51 27.44 27.54 27.54 27.72 28.08 28.29 28.45 28.75 28.90 29.23 29.23 29.42 29.65 29.83 29.96 30.20 30.31 30.49 30.56 30.70 30.76 30.99 30.85 30.72 30.97 31.25 31.32 31.47 31.52 31.59 31.80 31.85 31.92 31.91 31.95 32.07 32.01 31.89 31.75 31.76 31.73 31.89 31.90 31.98 32.12 32.23 32.21 32.38 32.87 32.95 32.39 32.43 32.38 32.55 32.25 32.22 32.43 32.60 32.68 32.79 33.01 32.93 33.13 33.20 33.22 33.11 32.90 32.97 32.33 31.78 32.98 32.93 32.98 33.17 33.25 33.61 33.63 33.66 33.67 33.45 33.41 33.65 33.71 33.76 33.70 33.70 33.66 33.59 33.66 33.61 33.81 34.02 34.04 34.08 34.02 33.84 33.34 32.16 31.25 31.13 30.42 29.43 29.53 28.89 29.15 30.85 31.46 31.62 31.70 31.54 31.26 30.89 30.14 30.44 32.25 34.85 35.38 35.36 35.47 35.97 34.99 33.06 32.62 34.65 35.52 36.05 36.33 36.54 36.48 35.95 34.94 34.39 34.83 36.05 37.25 37.13 37.09 37.15 36.95 37.06 38.08 38.77 39.09 39.11 39.22 39.34 39.53 39.71 39.75 39.87 39.96 40.10 40.32 40.31 40.43 40.46 40.64 40.71 40.77 40.77 40.88 41.05 41.19 41.30 41.27 41.46 41.68 41.90 42.28 42.38 42.56 42.63 42.79 43.09 42.98 43.07 43.18 43.48 43.48 43.46 43.58 43.82 44.07 44.24 44.27 44.55 44.80 44.70 44.83 44.88 44.78 44.85 44.83 45.02 45.21 45.25 45.48 45.68 45.82 46.03 45.97 45.94 45.91 45.96 46.17 46.45 46.74 46.86 46.92 46.95 46.88 46.95 47.04 47.06 46.97 47.08 47.11 47.01 46.49 46.09 46.75 47.25 47.18 47.05 46.93 46.68 46.67 46.66 46.80 47.08 47.10 47.33 47.66 47.80 47.82 47.66 47.43 47.34 47.15 46.87 46.72 46.76 47.17 47.33 47.34 47.47 47.16 47.33 47.76 47.61 47.62 47.28 47.24 47.78 47.75 47.88 48.16 48.27 48.23 48.44 49.07 49.83 50.35 51.54 51.95 51.70 51.70 51.01 51.13 51.97 52.74 53.74 54.40 53.72 52.38 52.58 53.13 54.01 54.82 55.18 55.41 55.53 55.84 56.23 56.33 56.62 56.55 56.34 55.36 54.87 55.48 55.52 55.98 55.82 54.74 53.29 49.52 48.43 50.06 52.24 53.98 51.20 45.82 45.00 45.00 45.00 45.00 45.00 45.01 45.04 46.30 49.85 51.77 55.39 55.92 55.61 55.32 55.19 54.70 54.05 53.60 53.32 53.30 53.03 52.52 52.57 53.39 53.58 53.34 52.93 52.96 52.86 51.95 52.51 53.03 52.98
25.50 25.14 24.99 24.69 23.81 23.75 24.08 25.03 25.16 25.18 25.22 25.27 25.24 25.29 25.30 24.56 23.18 23.28 25.06 25.50 25.15 24.71 25.36 22.82 17.12 17.25 19.99 21.60 21.26 21.01 20.37 19.33 16.99 14.55 13.26 12.72 11.80 11.80 16.49 24.04 26.12 26.22 26.08 25.96 26.03 26.17 26.22 26.30 26.25 26.16 26.03 26.08 26.11 26.22 26.39 26.35 25.08 24.31 25.98 26.13 25.73 26.35 27.24 27.51 27.64 27.88 27.98 28.06 28.05 28.29 28.61 28.75 28.89 29.25 29.32 29.48 29.58 29.78 29.94 30.30 30.51 30.52 30.65 30.67 30.79 30.91 31.00 30.86 30.98 31.17 31.35 31.54 31.74 31.67 31.73 31.92 31.91 31.91 32.01 32.10 31.94 31.88 31.82 31.84 31.83 31.94 32.06 32.02 32.18 32.34 32.25 32.46 32.96 32.79 32.49 32.51 32.54 32.49 32.34 32.37 32.42 32.64 32.72 32.93 32.99 33.06 33.18 33.26 33.36 33.24 33.14 33.25 32.43 31.60 33.05 33.08 33.07 33.14 33.43 33.93 33.89 33.83 33.69 33.55 33.44 33.54 33.70 33.84 33.79 33.75 33.77 33.76 33.76 33.68 33.86 34.14 34.20 34.18 34.12 33.90 33.54 32.76 32.12 31.90 31.50 31.11 31.09 29.81 28.85 30.35 31.76 32.04 32.06 31.69 31.32 30.57 30.32 30.54 33.03 35.21 35.64 35.75 35.98 36.21 34.17 33.82 34.25 34.54 34.67 34.64 35.70 36.50 36.92 36.94 36.07 34.97 34.85 36.46 37.65 37.79 37.83 37.80 37.30 36.97 37.07 38.37 39.14 39.29 39.13 39.32 39.72 39.86 39.90 39.95 40.08 40.29 40.43 40.66 40.70 40.81 40.92 40.89 40.91 40.93 40.98 41.10 41.28 41.46 41.44 41.68 41.86 41.97 42.24 42.54 42.62 42.75 42.98 43.20 43.10 43.48 44.18 44.28 43.82 43.79 43.92 44.07 44.24 44.33 44.42 44.79 44.94 44.88 44.97 45.01 44.99 45.03 45.19 45.33 45.38 45.40 45.65 45.88 45.91 46.12 46.19 46.13 46.05 46.11 46.33 46.62 46.93 47.02 47.07 47.05 47.01 47.11 47.21 47.21 47.14 47.27 47.31 47.09 46.79 46.68 46.88 47.43 47.37 47.22 47.09 46.91 47.02 47.15 47.23 47.42 47.51 47.68 47.91 48.20 48.19 47.93 47.71 47.67 47.47 47.06 46.74 46.92 47.33 47.49 47.62 47.72 47.60 47.75 47.81 47.98 48.01 47.64 47.44 48.07 48.19 48.16 48.42 48.64 48.50 48.63 49.46 50.18 50.96 51.80 52.05 51.98 52.02 51.61 51.65 52.33 53.02 53.93 54.36 54.10 52.94 52.93 53.44 53.92 54.53 55.05 55.50 55.84 56.30 56.86 56.88 57.04 57.05 56.83 55.99 55.49 55.77 55.70 55.80 55.79 54.62 52.00 50.38 50.99 53.39 54.04 56.34 55.52 47.86 45.03 45.00 45.00 45.00 45.00 46.00 46.90 45.31 47.95 50.84 52.98 54.42 55.42 56.20 56.48 56.42 55.80 54.90 54.28 54.02 53.61 53.32 53.42 54.05 54.49 54.45 53.91 53.68 53.31 52.63 53.27 53.29 53.85
25.56 25.14 24.87 24.37 24.34 24.34 24.07 25.01 25.21 25.28 25.41 25.43 25.40 25.32 25.00 24.27 23.99 24.73 25.15 25.49 25.05 24.94 24.81 21.31 17.76 18.54 18.85 21.84 22.19 21.59 21.31 20.78 19.84 17.64 15.28 14.50 13.50 11.90 11.53 16.65 24.01 25.74 25.91 26.11 25.68 26.06 26.13 25.86 25.80 26.26 26.21 26.09 26.18 26.23 26.34 26.16 24.57 24.63 24.74 25.05 25.92 26.81 27.37 27.59 27.85 27.97 28.21 28.28 28.30 28.37 28.66 28.86 28.96 29.15 29.32 29.56 29.69 29.85 29.97 30.33 30.49 30.60 30.68 30.75 30.80 30.91 31.18 31.07 30.97 31.03 31.28 31.49 31.78 31.82 31.85 31.94 31.87 31.90 32.06 32.20 31.92 31.88 31.85 31.88 31.89 31.94 32.00 32.07 32.29 32.62 32.51 32.61 33.03 33.05 32.62 32.81 32.86 32.71 32.48 32.40 32.46 32.68 32.82 33.01 33.02 33.14 33.23 33.32 33.37 33.42 33.24 33.36 33.22 33.04 33.11 33.17 33.33 33.46 33.73 33.79 33.69 33.67 33.72 33.68 33.58 33.53 33.77 33.86 33.87 33.92 34.00 34.03 33.96 33.85 33.90 34.16 34.30 34.26 34.22 34.16 33.91 33.36 33.29 33.25 32.18 31.38 31.44 31.14 29.56 30.56 31.87 32.32 32.24 31.74 30.90 30.58 30.73 31.17 32.72 34.23 35.55 35.81 36.31 36.08 34.62 35.05 35.51 36.30 36.35 36.39 36.39 36.57 36.89 37.18 37.00 36.50 36.35 37.22 37.56 37.76 38.04 38.12 38.05 38.32 38.11 37.82 38.46 38.95 39.07 39.41 39.56 39.75 39.90 40.08 40.12 40.20 40.26 40.58 40.81 40.89 41.00 41.07 41.06 40.89 41.08 41.34 41.53 41.67 41.64 41.82 42.03 42.21 42.38 42.54 42.97 43.00 43.27 43.36 43.31 43.78 44.98 44.97 44.32 44.03 44.14 44.30 44.38 44.44 44.56 45.05 45.07 45.10 45.11 45.19 45.32 45.39 45.45 45.40 45.54 45.60 45.71 45.95 46.08 46.34 46.43 46.36 46.25 46.23 46.42 46.72 47.03 47.25 47.30 47.20 47.25 47.32 47.38 47.37 47.28 47.51 47.40 47.10 46.95 46.93 46.97 47.42 47.51 47.48 47.39 47.25 47.34 47.50 47.61 47.69 47.74 47.75 47.93 48.34 48.38 48.40 48.22 47.88 47.52 46.78 46.49 47.07 47.59 47.90 47.96 47.94 47.78 47.91 48.00 48.22 48.18 47.78 47.56 48.00 48.54 48.47 48.46 48.71 48.74 48.87 49.54 50.18 50.97 51.41 51.67 51.93 51.92 51.84 52.15 52.68 53.32 54.09 54.75 54.35 53.73 53.84 54.48 54.73 54.76 54.97 55.55 56.39 57.02 57.51 57.61 57.56 57.30 56.86 56.31 55.96 55.95 55.72 55.37 54.04 53.41 53.13 53.10 53.35 54.45 54.99 55.63 55.19 52.78 46.48 45.00 45.00 45.00 45.26 48.54 50.40 47.77 47.87 50.01 51.79 53.17 54.94 56.63 57.33 57.57 57.73 56.89 55.69 54.98 54.79 54.27 54.17 54.61 55.21 56.06 55.72 54.43 53.85 53.23 53.60 54.27 54.75
25.66 25.08 24.73 24.59 24.66 24.59 24.45 24.95 25.34 25.32 25.45 25.42 25.47 25.36 25.12 24.93 24.68 25.11 25.40 25.39 25.27 24.43 23.05 20.28 18.77 19.31 18.95 21.38 23.22 22.52 22.04 21.67 21.07 20.29 18.22 16.38 15.31 13.74 11.86 11.94 17.92 23.78 24.96 25.62 24.84 25.65 24.17 21.07 22.97 25.51 25.65 25.88 26.05 26.42 26.19 25.50 24.26 23.67 24.99 25.48 26.53 27.21 27.49 27.69 27.81 28.11 28.36 28.43 28.49 28.56 28.76 28.87 28.95 28.99 29.38 29.54 29.66 29.77 30.08 30.36 30.57 30.67 30.74 30.78 30.89 31.08 31.14 31.14 31.11 31.18 31.36 31.51 31.63 31.81 31.94 31.86 31.92 31.92 31.99 32.08 31.96 31.90 31.87 31.86 32.02 32.06 32.21 32.29 32.43 32.81 32.65 32.82 33.35 33.77 32.76 32.90 32.80 32.67 32.57 32.55 32.55 32.73 32.95 33.09 33.21 33.33 33.48 33.45 33.30 33.35 33.37 33.38 33.37 33.30 33.25 33.43 33.64 33.57 33.53 33.66 33.74 33.76 33.81 33.76 33.74 33.75 33.86 33.83 34.10 34.13 34.14 34.15 34.19 34.05 34.03 34.12 34.26 34.25 34.34 34.35 34.28 33.95 33.89 33.87 33.17 32.12 31.65 31.56 30.01 31.27 31.90 32.15 31.90 31.64 31.02 31.33 32.14 32.42 33.76 34.36 34.90 36.03 36.44 36.04 35.40 35.45 36.16 36.47 36.59 36.80 36.79 36.76 36.89 37.18 37.39 37.36 37.54 37.77 37.87 38.09 38.35 38.33 38.40 38.64 38.75 38.63 38.01 38.14 38.81 38.57 38.50 38.60 39.30 39.86 39.39 38.53 38.71 39.36 40.14 40.85 41.12 40.95 40.57 40.89 41.03 41.32 41.64 41.81 41.83 41.95 42.09 42.35 42.57 42.65 42.93 43.18 43.35 43.59 44.18 44.83 45.12 45.08 44.62 44.28 44.35 44.46 44.45 44.55 44.81 45.31 45.52 45.68 45.50 45.49 45.50 45.42 45.41 45.43 45.64 45.80 45.78 45.82 46.17 46.37 46.58 46.51 46.49 46.40 46.50 46.72 47.08 47.47 47.62 47.50 47.48 47.47 47.54 47.63 47.48 47.52 47.43 47.22 47.11 47.15 46.96 47.45 47.57 47.63 47.54 47.34 47.54 47.61 47.66 47.75 47.74 47.80 47.96 48.36 48.61 48.67 48.53 48.12 47.65 46.92 46.69 47.15 47.64 47.83 48.02 48.13 48.00 48.04 48.16 48.31 48.42 47.86 47.56 48.04 48.45 48.58 48.55 48.62 48.88 48.97 49.62 50.16 50.91 51.25 51.46 51.83 51.89 51.76 51.84 52.50 53.32 54.05 54.78 54.46 53.95 54.08 54.49 54.84 54.87 55.06 55.70 56.53 57.16 57.92 58.32 58.19 57.69 57.19 56.57 56.14 55.92 55.64 55.17 53.66 53.17 53.98 54.75 55.39 55.57 55.55 55.25 55.11 54.72 49.35 45.05 45.00 45.00 45.26 48.35 50.87 49.72 49.72 50.72 51.99 54.42 56.64 57.38 58.07 58.45 58.73 58.65 57.50 56.84 57.42 56.20 55.60 55.53 55.93 57.21 58.38 55.60 53.93 53.94 54.06 55.09 55.54
25.55 25.11 24.87 24.90 24.88 24.83 25.08 25.10 25.32 25.38 25.53 25.49 25.49 25.50 25.44 25.23 25.29 25.43 25.48 25.37 25.54 25.23 23.51 19.59 20.15 21.63 19.91 20.41 22.68 23.55 22.86 22.51 21.87 21.31 20.64 18.91 17.32 15.58 13.67 11.75 12.63 18.20 21.90 23.65 23.89 23.78 19.89 20.43 20.80 21.88 23.50 24.09 25.05 25.90 25.81 25.59 24.33 23.75 25.49 25.46 26.27 27.01 27.36 27.66 27.79 27.95 28.23 28.51 28.60 28.64 28.86 28.96 29.17 29.22 29.46 29.60 29.71 29.83 30.16 30.29 30.48 30.69 30.84 30.88 30.95 31.05 31.14 31.29 31.30 31.32 31.45 31.53 31.52 31.85 32.26 31.84 31.96 32.04 32.03 31.98 31.93 31.95 31.89 31.99 32.13 32.17 32.22 32.41 32.47 32.64 32.57 32.66 33.09 33.44 32.84 32.76 32.74 32.64 32.48 32.82 32.76 32.83 33.01 33.15 33.39 33.45 33.49 33.48 33.44 33.49 33.53 33.45 33.55 33.50 33.38 33.34 33.42 33.51 33.57 33.65 33.72 33.79 33.80 33.83 33.77 33.79 33.78 33.95 34.22 34.29 34.21 34.21 34.36 34.23 34.23 34.23 34.31 34.44 34.54 34.56 34.54 34.30 34.18 34.03 33.57 33.30 32.48 31.49 29.92 31.81 32.13 31.90 31.84 31.68 31.32 33.27 34.31 33.98 33.89 35.30 35.67 36.45 36.17 36.26 35.81 35.25 35.44 36.19 36.64 36.78 36.97 37.13 37.20 37.36 37.58 37.56 37.85 38.03 38.22 38.39 38.50 38.39 38.64 38.86 38.90 38.90 38.73 37.89 37.75 37.85 38.37 38.05 37.93 38.07 37.88 38.87 39.92 39.56 39.04 39.48 39.72 39.58 39.47 40.04 41.26 41.49 41.73 41.94 42.01 42.03 42.23 42.51 42.65 42.77 42.98 43.17 43.56 44.29 44.93 45.21 45.24 45.40 44.82 44.36 44.48 44.55 44.60 44.78 45.30 45.54 45.68 45.57 45.58 45.57 45.59 45.54 45.50 45.55 45.68 45.89 45.99 46.01 46.10 46.33 46.66 46.64 46.66 46.60 46.77 47.03 47.30 47.63 47.68 47.56 47.55 47.55 47.58 47.68 47.63 47.62 47.54 47.42 47.31 47.25 46.96 47.61 47.70 47.82 47.85 47.66 47.64 47.73 47.68 47.72 47.77 47.78 47.98 48.52 48.92 48.98 48.82 48.45 47.78 47.20 46.95 47.13 47.45 47.61 47.92 48.06 48.45 48.38 48.35 48.42 48.37 47.99 47.78 47.99 48.36 48.68 48.83 48.84 49.24 49.46 49.76 50.11 50.96 51.67 51.85 51.81 51.95 52.03 52.08 52.46 53.18 53.86 54.67 54.74 54.12 54.34 55.08 55.42 55.25 55.41 55.97 56.59 57.14 57.87 58.28 58.05 57.94 57.43 56.87 56.33 56.00 55.72 55.03 53.72 54.46 55.20 56.12 56.73 56.80 56.54 55.86 54.95 53.59 49.76 45.32 45.00 45.00 45.21 47.36 50.39 50.65 50.76 51.37 52.41 55.00 57.54 58.19 58.82 59.39 59.67 59.68 59.20 58.77 59.42 58.63 58.08 56.95 56.86 58.31 59.97 56.55 54.65 55.01 54.80 55.50 56.28
25.49 25.19 25.28 25.42 25.12 25.23 25.38 25.31 25.26 25.49 25.62 25.57 25.62 25.64 25.73 25.58 25.53 25.53 25.55 25.49 25.46 25.04 24.19 21.73 19.59 20.98 22.00 19.46 20.69 22.58 23.51 23.37 22.56 22.05 21.63 21.01 19.65 17.39 15.47 13.49 11.65 12.91 18.03 22.03 21.29 20.05 18.05 22.98 24.98 24.64 24.06 22.39 22.43 22.33 24.84 25.22 23.11 23.21 24.75 25.48 26.18 26.66 27.09 27.64 27.77 27.97 28.17 28.49 28.64 28.74 28.88 29.09 29.24 29.35 29.53 29.73 30.00 30.13 30.24 30.36 30.39 30.68 30.84 30.93 30.96 31.11 31.27 31.45 31.39 31.45 31.58 31.67 31.72 31.83 31.90 31.88 31.82 31.91 31.80 31.84 32.01 32.06 32.01 32.03 32.11 32.29 32.36 32.41 32.42 32.66 32.60 32.62 32.88 33.34 33.05 32.82 32.76 32.68 32.46 32.56 32.89 32.96 33.20 33.33 33.48 33.49 33.54 33.55 33.47 33.51 33.63 33.45 33.43 33.36 33.34 33.39 33.42 33.53 33.60 33.66 33.79 33.81 33.86 33.93 33.89 33.89 33.95 34.07 34.18 34.30 34.36 34.37 34.44 34.29 34.33 34.40 34.53 34.66 34.71 34.68 34.73 34.54 34.41 34.24 33.99 33.89 33.30 31.47 30.15 32.29 32.50 32.07 32.18 31.79 31.30 33.01 34.85 34.88 33.88 34.61 36.44 36.50 36.18 36.27 36.20 35.65 35.25 35.48 36.40 36.86 37.07 37.32 37.43 37.64 37.96 37.80 37.92 38.10 38.27 38.55 38.61 38.65 38.87 38.98 39.09 39.23 39.38 39.23 38.72 39.04 39.46 39.07 38.56 38.81 39.11 39.15 39.87 40.28 40.35 40.25 40.27 40.65 40.94 40.07 40.67 41.53 41.72 41.96 42.07 42.28 42.38 42.64 42.74 42.88 43.13 43.33 43.67 44.50 44.81 45.40 45.36 45.62 45.24 44.53 44.67 44.72 44.88 45.26 45.79 45.46 45.61 45.61 45.72 45.82 45.91 45.75 45.68 45.90 45.83 45.99 46.11 46.15 46.20 46.27 46.60 46.73 46.76 47.00 47.06 47.14 47.33 47.55 47.72 47.74 47.67 47.70 47.85 47.89 47.84 47.89 47.75 47.62 47.47 47.32 47.41 47.91 47.93 48.09 48.11 48.05 47.89 47.80 47.87 47.80 47.81 47.88 48.11 48.54 48.88 48.97 48.82 48.37 47.78 47.45 47.00 47.31 47.44 47.51 48.07 48.26 48.57 48.57 48.53 48.60 48.63 48.36 48.34 48.29 48.70 48.93 49.17 49.44 49.73 49.49 49.95 50.35 50.81 51.35 51.80 51.71 52.02 52.21 52.33 52.55 53.17 53.84 54.38 54.53 54.53 54.67 55.29 55.82 56.03 56.18 56.49 56.94 57.30 57.68 57.73 57.74 57.53 57.01 56.68 56.24 56.31 56.34 55.66 55.03 56.34 56.20 57.09 58.05 57.84 57.28 56.29 55.30 54.40 53.53 46.86 45.00 45.00 46.05 48.21 49.56 50.99 51.38 51.83 52.88 55.14 57.26 58.09 59.12 60.43 60.79 60.73 60.45 59.88 60.17 60.27 59.60 58.56 58.40 59.87 60.97 57.89 55.63 55.88 55.85 56.35 56.80
25.71 25.43 25.57 25.70 25.42 25.49 25.58 25.68 25.46 25.36 25.61 25.67 25.86 25.83 25.75 25.58 25.60 25.64 25.62 25.51 25.16 24.20 23.97 22.80 19.69 20.56 22.77 20.10 20.28 20.64 22.55 23.88 23.60 23.31 22.35 21.71 21.19 19.31 16.90 15.23 13.15 11.78 13.95 18.59 19.99 17.83 18.92 25.24 27.34 27.47 26.93 25.24 24.44 22.65 24.34 23.76 22.99 24.02 25.38 26.19 26.42 26.84 27.10 27.54 27.83 27.94 28.18 28.54 28.67 28.81 28.95 29.13 29.31 29.50 29.64 29.79 30.09 30.26 30.31 30.45 30.51 30.68 30.79 30.89 31.14 31.13 31.25 31.39 31.47 31.48 31.57 31.71 31.86 31.92 31.87 31.82 31.95 31.96 31.92 31.96 32.06 32.19 32.10 32.17 32.18 32.29 32.43 32.47 32.57 32.73 32.87 32.68 32.75 33.37 33.03 32.94 32.87 32.97 33.00 33.05 32.97 33.06 33.31 33.48 33.50 33.59 33.71 33.66 33.59 33.64 33.69 33.50 33.44 33.55 33.49 33.53 33.54 33.61 33.62 33.59 33.81 33.92 33.95 34.15 34.18 34.12 34.03 34.07 34.21 34.42 34.48 34.51 34.58 34.61 34.52 34.60 34.59 34.71 34.74 34.81 34.76 34.75 34.62 34.53 34.49 34.17 33.78 31.97 30.23 32.36 32.62 32.08 31.86 31.57 31.53 32.24 34.12 35.26 34.99 34.83 36.11 36.17 36.36 36.56 36.70 36.47 36.18 35.84 36.44 36.73 36.83 37.23 37.39 37.49 37.68 37.93 38.09 38.23 38.28 38.56 38.77 38.87 38.81 38.93 39.16 39.45 39.57 39.62 39.54 39.66 39.89 39.82 39.48 40.12 40.16 39.94 39.98 40.16 40.80 40.94 41.11 41.24 41.48 41.33 40.14 40.77 41.70 42.13 42.24 42.37 42.50 42.67 42.80 43.04 43.31 43.39 43.88 44.23 44.61 45.19 45.39 45.67 45.55 45.32 45.56 45.28 45.09 45.74 46.49 45.80 45.69 45.73 45.91 45.99 46.07 45.96 45.84 45.97 45.95 46.06 46.26 46.42 46.37 46.46 46.68 46.76 46.92 47.02 47.07 47.21 47.40 47.71 47.85 47.97 47.92 48.02 48.11 48.14 48.11 48.19 47.90 47.78 47.64 47.55 47.79 48.05 48.13 48.28 48.23 48.25 48.18 48.03 47.99 48.05 48.07 48.09 48.29 48.64 48.88 48.93 48.81 48.42 47.98 47.42 47.08 47.76 47.87 47.84 48.27 48.41 48.56 48.92 48.99 49.14 49.28 49.04 49.19 48.95 48.98 49.17 49.59 49.43 49.52 49.56 50.02 50.48 50.94 51.37 51.75 51.76 51.89 52.25 52.51 52.64 53.25 53.95 54.38 54.45 54.54 54.74 55.25 55.94 56.20 56.33 56.42 56.76 57.09 57.37 57.41 57.45 57.38 57.07 56.59 56.22 56.24 56.19 55.85 55.87 55.95 56.14 56.94 57.83 57.75 57.28 56.68 56.28 55.90 55.43 50.58 45.26 45.00 45.96 48.23 49.24 50.34 49.88 50.16 52.12 55.56 57.32 57.97 59.43 60.88 61.44 61.57 61.50 61.41 61.40 61.68 60.95 60.08 59.87 60.96 61.76 60.11 56.96 57.00 57.83 57.74 57.81
25.88 25.75 25.64 25.54 25.42 25.56 25.72 25.83 25.71 25.61 25.69 25.71 25.80 25.91 26.01 25.82 25.79 25.79 25.71 25.45 24.88 24.34 23.31 22.24 20.18 22.06 23.18 20.90 22.40 20.69 20.46 22.38 23.84 24.08 22.96 22.14 21.71 20.65 18.71 16.95 14.99 12.62 12.02 17.21 22.84 21.58 23.24 26.17 27.33 26.73 26.71 25.95 25.68 24.26 25.13 25.79 25.47 24.85 25.99 26.58 26.82 27.17 27.48 27.73 28.00 28.19 28.37 28.45 28.65 28.82 28.99 29.14 29.32 29.57 29.86 30.04 30.23 30.39 30.54 30.66 30.60 30.64 30.79 30.86 30.95 31.03 31.24 31.37 31.73 31.72 31.66 31.78 31.97 31.95 31.99 31.92 31.93 31.95 31.98 32.02 32.17 32.23 32.29 32.26 32.40 32.34 32.51 32.69 32.81 32.75 32.95 32.79 32.86 33.77 33.16 33.07 33.15 33.17 33.37 33.26 33.01 33.10 33.34 33.54 33.72 33.82 33.85 33.85 33.87 33.77 33.64 33.57 33.61 33.68 33.63 33.61 33.64 33.64 33.72 33.69 33.78 33.96 34.04 34.19 34.17 34.10 34.11 34.15 34.28 34.48 34.58 34.61 34.68 34.76 34.49 34.69 34.74 34.83 34.95 34.98 34.90 34.94 34.82 34.77 34.70 34.28 33.47 31.94 30.08 31.93 32.13 31.39 31.42 31.34 31.55 32.62 33.32 34.98 35.79 36.10 35.29 35.66 36.47 36.66 36.93 36.81 36.71 36.53 36.91 36.94 37.17 37.36 37.52 37.67 37.87 37.96 38.13 38.37 38.37 38.61 38.86 39.07 39.10 39.08 39.22 39.52 39.72 39.83 39.80 39.85 40.15 40.18 39.87 40.36 40.48 40.46 40.64 40.36 40.92 41.09 41.26 41.59 41.77 40.57 41.06 40.14 40.59 41.74 42.07 42.38 42.54 42.75 42.90 43.09 43.36 43.52 44.11 44.10 44.22 44.93 45.34 45.54 45.62 45.60 45.74 45.69 46.14 46.90 47.14 46.13 45.75 45.88 46.03 46.04 46.20 46.21 45.99 46.13 46.20 46.29 46.48 46.57 46.62 46.82 46.86 46.96 47.19 47.25 47.23 47.36 47.51 47.84 47.97 48.01 48.19 48.23 48.22 48.40 48.35 48.26 48.05 47.95 47.87 47.74 48.04 48.14 48.24 48.44 48.50 48.47 48.53 48.26 48.28 48.34 48.35 48.42 48.63 48.96 49.05 49.17 49.08 48.77 48.50 47.78 47.73 48.17 48.20 48.10 48.53 48.60 48.88 49.19 49.21 49.43 49.08 49.00 49.02 48.97 48.96 49.21 49.61 49.70 49.52 49.76 50.17 50.52 51.06 51.56 52.01 52.25 52.17 52.33 52.34 52.64 53.23 53.83 54.17 54.38 54.67 54.92 55.26 55.74 56.00 56.31 56.59 56.72 56.98 57.24 57.31 57.30 57.26 57.09 56.77 56.50 56.38 56.20 56.11 56.31 56.68 57.06 57.31 57.42 57.74 57.69 57.31 56.92 56.88 56.27 54.52 47.31 45.00 45.15 46.04 46.42 46.45 47.55 48.66 51.81 56.29 57.70 58.54 59.65 60.55 61.03 61.31 61.59 62.17 62.86 63.07 62.49 61.44 60.96 61.31 62.04 61.19 58.61 58.70 60.03 60.35 59.59
25.97 25.87 25.87 25.59 25.47 25.66 25.76 25.80 25.84 25.78 25.86 25.70 25.73 25.81 26.06 25.96 25.91 25.86 25.81 25.52 25.40 24.65 24.02 22.93 21.43 23.11 23.91 21.33 23.28 23.39 21.04 20.86 21.96 23.35 23.44 22.72 22.16 21.45 20.02 18.20 16.49 14.09 12.19 12.83 20.28 24.98 25.98 27.29 28.21 27.47 26.77 26.39 25.91 24.09 23.79 25.81 26.24 25.40 25.93 26.69 27.02 27.23 27.43 27.69 27.97 28.25 28.38 28.57 28.74 28.90 29.04 29.27 29.39 29.59 29.79 30.09 30.33 30.51 30.73 30.77 30.76 30.71 30.85 31.07 31.10 31.20 31.37 31.52 31.75 31.88 32.08 31.93 31.99 31.93 32.35 32.03 31.90 32.01 32.03 32.09 32.19 32.33 32.22 32.10 32.37 32.50 32.68 32.77 32.86 32.85 33.04 32.94 33.23 34.61 33.59 33.30 33.27 33.07 33.35 33.38 33.31 33.24 33.47 33.75 33.96 33.98 34.04 34.04 34.05 33.86 33.76 33.73 33.64 33.70 33.76 33.76 33.78 33.79 33.91 33.84 33.85 33.98 34.12 34.18 34.26 34.14 34.29 34.41 34.42 34.41 34.67 34.71 34.75 34.83 34.76 34.79 34.90 35.01 35.14 35.23 35.17 35.10 34.97 34.90 34.72 33.97 32.63 31.94 30.25 31.30 31.25 31.06 31.69 31.62 32.24 34.36 34.01 34.44 36.15 36.28 35.68 35.69 36.26 36.50 36.90 37.03 36.83 36.30 36.86 37.08 37.43 37.69 37.83 38.14 38.06 38.13 38.36 38.59 38.56 38.62 38.81 39.14 39.37 39.41 39.41 39.46 39.74 39.97 40.00 40.12 40.41 40.44 40.13 40.56 40.78 40.81 40.92 40.70 40.95 41.23 41.48 42.05 41.43 40.82 41.45 41.31 39.96 40.95 41.79 42.15 42.54 42.76 42.91 43.10 43.28 43.56 44.03 44.08 44.07 44.33 44.89 45.23 45.50 45.08 44.79 45.50 46.95 47.25 47.36 46.46 45.90 46.06 46.25 46.29 46.27 46.29 46.30 46.40 46.45 46.57 46.84 47.13 47.04 47.06 46.97 47.09 47.34 47.46 47.50 47.57 47.72 47.93 48.16 48.20 48.43 48.42 48.40 48.50 48.51 48.39 48.36 48.23 48.11 47.91 48.24 48.33 48.46 48.65 48.74 48.74 48.77 48.48 48.48 48.67 48.59 48.70 49.05 49.40 49.46 49.43 49.15 48.81 48.70 48.13 48.41 48.48 48.18 48.11 48.52 48.59 48.68 48.94 49.12 49.19 49.24 49.19 49.23 49.17 49.16 49.42 49.67 49.91 49.80 49.95 50.17 50.52 51.06 51.64 52.16 52.57 52.53 52.46 52.48 52.79 53.15 53.62 54.04 54.22 54.59 54.99 55.40 56.04 56.08 56.42 56.63 56.77 56.99 57.15 57.27 57.39 57.18 56.98 56.98 56.74 56.47 56.41 56.77 57.48 57.65 57.76 57.99 57.79 58.18 58.10 58.08 57.80 57.74 57.17 56.26 50.87 45.10 45.00 45.00 45.00 45.77 51.17 50.39 51.71 56.50 58.10 59.16 60.06 60.41 60.80 61.09 61.46 62.02 62.80 63.43 63.48 62.89 61.98 61.81 62.27 62.02 60.24 60.72 61.28 61.61 60.92
26.09 26.05 26.04 25.91 25.80 25.79 25.79 25.88 26.04 26.07 25.98 25.84 25.86 25.94 26.05 26.09 25.99 25.99 25.94 25.76 25.70 25.27 23.99 22.64 21.92 24.11 23.73 21.11 22.82 24.69 23.88 22.34 21.08 21.33 22.73 23.31 22.86 22.16 21.19 19.27 17.44 15.60 13.40 11.93 15.31 24.86 27.56 28.02 28.71 28.38 27.47 26.76 26.35 25.53 23.86 24.59 26.49 25.82 25.95 26.45 26.45 26.57 26.75 27.33 27.51 28.01 28.26 28.56 28.78 29.01 29.09 29.22 29.40 29.65 29.84 30.19 30.48 30.67 30.95 31.10 31.07 31.08 31.26 31.39 31.28 31.39 31.61 31.78 31.99 31.82 32.04 32.12 32.09 31.83 32.82 31.84 31.28 32.04 32.07 32.21 32.36 32.51 32.39 32.30 32.41 32.59 32.96 33.06 32.92 32.99 32.96 32.92 33.11 33.99 33.72 33.27 33.27 33.09 33.34 33.57 33.72 33.48 33.61 33.79 33.98 34.12 34.25 34.14 34.18 33.94 33.77 33.66 33.71 33.83 33.93 33.92 33.94 33.91 33.91 33.91 33.92 34.07 34.34 34.75 35.06 35.25 34.97 34.66 34.97 35.00 35.06 35.12 35.29 35.04 34.86 35.01 35.11 35.20 35.27 35.28 35.39 35.23 35.10 34.96 34.22 32.96 32.43 31.97 30.71 31.12 30.97 31.45 32.38 32.38 34.02 35.68 35.34 34.95 36.06 36.11 36.06 36.12 36.50 36.65 36.90 37.18 36.91 36.54 37.17 37.17 37.61 37.98 38.09 38.22 38.19 38.34 38.58 38.76 38.82 38.94 39.07 39.27 39.43 39.51 39.53 39.57 39.82 40.04 40.12 40.30 40.54 40.70 40.58 40.77 40.92 40.98 41.16 41.03 40.97 41.15 41.39 42.00 41.31 41.72 42.39 41.98 41.00 40.11 40.94 41.08 41.76 42.46 42.83 43.18 43.29 43.48 44.06 44.09 44.09 44.60 45.07 45.36 45.58 45.14 44.87 45.10 46.31 47.04 47.46 47.24 46.47 46.28 46.39 46.42 46.43 46.44 46.67 46.91 46.99 47.18 47.32 47.33 47.22 47.26 47.25 46.99 47.37 47.60 47.79 47.84 48.08 48.20 48.30 48.47 48.57 48.65 48.65 48.59 48.78 48.60 48.67 48.84 48.58 48.07 48.45 48.62 48.76 48.97 49.00 49.08 49.12 48.80 48.66 48.96 48.88 49.16 49.55 49.91 49.73 49.50 49.13 48.90 48.72 48.24 48.54 48.65 48.30 48.20 48.74 48.85 48.88 48.92 49.15 49.24 49.12 49.35 49.47 49.46 49.37 49.61 49.78 50.29 50.40 50.13 50.34 50.73 50.95 51.31 51.82 52.29 52.78 52.78 52.85 53.09 53.31 53.59 53.97 54.24 54.60 54.93 55.40 55.82 56.02 56.44 56.68 56.82 57.07 57.16 57.29 57.30 57.23 57.06 57.00 56.77 56.57 56.87 57.74 58.25 58.26 58.91 59.39 58.90 58.98 58.85 58.22 58.13 58.20 57.60 56.62 52.88 48.29 46.97 45.00 45.00 45.82 51.76 52.01 53.29 56.39 57.64 58.68 59.82 60.16 60.50 60.95 61.54 62.09 62.71 63.40 63.74 63.71 62.97 62.55 62.75 62.59 61.64 62.01 62.48 62.38 62.46
26.22 26.29 26.19 26.12 25.90 25.84 25.82 25.96 26.10 26.22 26.07 25.93 26.01 26.01 26.09 26.13 25.99 26.05 26.03 25.89 25.83 25.14 23.22 23.80 22.15 24.27 24.51 22.46 22.27 23.57 24.68 25.30 23.82 22.06 21.72 23.20 23.48 22.66 21.99 20.90 18.21 16.50 14.68 12.83 11.90 17.16 26.25 28.71 29.02 28.57 27.18 27.06 26.75 26.13 24.97 23.89 25.88 26.06 25.60 25.42 25.61 26.93 27.44 27.84 28.12 28.38 28.46 28.55 28.71 28.95 29.11 29.22 29.47 29.69 29.91 30.24 30.60 30.85 31.05 31.35 31.47 31.48 31.78 31.89 31.81 31.85 31.88 31.99 32.12 32.08 32.08 32.25 32.36 32.01 32.17 32.01 31.81 32.20 32.29 32.29 32.41 32.52 32.60 32.59 32.42 33.09 33.04 32.89 32.77 32.92 32.90 32.98 33.13 34.16 34.28 33.40 33.34 33.19 33.44 33.86 34.27 33.68 33.67 33.88 34.06 34.24 34.15 34.17 34.15 34.00 33.91 33.77 33.86 33.98 34.03 33.98 34.02 34.01 34.10 34.03 34.09 34.57 34.91 34.79 34.73 34.73 34.75 34.69 34.93 34.90 35.02 35.18 35.44 35.46 35.46 35.46 35.27 35.25 35.41 35.42 35.52 35.43 35.21 34.88 33.62 32.84 32.43 32.33 30.98 31.24 31.63 32.38 32.83 33.82 35.21 36.01 36.22 35.91 35.37 36.07 36.41 36.53 36.78 36.95 37.13 37.37 37.36 36.96 37.24 37.54 37.73 38.01 38.21 38.33 38.37 38.52 38.75 38.96 39.05 39.14 39.39 39.51 39.49 39.61 39.73 39.76 40.01 40.19 40.27 40.46 40.63 40.83 40.93 41.02 41.07 41.16 41.34 41.36 41.19 41.32 41.42 41.80 41.87 42.26 42.33 42.02 42.14 41.88 42.08 41.96 41.26 41.56 42.36 42.38 42.88 43.25 43.91 44.27 45.06 46.53 47.16 46.41 46.13 46.50 46.66 45.73 45.75 46.79 47.39 47.77 47.00 46.38 46.47 46.67 46.80 47.02 47.10 47.15 46.95 47.13 47.23 47.38 47.44 47.43 47.41 47.25 47.40 47.54 47.91 47.93 48.17 48.39 48.44 48.52 48.73 48.80 48.88 48.72 48.85 48.69 48.95 48.96 48.79 48.43 48.68 48.91 48.95 49.26 49.37 49.43 49.40 48.18 47.85 48.87 48.98 49.30 49.61 49.83 49.61 49.49 49.36 49.14 48.88 48.36 48.93 48.97 48.64 48.39 48.78 49.10 49.05 49.07 49.38 49.51 49.32 49.76 50.09 49.94 49.58 49.69 49.94 50.27 50.34 50.53 50.51 50.84 51.04 51.06 51.51 52.03 52.39 52.67 52.90 53.19 53.60 53.75 54.06 54.32 54.59 54.90 55.33 55.80 56.06 56.36 56.60 56.94 57.10 57.20 57.25 57.30 57.25 57.13 57.02 56.70 56.70 57.57 58.14 58.55 58.78 58.98 59.47 59.09 58.49 57.99 57.32 56.65 56.08 56.26 56.88 53.83 52.27 49.48 45.18 45.00 45.35 50.16 52.91 54.99 56.37 57.01 58.20 59.54 59.94 60.35 60.79 61.38 61.96 62.47 63.19 63.57 63.75 63.59 63.40 63.26 63.08 62.84 63.57 64.04 63.87 64.01
26.25 26.23 26.25 26.17 26.06 25.96 26.01 25.97 26.03 26.09 25.96 25.94 26.07 26.11 26.19 26.19 26.10 26.10 26.16 26.05 25.48 23.82 24.22 25.12 22.53 23.14 25.00 23.91 22.43 22.61 24.05 25.90 26.04 24.36 22.22 22.23 23.40 23.27 22.76 22.33 19.91 17.19 15.60 14.00 12.27 12.25 19.57 26.67 27.66 28.41 27.99 27.76 27.15 26.73 25.77 24.33 24.20 25.47 25.64 26.40 26.89 27.42 27.72 27.98 28.37 28.58 28.68 28.77 28.80 29.01 29.11 29.18 29.44 29.66 29.99 30.38 30.74 31.07 31.40 31.78 32.01 32.03 32.37 32.34 32.13 31.98 31.97 32.11 32.16 32.19 32.26 32.24 32.32 32.32 32.34 32.18 32.27 32.37 32.45 32.43 32.56 32.71 32.73 32.69 32.75 32.78 32.66 32.64 32.79 32.83 32.90 33.05 33.25 34.13 34.11 33.45 33.39 33.36 33.55 33.62 33.90 33.91 33.75 34.06 34.24 34.14 34.18 34.16 34.17 34.07 34.00 33.90 33.99 34.04 34.01 34.02 34.07 34.11 34.21 34.28 34.59 34.97 34.55 34.43 34.54 34.63 34.70 34.80 34.83 34.99 34.95 35.01 35.09 35.08 35.16 35.67 35.86 35.46 35.47 35.53 35.60 35.46 35.11 34.45 33.24 32.91 32.62 32.92 31.61 31.09 32.53 33.05 34.02 35.59 36.11 36.40 36.32 35.78 35.07 36.06 36.51 36.76 36.91 37.10 37.34 37.48 37.55 37.36 36.73 37.03 37.71 38.00 38.26 38.35 38.45 38.56 38.79 39.09 39.22 39.43 39.67 39.74 39.69 39.75 39.99 40.15 40.19 40.36 40.44 40.58 40.78 40.94 41.01 41.27 41.33 41.38 41.49 41.57 41.54 41.60 41.58 41.73 42.02 42.19 42.29 42.11 42.40 42.46 42.47 42.61 42.18 41.15 41.26 40.76 41.89 43.60 43.96 44.76 42.88 43.24 44.23 44.58 46.75 47.32 47.85 47.12 46.83 47.36 47.49 47.67 46.86 46.80 47.00 47.14 47.06 47.03 47.01 47.09 47.11 47.28 47.48 47.50 47.61 47.65 47.68 47.56 47.70 47.75 47.90 47.97 48.27 48.53 48.77 48.80 48.86 49.01 49.10 48.97 49.06 49.07 49.04 49.03 48.92 48.73 48.82 49.11 49.19 49.46 49.49 49.61 49.61 49.07 48.82 49.00 49.11 49.38 49.71 49.81 49.66 49.50 49.43 49.39 49.03 48.53 49.01 49.25 48.95 48.74 48.96 49.34 49.26 49.40 49.62 49.79 50.31 51.27 51.20 50.29 49.70 49.83 50.20 50.48 50.36 50.47 50.59 50.88 51.39 51.51 51.63 51.93 52.21 52.56 52.86 53.27 53.65 53.87 54.14 54.50 54.70 55.01 55.28 55.72 55.97 56.33 56.71 57.04 57.10 57.09 57.27 57.39 57.22 57.14 57.04 56.83 56.76 57.60 58.06 58.44 58.69 58.85 59.09 58.32 57.76 57.17 56.08 54.85 54.07 54.09 55.74 55.42 53.36 51.55 47.99 45.37 45.03 48.29 52.82 54.97 55.83 56.61 57.76 59.18 59.67 60.05 60.55 61.23 61.83 62.24 62.77 62.99 63.30 63.63 63.74 63.69 63.71 63.84 64.36 65.18 65.40 65.40
26.34 26.23 26.32 26.18 26.21 26.10 26.02 26.03 26.02 26.04 26.02 26.02 26.07 26.06 26.16 26.12 26.04 26.14 26.09 25.92 24.71 23.91 25.37 25.35 23.19 21.77 24.79 25.43 23.84 23.34 23.98 24.62 25.99 25.64 23.36 22.30 22.77 23.76 23.48 22.83 21.91 19.30 16.59 14.53 12.84 11.88 13.23 20.48 25.10 27.15 27.81 27.53 27.08 26.94 26.67 25.49 23.80 25.68 26.25 26.28 26.56 27.30 27.63 27.90 28.31 28.53 28.74 28.93 29.06 29.11 29.21 29.31 29.51 29.75 30.15 30.39 31.10 31.55 31.97 32.55 33.25 32.85 32.66 32.28 32.23 32.23 32.12 32.21 32.29 32.31 32.32 32.40 32.22 32.30 32.29 32.36 32.40 32.47 32.59 32.63 32.65 32.73 32.73 32.68 32.69 32.79 32.69 32.69 32.86 32.92 33.12 33.31 33.40 34.16 34.51 33.48 33.51 33.49 33.48 33.68 33.89 34.03 34.20 34.30 34.34 34.17 34.18 34.25 34.25 34.20 34.15 34.02 34.05 34.11 34.15 34.08 34.16 34.12 34.22 34.49 34.91 34.76 34.51 34.57 34.68 34.74 34.89 35.05 35.03 35.11 35.10 35.16 35.17 35.05 35.22 35.28 35.55 35.84 35.95 35.72 35.67 35.57 35.18 34.24 33.47 32.86 32.78 33.27 33.16 31.02 31.74 34.15 35.34 35.83 36.08 36.17 36.28 36.18 35.78 36.25 36.67 36.88 37.09 37.27 37.50 37.64 37.79 37.79 37.38 37.36 37.54 37.86 38.10 38.38 38.65 38.73 38.88 39.07 39.25 39.55 39.78 39.75 39.80 39.97 40.16 40.19 40.33 40.54 40.61 40.73 40.87 41.06 41.17 41.25 41.48 41.59 41.66 41.67 41.65 41.77 41.86 42.06 42.09 42.29 42.42 42.33 42.53 42.68 42.61 42.64 42.84 41.98 41.91 42.33 42.13 43.61 43.92 45.30 43.72 42.93 42.50 43.62 47.07 48.00 49.37 49.23 48.63 47.79 47.25 47.00 46.86 47.05 47.02 47.02 46.94 47.15 47.20 47.29 47.29 47.43 47.56 47.72 47.84 47.85 47.92 47.78 47.94 48.11 48.08 48.16 48.31 48.62 48.74 48.94 49.03 49.22 49.33 49.28 49.37 49.28 49.07 49.04 49.02 48.90 48.96 49.30 49.43 49.70 49.62 49.66 49.77 49.60 49.36 49.07 49.17 49.45 49.78 49.86 49.83 49.74 49.63 49.51 49.30 48.98 49.33 49.33 49.13 48.88 49.03 49.35 49.54 49.70 49.81 49.92 50.18 50.55 50.44 50.07 49.78 50.12 50.47 50.62 50.72 50.55 50.68 51.09 51.51 51.83 51.91 52.03 52.40 52.53 52.89 53.34 53.66 53.87 54.16 54.48 54.74 55.06 55.31 55.69 56.06 56.31 56.74 57.01 57.14 57.20 57.27 57.36 57.26 57.27 57.20 56.98 56.95 57.60 58.04 58.34 58.71 58.49 58.36 57.88 56.93 55.45 54.29 54.13 54.07 54.00 54.51 55.71 54.30 53.01 51.75 46.75 45.03 47.58 52.12 54.15 55.12 56.23 57.21 58.44 59.02 59.61 60.06 60.63 61.22 61.52 61.96 62.58 63.09 63.41 63.54 63.64 63.79 63.99 64.23 64.70 65.24 65.74
26.37 26.34 26.41 26.32 26.40 26.32 26.20 26.16 26.18 26.20 26.20 26.18 26.12 26.16 26.23 26.10 26.11 26.22 26.05 25.58 24.81 24.96 25.69 25.68 24.01 22.01 24.38 25.56 24.45 24.62 25.11 24.19 25.19 25.71 24.17 22.78 22.22 23.86 24.38 23.63 22.56 21.06 18.33 15.13 13.05 12.42 11.80 16.60 23.18 25.40 26.10 26.42 26.69 27.03 26.98 26.33 24.58 24.99 25.87 26.52 26.71 27.23 27.61 27.98 28.30 28.61 28.65 29.01 29.17 29.20 29.31 29.52 29.85 30.04 30.20 30.44 30.86 31.47 32.68 33.10 33.61 33.72 33.19 32.47 32.40 32.30 32.33 32.36 32.33 32.36 32.35 32.31 32.21 32.23 32.49 32.62 32.43 32.52 32.66 32.69 32.73 32.78 32.77 32.67 32.70 32.89 32.77 32.78 32.99 33.05 33.17 33.37 33.59 33.96 34.35 33.55 33.50 33.46 33.54 33.74 33.94 34.23 34.28 34.24 34.36 34.31 34.31 34.28 34.23 34.26 34.18 34.10 34.10 34.18 34.21 34.23 34.27 34.23 34.47 34.83 34.80 34.74 34.73 34.67 34.72 34.87 35.06 35.11 35.18 35.25 35.28 35.22 35.26 35.14 35.38 35.50 35.47 35.59 36.04 36.23 35.96 35.73 35.40 34.62 34.04 33.07 33.20 34.54 34.77 32.85 30.89 31.33 32.63 34.40 35.73 36.28 36.38 36.38 36.25 36.46 36.76 36.93 37.13 37.38 37.59 37.79 37.96 38.02 37.94 38.31 37.58 37.71 38.12 38.34 38.71 38.83 39.09 39.21 39.34 39.54 39.75 39.88 39.89 40.07 40.23 40.37 40.48 40.57 40.70 40.89 41.00 41.19 41.34 41.32 41.49 41.68 41.84 41.94 41.95 41.96 42.06 42.26 42.25 42.44 42.66 42.58 42.71 42.80 42.95 42.97 43.08 42.97 42.91 43.16 42.44 43.46 43.94 44.32 44.98 44.57 43.48 44.37 47.48 49.03 50.74 50.23 48.89 47.85 47.32 46.85 46.76 46.95 47.01 47.10 47.20 47.37 47.40 47.44 47.42 47.52 47.70 47.83 48.03 48.14 48.17 47.92 48.06 48.32 48.39 48.55 48.60 48.64 48.75 49.00 49.18 49.34 49.38 49.45 49.39 49.16 49.06 49.16 49.11 49.09 49.26 49.37 49.58 49.87 49.88 49.91 49.83 49.75 49.59 49.27 49.30 49.61 49.95 50.12 50.02 49.83 49.73 49.63 49.51 49.40 49.65 49.52 49.46 49.21 49.06 49.37 49.62 49.93 49.95 50.01 49.99 50.15 50.36 50.21 49.96 50.25 50.68 50.77 51.03 50.87 50.94 51.41 51.45 51.90 52.21 52.25 52.48 52.60 52.94 53.20 53.48 53.74 54.07 54.43 54.82 55.11 55.24 55.62 55.96 56.30 56.67 56.92 57.08 57.17 57.32 57.45 57.19 57.18 57.33 57.12 57.28 57.47 57.84 58.20 57.91 57.67 57.70 57.05 55.40 54.43 54.16 54.64 55.11 54.26 54.98 54.88 53.38 52.87 51.46 47.52 45.30 48.89 51.71 53.28 54.76 55.95 56.95 57.97 58.48 59.21 59.83 60.27 60.71 61.13 61.63 62.40 62.93 63.20 63.31 63.50 63.69 63.86 64.14 64.49 64.96 65.64
26.55 26.41 26.51 26.57 26.51 26.47 26.42 26.39 26.32 26.30 26.27 26.21 26.16 26.24 26.26 26.11 26.25 26.25 26.06 25.52 25.51 25.86 25.90 25.80 23.80 22.02 24.37 25.51 24.85 24.78 25.90 24.84 24.95 25.52 24.84 23.56 22.56 23.04 24.34 24.34 23.18 21.36 18.80 15.89 13.46 13.01 12.18 13.46 20.05 23.00 24.04 24.56 25.63 26.94 27.35 26.86 26.52 25.17 25.91 26.90 26.94 27.22 27.52 27.92 28.19 28.54 28.63 28.95 29.27 29.36 29.41 29.42 29.66 29.83 30.05 30.41 30.82 31.56 32.83 33.41 33.54 33.94 33.71 32.76 32.49 32.44 32.43 32.43 32.41 32.50 32.51 32.46 32.41 32.34 32.74 33.08 32.66 32.56 32.70 32.85 32.99 32.85 32.79 32.82 32.89 32.99 32.93 32.89 32.89 33.12 33.29 33.48 33.78 33.94 34.94 34.01 33.60 33.56 33.61 33.79 34.09 34.11 34.13 34.29 34.31 34.42 34.43 34.33 34.32 34.40 34.28 34.27 34.27 34.31 34.27 34.34 34.40 34.62 35.01 34.95 34.88 34.91 34.96 34.87 34.99 35.02 35.16 35.25 35.35 35.49 35.49 35.39 35.56 35.40 35.49 35.45 35.46 35.60 35.81 36.18 36.53 36.29 35.92 35.51 35.18 34.39 33.62 33.87 34.19 34.37 33.03 32.07 31.62 32.12 32.99 35.00 36.29 36.57 36.55 36.59 36.76 37.01 37.19 37.45 37.68 37.81 38.08 38.29 38.15 38.20 37.88 37.74 38.24 38.42 38.74 38.98 39.21 39.29 39.53 39.70 39.73 39.94 40.04 40.22 40.36 40.51 40.61 40.72 40.74 41.00 41.12 41.25 41.39 41.53 41.68 41.79 42.00 42.17 42.14 42.18 42.38 42.50 42.47 42.51 42.68 42.66 42.75 42.98 43.08 43.12 43.20 43.19 43.18 43.48 42.91 42.89 43.25 43.58 44.09 44.80 45.49 45.18 46.83 48.22 49.26 49.09 48.01 47.28 46.63 46.87 46.85 47.04 47.11 47.39 47.59 47.73 47.71 47.80 47.87 47.82 47.89 48.07 48.23 48.38 48.31 48.29 48.44 48.62 48.74 48.87 48.94 49.03 49.12 49.22 49.34 49.37 49.46 49.55 49.53 49.31 49.32 49.38 49.31 49.29 49.54 49.58 49.79 49.95 50.00 50.01 49.91 49.81 49.75 49.27 49.49 49.75 50.29 50.53 50.40 50.10 50.01 49.95 49.64 49.83 50.00 49.88 49.84 49.65 49.43 49.67 49.59 49.99 50.17 50.24 50.24 50.31 50.67 50.63 50.17 50.20 50.86 51.13 51.43 51.07 51.04 51.34 51.54 51.72 52.29 52.50 52.73 52.88 52.97 53.06 53.37 53.71 54.16 54.49 54.79 55.13 55.36 55.56 55.85 56.22 56.44 56.73 57.03 57.23 57.42 57.53 57.28 57.25 57.47 57.38 57.35 57.52 57.76 57.55 57.34 57.02 56.75 56.61 56.21 55.94 55.93 56.12 56.42 55.91 56.40 56.43 54.91 54.40 52.58 48.22 45.57 49.98 52.48 53.37 54.98 55.96 56.84 57.96 58.53 59.16 59.83 60.00 60.33 60.99 61.64 62.18 62.61 62.95 63.17 63.28 63.54 63.71 64.06 64.48 64.94 65.77
26.69 26.76 26.83 26.79 26.54 26.49 26.46 26.44 26.26 26.21 26.32 26.31 26.31 26.31 26.39 26.18 26.24 26.36 26.20 25.84 26.01 26.16 26.10 25.96 23.40 22.51 24.45 25.50 25.55 25.33 25.72 25.14 24.78 25.69 26.02 25.35 23.80 22.87 23.67 24.82 24.50 22.58 19.76 16.56 13.03 12.34 12.26 12.84 19.68 23.93 25.40 26.01 27.04 27.33 27.89 27.44 27.19 25.71 25.79 26.78 27.06 27.26 27.51 27.77 28.19 28.63 28.82 29.02 29.27 29.48 29.58 29.67 29.80 30.02 30.25 30.47 30.75 31.43 32.54 33.32 33.94 33.96 34.13 33.79 31.81 32.42 32.49 32.45 32.48 32.66 32.77 32.80 32.55 32.39 32.31 33.07 32.79 32.79 32.94 33.07 33.20 33.13 33.15 33.23 33.19 32.91 32.87 33.00 33.02 33.06 33.22 33.49 33.70 33.86 34.83 33.91 33.64 33.80 33.79 33.71 34.13 34.21 34.15 34.32 34.45 34.66 34.46 34.47 34.53 34.47 34.37 34.34 34.37 34.50 34.43 34.47 34.76 35.18 35.21 34.99 35.13 35.04 35.04 34.98 35.18 35.22 35.22 35.34 35.56 35.67 35.63 35.59 35.63 35.53 35.57 35.62 35.55 35.62 35.83 35.94 36.10 36.23 36.13 35.95 35.30 33.98 33.24 32.92 33.63 34.45 34.38 33.49 33.23 32.96 32.12 32.23 35.04 36.45 36.64 36.81 37.04 37.03 37.30 37.47 37.71 37.91 38.06 38.28 38.31 38.39 38.40 38.15 38.39 38.70 38.87 39.05 39.27 39.46 39.68 39.76 39.94 40.15 40.27 40.42 40.48 40.63 40.79 40.90 40.92 41.07 41.18 41.31 41.51 41.71 41.87 42.04 42.23 42.37 42.37 42.48 42.60 42.72 42.77 42.78 42.87 42.93 43.09 43.20 43.17 43.31 43.38 43.53 43.49 43.53 43.32 42.72 42.36 42.80 43.87 44.36 44.81 45.50 46.23 46.85 47.37 47.89 47.69 46.17 45.86 46.58 46.75 46.93 47.04 47.37 47.42 47.50 47.66 47.88 48.05 48.09 48.19 48.35 48.45 48.62 48.68 48.75 48.88 48.82 49.00 49.17 49.19 49.10 49.21 49.31 49.40 49.49 49.62 49.71 49.75 49.68 49.59 49.65 49.63 49.52 49.44 49.68 50.00 50.18 50.14 50.19 50.05 49.98 50.02 49.55 49.66 49.96 50.47 50.67 50.62 50.48 50.25 50.07 49.82 50.13 50.20 50.22 50.17 49.90 49.69 50.14 49.83 50.08 50.56 50.53 50.33 50.49 50.91 50.82 50.45 50.24 50.78 51.11 51.48 51.35 51.21 51.42 51.82 51.83 52.24 52.82 53.03 53.22 53.26 53.38 53.69 53.96 54.25 54.48 54.80 55.06 55.36 55.56 55.79 56.13 56.32 56.57 56.86 57.15 57.38 57.46 57.46 57.42 57.34 57.36 57.28 57.32 57.35 57.45 57.37 57.07 56.74 56.82 56.67 56.76 56.97 56.89 56.77 56.79 57.60 57.91 56.50 55.82 53.83 49.06 46.14 50.02 52.69 53.64 54.80 55.76 56.57 57.99 58.65 59.06 59.72 60.15 60.60 61.18 61.68 61.89 62.05 62.38 62.84 62.95 63.25 63.62 64.23 64.75 65.00 65.79
26.90 26.88 26.74 26.81 26.68 26.63 26.59 26.56 26.54 26.50 26.55 26.49 26.44 26.42 26.41 26.39 26.27 26.27 26.27 26.18 26.25 26.29 26.07 25.69 22.99 22.51 24.47 25.68 26.08 25.95 25.87 25.58 25.14 25.63 26.66 26.55 25.20 23.72 23.51 24.51 25.30 23.88 20.97 18.36 12.93 11.96 12.64 15.04 19.78 23.32 25.85 26.62 27.10 27.21 27.74 27.87 27.24 26.53 25.49 26.37 26.66 27.16 27.48 27.73 28.09 28.52 28.88 29.04 29.23 29.56 29.68 29.83 29.93 30.06 30.31 30.59 30.73 31.36 31.98 32.83 33.63 33.62 33.30 32.95 32.51 32.42 32.43 32.40 32.44 32.57 32.76 32.92 32.81 32.65 32.51 32.62 32.73 32.97 33.17 33.20 33.21 33.23 33.37 33.28 33.18 33.03 32.94 33.03 33.01 33.13 33.33 33.44 33.48 33.67 34.27 33.71 33.59 33.75 33.96 33.83 33.71 34.23 34.31 34.38 34.54 34.81 34.67 34.75 34.76 34.51 34.46 34.37 34.47 34.55 34.67 34.74 35.19 35.32 35.18 35.12 35.25 35.25 35.25 35.25 35.30 35.29 35.40 35.47 35.58 35.73 35.73 35.79 35.79 35.78 35.69 35.68 35.74 35.63 35.89 36.10 36.10 36.23 36.01 35.76 35.33 34.85 34.48 33.28 32.87 33.39 33.34 33.42 33.57 33.73 33.36 31.93 32.97 35.42 36.55 36.83 37.02 37.02 37.22 37.35 37.77 38.11 38.19 38.38 38.50 38.54 38.47 38.30 38.61 38.76 38.99 39.15 39.25 39.42 39.70 39.83 39.96 40.19 40.35 40.46 40.55 40.75 40.89 40.99 41.14 41.33 41.36 41.40 41.70 41.83 41.82 42.12 42.25 42.34 42.46 42.61 42.75 42.90 43.07 43.09 43.14 43.18 43.22 43.19 43.37 43.49 43.74 43.91 43.74 43.81 43.85 43.67 43.57 43.24 43.64 43.98 44.01 44.03 45.24 45.81 46.45 46.54 46.85 46.24 46.63 46.47 46.55 46.99 47.14 47.42 47.43 47.54 47.72 47.88 48.01 48.11 48.24 48.41 48.44 48.59 48.68 48.78 48.87 48.87 48.96 49.12 49.22 49.29 49.38 49.46 49.49 49.63 49.71 49.83 49.97 49.98 49.92 50.02 50.00 49.84 49.77 49.84 49.96 50.12 50.23 50.42 50.23 50.19 50.28 49.99 49.83 50.21 50.56 50.60 50.64 50.57 50.43 50.29 50.13 50.44 50.51 50.51 50.49 50.16 49.99 50.36 50.17 50.28 50.80 50.73 50.49 50.64 50.98 51.06 50.94 50.65 50.62 50.94 51.46 51.68 51.62 51.73 51.98 52.06 52.24 52.65 53.24 53.64 53.61 53.68 53.70 53.88 54.17 54.34 54.58 54.89 55.32 55.67 55.87 56.14 56.36 56.48 56.78 57.15 57.39 57.43 57.43 57.39 57.33 57.38 57.39 57.40 57.45 57.36 57.09 56.94 56.89 56.97 57.05 57.30 57.32 57.06 57.06 57.04 57.86 58.94 57.64 56.57 55.17 50.94 46.34 49.57 52.38 53.44 54.01 54.94 55.89 57.05 57.83 58.32 59.54 60.24 60.78 61.15 61.23 61.39 61.29 61.90 62.42 62.69 63.08 63.57 64.35 64.82 65.27 65.87
27.11 26.95 26.90 26.93 26.89 26.72 26.69 26.60 26.62 26.68 26.59 26.52 26.43 26.41 26.44 26.56 26.43 26.29 26.29 26.37 26.37 26.25 25.96 25.66 23.14 22.09 24.46 25.85 26.27 26.47 26.44 26.34 26.15 26.08 26.17 26.14 25.55 24.18 23.48 23.94 25.08 25.29 22.38 19.41 13.43 12.42 14.18 18.24 20.06 21.99 24.04 25.90 26.59 26.79 27.28 27.85 27.28 26.96 26.04 25.76 26.69 27.30 27.51 27.85 28.21 28.54 28.82 29.10 29.17 29.50 29.68 29.76 29.98 30.15 30.26 30.41 30.72 31.33 31.81 32.19 32.53 32.46 32.35 32.25 32.22 32.26 32.29 32.44 32.47 32.60 32.85 32.91 32.78 32.61 32.57 32.83 32.95 33.07 33.27 33.35 33.25 33.28 33.40 33.18 33.13 33.10 33.07 33.09 33.06 33.20 33.39 33.45 33.42 33.56 34.26 33.91 33.75 33.75 34.02 34.12 34.11 34.23 34.29 34.34 34.56 34.75 34.74 34.78 34.74 34.52 34.56 34.75 34.79 34.77 34.84 35.11 35.41 35.33 35.39 35.39 35.38 35.43 35.43 35.33 35.41 35.46 35.60 35.74 35.75 35.83 35.90 35.90 35.96 35.94 35.89 35.88 35.93 35.89 35.99 36.20 36.31 36.30 36.09 35.90 35.39 35.37 35.14 34.08 33.21 32.79 32.71 33.49 33.76 34.11 33.50 31.75 32.29 33.70 35.10 36.00 36.63 36.89 37.22 37.47 37.86 38.22 38.44 38.62 38.75 38.75 38.71 38.32 38.71 38.76 38.97 39.26 39.47 39.60 39.88 39.97 40.06 40.19 40.41 40.56 40.73 40.89 40.99 41.14 41.19 41.28 41.40 41.49 41.74 41.95 41.93 42.13 42.38 42.53 42.62 42.82 42.93 43.04 43.29 43.27 43.25 43.36 43.55 43.49 43.57 43.70 43.84 43.93 43.96 44.02 44.07 43.97 43.87 44.11 44.10 44.10 43.99 43.63 44.01 44.71 45.22 45.89 46.69 47.64 47.29 46.58 46.69 47.22 47.34 47.53 47.60 47.75 47.91 48.01 48.07 48.28 48.39 48.49 48.60 48.70 48.81 48.91 49.06 49.14 49.14 49.29 49.34 49.45 49.64 49.64 49.69 49.75 49.75 49.95 50.11 50.23 50.24 50.19 50.11 50.06 50.02 49.87 49.96 50.28 50.35 50.56 50.47 50.45 50.38 50.13 50.21 50.48 50.62 50.74 50.81 50.76 50.78 50.63 50.40 50.76 50.88 50.73 50.61 50.37 50.29 50.56 50.34 50.33 50.88 50.91 50.57 50.82 51.05 51.20 51.21 51.05 50.75 51.00 51.32 51.79 51.94 51.98 52.01 52.11 52.26 52.45 52.78 53.31 53.69 53.79 53.92 54.01 54.14 54.44 54.67 54.94 55.29 55.61 55.93 56.22 56.40 56.64 56.82 57.13 57.39 57.43 57.45 57.51 57.43 57.37 57.41 57.46 57.52 57.43 57.35 57.33 57.37 57.22 57.24 57.55 57.95 57.72 57.51 57.41 57.67 57.89 56.79 56.22 54.80 51.93 46.41 48.19 51.19 52.66 53.21 53.92 54.90 55.80 56.82 57.86 58.67 59.49 60.15 60.37 60.06 60.07 59.85 60.92 62.03 62.58 63.03 63.45 64.20 64.70 65.23 65.81
27.01 27.07 27.05 27.08 26.99 26.84 26.82 26.68 26.55 26.68 26.61 26.63 26.53 26.58 26.47 26.57 26.64 26.44 26.38 26.46 26.43 26.32 25.99 25.15 23.46 22.26 24.23 25.34 25.59 26.37 26.56 26.40 26.26 26.26 26.19 26.17 25.79 24.80 23.79 24.04 25.15 26.13 24.42 19.71 13.17 12.78 15.81 18.63 19.86 20.54 22.45 25.24 25.44 25.54 26.73 26.87 27.18 27.22 26.74 26.18 26.21 27.17 27.62 27.97 28.25 28.42 28.58 28.83 29.18 29.45 29.61 29.68 29.97 30.17 30.27 30.44 30.81 31.09 31.51 31.95 32.16 32.22 32.11 32.11 32.20 32.28 32.41 32.52 32.60 32.74 32.89 32.85 32.77 32.69 32.69 32.96 33.13 33.24 33.32 33.45 33.41 33.43 33.42 33.31 33.25 33.10 33.13 33.23 33.34 33.37 33.41 33.55 33.57 33.68 34.11 34.06 33.91 34.03 34.37 34.19 34.08 34.09 34.35 34.40 34.43 34.66 34.92 34.79 34.91 34.84 34.86 35.01 34.88 34.79 35.10 35.48 35.38 35.48 35.56 35.52 35.59 35.53 35.54 35.56 35.65 35.77 35.86 35.83 35.85 36.00 36.07 36.05 36.13 36.05 36.05 36.01 36.04 35.95 36.04 36.24 36.37 36.34 36.07 35.98 35.89 35.96 35.38 34.58 34.21 33.33 32.98 33.28 33.69 34.07 33.87 32.41 32.72 33.47 34.50 36.28 37.14 37.19 37.32 37.60 37.98 38.27 38.52 38.71 38.83 38.92 39.20 38.81 38.69 39.11 39.28 39.51 39.62 39.74 39.94 40.11 40.22 40.34 40.55 40.82 40.93 41.02 41.08 41.16 41.28 41.43 41.55 41.71 41.96 42.18 42.22 42.26 42.55 42.83 42.92 43.00 43.10 43.23 43.31 43.36 43.48 43.49 43.63 43.63 43.70 43.81 43.96 43.96 44.01 44.17 44.37 43.77 44.00 44.19 44.19 44.25 44.14 44.04 44.65 45.17 46.29 46.62 45.95 46.39 47.10 46.71 46.32 46.76 47.43 47.65 47.78 48.10 48.10 48.15 48.26 48.44 48.54 48.55 48.71 48.87 49.05 49.13 49.24 49.31 49.38 49.46 49.57 49.75 49.93 49.98 49.97 49.95 49.99 50.08 50.23 50.43 50.53 50.55 50.49 50.35 50.17 50.01 50.06 50.26 50.45 50.63 50.50 50.62 50.46 50.42 50.36 50.55 50.70 50.87 50.93 50.98 51.04 50.89 50.45 50.80 51.10 51.04 50.89 50.61 50.59 50.74 50.49 50.60 51.08 51.18 50.80 51.03 51.17 51.31 51.47 51.31 51.13 51.10 51.26 51.66 52.12 52.22 52.19 52.35 52.53 52.65 52.81 52.93 53.48 53.87 54.21 54.18 54.24 54.52 54.79 55.01 55.24 55.55 55.92 56.12 56.42 56.78 56.96 57.11 57.24 57.40 57.46 57.47 57.42 57.42 57.44 57.53 57.55 57.54 57.60 57.53 57.74 57.38 57.40 57.84 58.31 58.21 57.92 57.62 57.25 56.19 55.39 54.54 52.53 51.43 48.34 46.38 47.93 50.42 52.05 52.99 54.22 55.62 56.47 57.18 57.79 58.68 59.45 59.29 58.72 58.90 58.97 60.41 61.64 62.52 62.92 63.32 64.00 64.61 65.20 65.86
26.87 27.03 27.13 27.16 27.04 26.97 26.90 26.84 26.75 26.68 26.78 26.70 26.70 26.74 26.63 26.64 26.74 26.85 26.56 26.40 26.15 26.01 25.76 25.25 24.05 23.41 23.64 25.35 25.75 26.22 26.47 26.58 26.47 26.52 26.48 26.33 25.96 25.39 24.16 24.25 25.34 26.19 26.11 20.85 12.99 13.12 15.59 18.16 18.58 19.32 21.58 24.02 23.51 24.13 24.97 25.66 27.02 27.32 27.20 26.90 26.25 26.45 27.44 27.86 28.12 28.20 28.47 28.71 29.19 29.53 29.64 29.73 30.02 30.20 30.38 30.48 30.58 30.95 31.40 31.80 31.95 31.87 31.84 31.96 32.11 32.29 32.57 32.66 32.69 32.88 32.96 32.88 32.78 32.79 32.87 33.41 33.28 33.38 33.50 33.55 33.56 33.46 33.39 33.34 33.24 33.13 33.20 33.42 33.55 33.50 33.54 33.62 33.69 33.80 33.72 34.49 34.01 34.15 34.27 34.17 34.30 34.46 34.26 34.31 34.37 34.58 34.56 34.90 35.08 35.02 34.91 34.91 34.80 34.94 35.45 35.43 35.51 35.68 35.74 35.74 35.66 35.69 35.80 35.86 35.88 35.92 35.99 36.00 36.10 36.20 36.23 36.21 36.28 36.25 36.25 36.08 36.10 36.01 36.03 36.27 36.37 36.53 36.38 36.20 36.26 36.30 35.91 35.62 35.47 34.52 33.35 33.11 33.44 33.77 33.96 32.85 32.82 33.78 34.55 36.38 37.25 37.47 37.54 37.77 38.04 38.30 38.55 38.72 38.89 39.08 39.22 39.03 38.89 39.17 39.43 39.61 39.69 39.85 39.99 40.11 40.31 40.51 41.01 40.96 41.12 41.25 41.18 41.28 41.38 41.52 41.84 41.97 42.03 42.25 42.58 42.67 42.65 42.83 42.84 43.02 43.27 43.51 43.53 43.49 43.66 43.72 43.76 43.79 43.83 43.96 44.08 44.04 43.97 44.18 44.45 43.97 44.13 44.29 44.51 44.50 44.30 44.50 44.95 45.27 46.83 47.02 45.84 45.29 46.04 46.59 46.55 46.94 47.38 47.62 48.03 48.10 48.06 48.24 48.37 48.52 48.78 48.83 48.87 49.01 49.23 49.30 49.46 49.53 49.62 49.79 49.90 50.03 50.16 50.17 50.14 50.26 50.42 50.42 50.54 50.67 50.72 50.87 50.79 50.63 50.43 50.12 50.14 50.33 50.63 50.83 50.70 50.69 50.62 50.64 50.59 50.67 50.85 51.07 51.20 51.27 51.26 51.02 50.76 50.96 51.35 51.34 50.96 50.73 50.84 50.98 50.58 50.94 51.35 51.29 51.02 51.27 51.53 51.44 51.67 51.60 51.41 51.48 51.37 51.74 52.20 52.44 52.50 52.55 52.71 52.86 52.99 52.90 53.41 53.87 53.99 54.11 54.39 54.57 54.86 55.13 55.28 55.53 55.87 56.13 56.45 56.81 56.99 57.11 57.23 57.41 57.53 57.45 57.41 57.38 57.34 57.54 57.63 57.61 57.69 57.71 57.64 57.61 57.72 58.13 58.52 58.32 57.91 57.43 56.97 55.39 54.11 53.96 53.26 53.19 51.93 48.95 48.00 48.29 49.54 51.60 54.12 55.97 55.78 56.19 57.07 58.12 58.37 57.77 57.94 58.44 59.12 60.04 61.13 61.98 62.70 63.26 63.94 64.37 64.98 65.63
27.05 27.12 27.11 27.12 27.11 27.02 26.98 26.90 26.81 26.94 27.11 26.79 26.74 26.78 26.69 26.77 27.02 26.95 26.21 25.83 25.27 25.06 25.34 25.40 25.37 25.02 23.52 25.37 26.11 26.43 26.63 26.74 26.68 26.72 26.77 26.61 26.13 25.73 24.49 24.55 25.62 26.33 26.53 20.99 12.54 13.51 16.53 17.10 17.90 18.57 20.23 21.13 23.60 25.71 26.19 26.96 27.60 27.62 27.60 27.34 26.78 26.26 27.60 28.10 28.22 28.35 28.61 28.75 29.13 29.44 29.63 29.75 29.99 30.22 30.39 30.51 30.52 30.73 31.12 31.26 31.56 31.62 31.76 31.95 32.17 32.38 32.51 32.64 32.83 33.03 33.21 33.10 32.95 32.89 32.97 34.77 33.86 33.58 33.66 33.60 33.55 33.45 33.23 33.16 33.16 33.29 33.30 33.54 33.68 33.66 33.57 33.69 33.90 34.06 34.28 34.46 34.07 34.36 34.26 34.20 34.36 34.64 34.38 34.43 34.53 34.76 34.88 35.04 34.93 34.89 34.90 34.82 34.89 35.39 35.45 35.46 35.67 35.81 35.89 35.88 35.81 35.88 35.99 35.98 36.06 36.04 36.08 36.14 36.24 36.33 36.40 36.36 36.38 36.40 36.31 36.21 36.19 36.19 36.18 36.35 36.46 36.49 36.51 36.37 36.43 36.44 36.20 36.06 35.95 35.22 33.86 33.31 33.30 33.68 33.79 33.33 32.43 33.62 34.64 36.42 37.35 37.51 37.60 37.75 38.05 38.29 38.62 38.85 39.08 39.16 39.28 39.34 39.26 39.55 39.48 39.54 39.74 39.89 40.05 40.20 40.38 40.60 40.92 41.00 41.13 41.30 41.42 41.46 41.54 41.54 41.99 41.91 42.16 42.43 42.65 42.71 42.82 42.92 42.93 43.07 43.39 43.68 43.72 43.70 43.86 43.90 43.95 44.03 44.06 44.04 43.98 44.07 44.17 44.55 44.62 44.23 44.49 44.41 44.78 44.70 44.55 44.78 45.16 45.62 46.19 46.07 46.06 45.85 45.69 46.48 46.77 46.92 47.17 47.52 47.74 47.95 48.17 48.32 48.46 48.69 48.85 48.98 48.97 49.19 49.51 49.45 49.56 49.78 49.82 50.03 50.17 50.24 50.28 50.36 50.45 50.46 50.53 50.56 50.80 50.86 50.99 51.12 50.94 50.92 50.63 50.38 50.60 50.77 50.88 50.99 50.89 50.72 50.73 50.78 50.69 50.90 51.01 51.25 51.46 51.60 51.55 51.32 50.98 51.17 51.65 51.62 51.17 50.94 51.10 51.22 50.92 51.17 51.43 51.53 51.26 51.39 51.79 51.71 51.88 51.89 51.61 51.74 51.64 51.82 52.38 52.64 52.83 52.83 53.03 53.11 53.16 53.17 53.08 53.43 53.85 54.14 54.47 54.68 54.93 55.30 55.50 55.62 55.99 56.24 56.56 56.81 56.93 57.14 57.24 57.35 57.54 57.52 57.44 57.53 57.46 57.57 57.62 57.75 57.88 57.80 57.84 57.97 58.08 58.47 58.76 58.39 57.82 57.13 56.27 55.33 54.19 56.76 55.52 54.05 53.21 51.78 50.34 50.36 49.04 49.67 53.28 55.14 54.48 55.30 55.41 56.60 56.87 57.06 58.30 58.99 59.85 60.78 61.48 61.87 62.66 63.38 64.14 64.55 65.05 65.55
27.14 27.07 27.06 27.08 27.17 27.17 27.09 27.06 26.92 26.88 27.07 27.01 27.02 27.26 27.53 27.57 27.53 26.59 25.85 26.15 25.88 25.58 26.08 26.16 25.96 25.17 23.67 24.84 25.75 26.38 26.68 26.78 26.85 26.82 26.89 26.74 26.27 25.78 24.97 25.06 26.21 26.56 26.62 20.13 12.43 13.84 17.05 19.13 19.95 19.09 20.05 20.93 23.48 25.75 26.86 27.60 27.95 27.95 27.71 27.58 27.52 27.68 27.92 28.37 28.53 28.61 28.77 28.87 28.79 29.02 29.32 29.60 29.78 30.06 30.32 30.46 30.51 30.70 31.06 31.12 31.22 31.53 31.93 32.15 32.30 32.46 32.51 32.82 33.14 33.17 33.32 33.35 33.20 33.07 33.11 33.24 33.27 33.56 33.59 33.60 33.34 33.25 33.29 33.09 33.14 33.33 33.27 33.47 33.73 33.75 33.70 33.86 33.97 34.07 34.34 34.49 34.26 34.38 34.32 34.26 33.88 34.58 34.38 34.43 34.49 34.61 34.80 34.82 34.79 34.78 34.92 35.09 35.00 35.19 35.40 35.60 35.73 35.86 35.99 36.03 36.07 36.05 36.16 36.13 36.17 36.19 36.17 36.30 36.41 36.46 36.51 36.53 36.60 36.62 36.45 36.41 36.34 36.29 36.23 36.39 36.52 36.57 36.64 36.57 36.55 36.50 36.42 36.43 36.04 35.35 34.65 33.83 33.39 33.57 33.72 33.54 32.40 32.83 34.93 36.72 37.16 37.17 37.09 37.44 37.99 38.30 38.62 38.83 39.17 39.25 39.41 39.54 39.59 39.89 39.67 39.61 39.82 39.91 40.18 40.37 40.56 40.72 40.85 40.95 41.17 41.21 41.40 41.47 41.60 41.69 42.11 42.24 42.32 42.57 42.76 42.88 43.05 43.05 43.00 43.13 43.39 43.69 43.86 43.95 43.96 44.08 44.16 44.14 44.24 44.24 44.40 44.60 44.79 44.80 44.53 44.39 44.58 44.51 44.72 44.98 44.87 45.08 45.28 45.66 45.87 45.92 46.22 46.28 45.73 46.33 46.64 46.90 47.23 47.50 47.69 47.87 48.14 48.26 48.56 48.80 48.94 49.06 49.09 49.29 49.51 49.65 49.81 49.95 50.04 50.26 50.51 50.60 50.63 50.63 50.76 50.80 50.74 50.77 51.02 51.13 51.29 51.37 51.27 51.11 50.96 50.86 50.95 50.99 51.14 51.11 51.01 50.89 50.84 51.06 50.99 51.11 51.22 51.43 51.62 51.85 51.82 51.59 51.25 51.35 51.81 51.74 51.46 51.23 51.39 51.46 51.12 51.23 51.59 51.69 51.61 51.60 51.89 51.95 52.11 52.04 51.77 52.00 51.98 51.98 52.56 52.88 52.98 53.14 53.32 53.40 53.49 53.57 53.57 53.48 53.87 53.98 54.41 54.75 54.96 55.26 55.63 55.92 56.22 56.41 56.59 56.91 57.06 57.17 57.27 57.30 57.46 57.46 57.41 57.62 57.59 57.54 57.66 57.93 58.06 58.02 58.03 58.17 58.28 58.55 58.73 58.38 57.84 57.02 56.20 55.10 54.52 56.15 56.48 55.27 54.46 53.36 52.00 51.41 50.81 49.12 51.37 52.90 53.81 55.53 55.25 56.18 57.16 58.07 59.17 59.82 60.71 61.53 62.16 62.44 63.11 63.69 64.29 64.68 65.01 65.27
27.24 27.09 27.15 27.15 27.25 27.29 27.18 27.12 27.13 26.99 27.03 27.41 27.65 28.27 28.64 28.29 27.47 26.80 26.12 26.41 26.51 26.24 26.29 26.34 25.60 23.81 24.28 24.87 25.28 26.08 26.47 26.67 26.78 26.93 26.90 26.85 26.47 25.80 25.24 25.55 26.53 26.82 26.70 18.87 12.47 14.07 17.51 20.47 21.21 20.21 18.40 19.21 23.65 26.54 27.37 27.75 27.77 27.87 27.83 27.70 27.61 27.77 28.21 28.43 28.48 28.62 28.96 29.16 29.16 29.25 29.46 29.71 29.70 29.86 30.16 30.33 30.47 30.63 30.83 31.05 31.21 31.57 31.88 32.31 32.58 32.84 32.96 33.18 33.43 33.41 33.50 33.79 33.58 33.43 33.49 33.48 33.47 33.62 33.66 33.50 33.30 33.24 33.28 33.16 33.31 33.38 33.60 33.66 33.77 33.85 33.94 34.02 34.06 34.13 34.38 34.70 34.42 34.33 34.34 34.37 34.27 34.43 34.47 34.48 34.57 34.70 34.74 34.79 34.90 34.96 35.08 35.34 35.11 35.13 35.40 35.65 35.82 35.90 36.07 36.18 36.24 36.20 36.34 36.35 36.39 36.39 36.41 36.42 36.51 36.60 36.71 36.72 36.71 36.68 36.63 36.63 36.51 36.23 36.26 36.48 36.61 36.74 36.69 36.63 36.72 36.68 36.71 36.67 36.44 35.95 35.95 35.51 34.15 33.58 33.62 33.80 33.51 32.13 33.20 34.98 34.72 35.16 35.89 37.15 37.90 38.20 38.40 38.74 39.08 39.29 39.48 39.58 39.72 39.71 39.73 39.82 40.03 39.99 40.17 40.43 40.63 40.85 40.90 40.95 41.17 41.26 41.35 41.49 41.67 41.82 41.99 42.23 42.45 42.66 42.79 43.04 43.21 43.22 43.16 43.20 43.52 43.73 43.93 44.05 44.07 44.21 44.34 44.39 44.41 44.64 44.75 44.74 44.74 44.72 44.58 44.57 44.77 44.89 44.80 45.16 45.14 45.37 45.56 45.85 46.00 45.95 46.15 46.41 46.13 46.21 46.69 46.87 47.25 47.53 47.82 47.96 48.17 48.32 48.52 48.86 49.14 49.21 49.27 49.49 49.59 49.77 49.88 50.12 50.33 50.61 50.81 50.89 50.97 51.03 51.03 51.12 51.10 51.00 51.28 51.35 51.55 51.66 51.52 51.26 51.16 50.92 50.92 51.09 51.20 51.19 51.14 51.10 51.10 51.21 51.24 51.37 51.49 51.70 51.84 51.97 51.99 51.85 51.49 51.52 51.92 51.84 51.72 51.42 51.57 51.56 51.28 51.46 51.84 51.95 51.92 52.04 52.01 52.15 52.28 52.18 52.11 52.28 52.38 52.35 52.52 52.70 52.83 53.06 53.39 53.59 53.68 53.81 53.99 54.12 54.18 54.08 54.29 54.69 55.00 55.30 55.59 55.93 56.30 56.49 56.75 57.01 57.16 57.25 57.34 57.27 57.47 57.49 57.46 57.57 57.65 57.71 57.81 58.00 58.19 58.21 58.16 58.32 58.55 58.68 58.53 58.18 58.07 57.59 56.86 56.61 55.72 56.37 57.00 56.50 56.07 54.79 53.24 52.37 51.57 49.88 49.70 51.61 53.45 55.76 56.44 57.46 57.90 58.35 59.50 60.35 61.25 61.80 62.50 62.74 63.16 63.61 64.06 64.42 64.64 64.77
27.37 27.21 27.25 27.38 27.51 27.52 27.44 27.46 27.31 27.17 27.08 27.04 27.27 28.23 28.59 28.25 28.54 27.59 26.60 26.68 26.76 26.64 26.49 26.21 25.32 24.41 25.30 25.77 25.71 25.93 26.22 26.62 26.84 27.01 26.96 26.89 26.64 26.01 25.50 25.64 26.52 26.92 26.90 19.22 12.49 14.18 17.75 20.45 21.56 22.03 21.10 18.39 19.33 22.97 26.65 27.31 26.96 27.62 27.80 27.81 27.78 27.88 28.04 28.14 28.41 28.57 28.87 29.28 29.38 29.42 29.50 29.69 29.87 29.88 29.95 30.19 30.37 30.55 30.63 30.85 31.16 31.51 31.76 32.15 32.51 32.85 33.20 33.32 33.57 33.63 33.68 34.00 34.04 33.91 33.82 33.82 33.86 33.87 33.75 33.36 33.27 33.22 33.18 33.18 33.41 33.64 33.76 33.64 33.73 33.84 34.02 34.10 34.13 34.18 34.63 34.96 34.43 34.43 34.43 34.43 34.44 34.43 34.52 34.42 34.61 34.80 34.83 35.26 35.07 35.17 35.37 35.50 35.18 35.17 35.29 35.48 35.70 35.93 36.08 36.23 36.26 36.36 36.49 36.44 36.58 36.57 36.61 36.52 36.62 36.74 36.75 36.74 36.81 36.83 36.74 36.80 36.66 36.30 36.37 36.63 36.81 36.94 36.93 36.92 37.01 36.91 36.95 36.90 36.76 36.47 36.65 36.69 35.64 34.39 33.95 33.83 33.96 33.01 32.48 32.59 32.94 33.78 34.62 36.47 37.58 37.67 38.13 38.64 39.02 39.28 39.47 39.59 39.81 39.83 39.85 40.02 40.09 40.09 40.16 40.32 40.61 40.86 40.99 41.09 41.17 41.25 41.39 41.49 41.56 41.78 41.91 42.15 42.48 42.74 42.95 43.17 43.31 43.31 43.36 43.40 43.61 43.85 44.11 44.17 44.28 44.41 44.54 44.54 44.52 44.60 44.63 44.67 44.82 44.82 45.02 44.97 44.90 45.08 45.05 45.04 45.34 45.99 46.21 46.37 46.43 46.38 46.37 46.60 46.58 46.39 46.74 46.89 47.19 47.62 47.93 48.13 48.28 48.53 48.66 48.79 49.13 49.34 49.47 49.65 49.77 50.06 50.13 50.30 50.60 50.82 51.02 51.20 51.40 51.45 51.32 51.43 51.25 51.16 51.56 51.63 51.77 51.86 51.70 51.49 51.32 51.26 51.07 51.35 51.37 51.32 51.24 51.27 51.30 51.50 51.55 51.71 51.81 51.94 52.16 52.22 52.16 52.04 51.84 51.78 52.08 52.19 51.97 51.73 51.83 51.81 51.55 51.65 51.88 52.02 52.18 52.23 52.17 52.50 52.57 52.31 52.20 52.40 52.63 52.73 52.86 52.85 53.00 53.10 53.46 53.83 53.84 54.08 54.28 54.59 54.59 54.35 54.37 54.66 55.06 55.41 55.67 55.80 56.21 56.54 56.81 56.98 57.19 57.31 57.40 57.46 57.50 57.63 57.58 57.55 57.71 57.95 58.02 58.14 58.33 58.31 58.36 58.47 58.64 58.85 58.95 58.93 58.52 58.17 57.33 57.15 57.05 56.88 57.10 57.38 57.97 56.19 54.01 53.04 52.13 50.40 49.71 51.69 53.67 55.31 56.63 58.13 58.72 59.10 59.59 60.35 61.00 61.46 62.12 62.52 62.88 63.34 63.71 63.97 64.07 64.21
27.57 27.55 27.53 27.65 27.73 27.56 27.43 27.39 27.32 27.22 27.16 27.09 27.21 28.22 28.64 28.59 28.66 28.10 27.01 26.85 26.78 26.88 26.77 25.62 24.24 25.21 25.50 26.06 26.26 26.14 26.14 26.72 26.88 27.03 27.04 27.05 26.93 26.52 26.09 25.57 26.43 26.89 27.00 19.83 12.28 14.09 17.80 20.23 21.40 21.99 22.53 20.67 18.96 21.67 25.27 25.78 26.38 27.02 27.84 28.06 27.85 27.94 28.06 28.19 28.35 28.52 28.70 29.10 29.33 29.43 29.54 29.73 29.86 30.11 30.26 30.30 30.44 30.62 30.80 30.91 31.08 31.36 31.62 31.93 32.34 32.76 33.15 33.47 33.84 33.82 33.79 34.09 34.30 34.23 34.04 34.07 34.06 33.91 33.65 33.32 33.23 33.22 33.18 33.24 33.44 33.66 33.78 33.81 33.83 33.93 34.06 34.22 34.30 34.49 35.25 34.94 34.43 34.51 34.65 34.71 34.61 34.56 34.60 34.57 34.63 34.96 34.94 35.16 35.15 35.50 35.65 35.53 35.37 35.24 35.29 35.49 35.69 35.93 36.28 36.42 36.45 36.48 36.60 36.58 36.60 36.65 36.76 36.76 36.72 36.88 36.93 36.90 36.92 36.95 36.85 36.92 36.79 36.64 36.70 36.84 36.83 36.86 36.95 37.02 37.13 37.12 37.18 37.09 36.85 36.80 36.98 36.89 36.62 35.82 35.14 34.71 34.12 33.50 34.22 34.08 33.19 33.29 34.08 35.62 36.70 37.53 38.29 38.78 39.06 39.26 39.50 39.65 40.14 40.01 39.91 40.10 40.16 40.27 40.39 40.33 40.64 40.86 41.03 41.13 41.09 41.24 41.51 41.48 41.58 41.77 41.90 42.22 42.52 42.74 43.04 43.28 43.33 43.42 43.52 43.71 43.83 43.83 44.10 44.27 44.38 44.58 44.65 44.57 44.70 44.84 45.08 45.06 45.20 45.06 45.05 45.14 45.09 45.05 45.31 45.33 45.69 45.67 45.26 45.94 46.33 46.72 46.81 46.77 46.82 46.58 46.46 46.93 47.08 47.60 47.92 48.16 48.40 48.76 49.01 49.06 49.24 49.42 49.63 49.86 49.99 50.27 50.41 50.64 50.92 51.07 51.24 51.39 51.60 51.66 51.59 51.73 51.52 51.44 51.83 51.90 52.03 52.08 51.86 51.69 51.57 51.43 51.25 51.40 51.59 51.61 51.56 51.50 51.55 51.60 51.69 51.79 52.03 52.20 52.38 52.42 52.32 52.10 52.10 52.10 52.26 52.61 52.46 52.24 52.14 52.18 51.92 51.88 51.94 52.12 52.31 52.40 52.35 52.57 52.63 52.52 52.44 52.65 52.86 52.97 53.24 53.16 53.28 53.42 53.76 53.92 54.09 54.26 54.54 54.90 54.85 54.67 54.78 54.90 55.17 55.37 55.68 56.06 56.36 56.69 56.76 56.96 57.20 57.40 57.43 57.53 57.63 57.64 57.72 57.68 57.89 57.92 58.07 58.27 58.40 58.41 58.53 58.63 58.74 58.96 59.37 59.84 58.92 58.34 57.81 57.99 58.10 57.66 57.37 57.33 57.43 56.54 54.32 53.22 52.37 51.08 50.82 51.33 53.08 55.03 56.30 57.50 58.44 59.06 59.45 59.92 60.31 60.91 61.48 61.78 62.24 62.90 63.24 63.53 63.55 63.72
27.87 27.75 27.49 27.47 27.57 27.53 27.44 27.43 27.47 27.34 27.41 27.43 27.62 28.29 28.60 28.52 28.54 28.28 27.27 27.09 27.05 27.04 27.01 25.85 24.55 25.47 25.72 26.09 26.40 26.41 26.45 26.90 26.93 27.11 27.13 27.18 27.07 26.74 26.46 26.02 26.43 26.89 26.97 20.70 12.15 13.83 17.43 20.10 21.45 22.03 22.65 22.90 19.90 20.98 23.93 25.08 25.19 26.35 27.79 28.01 27.92 28.03 28.15 28.27 28.40 28.55 28.67 28.97 29.22 29.40 29.57 29.70 29.98 30.30 30.48 30.55 30.50 30.57 30.79 31.02 31.11 31.30 31.49 31.87 32.22 32.60 33.02 33.43 33.86 33.95 34.00 34.31 34.42 34.31 34.31 34.27 34.71 34.15 33.81 33.42 33.23 33.29 33.29 33.33 33.43 33.83 34.06 33.97 33.96 34.05 34.33 34.38 34.50 35.29 36.00 35.12 34.46 34.59 34.80 34.84 34.76 34.84 35.00 34.83 34.77 34.95 35.01 35.14 35.26 35.63 35.62 35.61 35.48 35.30 35.33 35.47 35.68 35.93 36.31 36.62 36.52 36.65 36.69 36.80 36.74 36.64 36.76 36.92 36.97 36.97 37.12 37.00 37.12 37.19 37.16 37.11 36.90 36.70 36.73 37.02 37.08 37.02 37.10 37.20 37.27 37.27 37.38 37.29 37.19 37.04 37.10 37.11 37.10 36.79 36.42 35.22 33.94 34.00 34.94 35.35 34.54 33.47 33.73 34.84 35.95 37.43 38.39 38.69 39.08 39.22 39.47 39.81 40.11 40.01 40.10 40.38 40.48 40.46 40.56 40.59 40.57 40.71 40.91 41.00 41.14 41.38 41.57 41.62 41.75 41.84 41.97 42.21 42.49 42.74 43.14 43.29 43.41 43.53 43.62 43.78 43.91 43.96 44.02 44.33 44.45 44.64 44.73 44.81 45.11 45.31 45.44 45.47 45.41 45.23 45.52 45.55 45.25 45.23 45.38 45.53 45.93 46.22 45.09 45.62 46.20 46.48 46.83 46.90 47.00 47.29 46.74 46.95 47.04 47.31 47.90 48.22 48.53 48.68 49.09 49.38 49.68 49.63 49.85 50.03 50.22 50.48 50.69 50.97 51.18 51.42 51.62 51.61 51.70 51.79 51.90 52.04 51.94 51.92 52.05 52.33 52.35 52.31 52.09 51.91 51.83 51.85 51.12 51.18 51.80 51.80 51.74 51.63 51.76 51.78 51.94 52.10 52.29 52.57 52.66 52.79 52.65 52.40 52.37 52.42 52.45 52.66 52.84 52.54 52.42 52.42 52.25 51.97 52.11 52.22 52.48 52.65 52.59 52.52 52.69 52.66 52.79 52.88 53.09 53.29 53.48 53.43 53.60 53.70 53.91 54.02 54.25 54.33 54.60 54.97 55.11 55.06 55.24 55.23 55.14 55.44 55.80 56.19 56.35 56.66 56.81 56.99 57.29 57.52 57.53 57.65 57.76 57.76 57.86 57.91 57.99 58.12 58.09 58.35 58.42 58.46 58.50 58.66 58.91 59.21 59.63 59.65 59.05 58.39 57.93 57.92 57.86 57.54 57.33 57.00 56.06 55.34 54.03 53.40 52.90 51.48 51.64 51.93 53.07 54.39 55.70 56.85 57.84 58.35 58.80 59.18 59.74 60.39 60.75 60.88 61.62 62.32 62.54 63.00 63.03 63.45
27.70 27.73 27.69 27.54 27.58 27.57 27.56 27.77 27.92 27.78 27.71 27.76 28.02 28.09 28.47 28.63 28.72 28.35 27.51 27.24 27.28 27.02 26.93 25.61 25.47 26.24 26.01 26.02 26.46 26.67 26.90 27.08 27.05 27.15 27.21 27.17 27.17 26.92 26.68 26.56 26.42 26.59 26.63 20.46 12.13 13.65 16.79 19.91 22.37 22.19 22.43 23.12 20.52 20.29 24.17 27.04 26.79 26.37 27.77 28.02 27.98 28.06 28.27 28.38 28.41 28.56 28.68 28.77 29.03 29.26 29.50 29.66 29.99 30.30 30.53 30.60 30.45 30.44 30.68 31.00 31.09 31.26 31.48 31.75 32.07 32.36 32.81 33.37 33.88 34.03 34.12 34.41 34.54 34.52 34.37 34.22 34.27 34.25 33.86 33.47 33.27 33.32 33.38 33.44 33.51 34.07 34.30 34.17 34.06 34.14 34.34 34.61 34.96 36.57 37.11 35.97 34.68 34.74 34.90 34.98 35.08 35.84 35.38 35.02 34.92 35.02 35.09 35.34 35.77 35.57 35.62 35.68 35.59 35.49 35.55 35.56 35.74 35.95 36.25 36.64 36.67 36.83 36.82 36.88 36.84 36.93 36.93 37.02 37.10 37.08 37.21 37.17 37.33 37.34 37.32 37.13 36.96 36.75 36.74 36.98 37.23 37.16 37.30 37.36 37.43 37.45 37.42 37.42 37.38 37.35 37.28 37.29 37.30 36.96 36.34 34.65 34.59 34.74 35.29 36.37 35.74 34.41 33.73 34.06 34.93 36.35 37.89 38.15 38.64 38.84 39.28 39.75 40.01 40.09 40.28 40.55 40.73 40.74 40.93 41.04 40.80 40.77 40.94 40.99 41.18 41.38 41.56 41.72 41.86 41.97 42.02 42.20 42.48 42.78 43.16 43.35 43.44 43.54 43.68 43.86 44.01 44.09 44.30 44.35 44.47 44.67 44.83 44.95 45.66 46.19 46.42 45.85 46.09 46.57 46.73 46.15 45.79 45.91 45.86 45.77 45.83 46.73 45.92 46.16 46.48 46.68 46.82 46.94 47.23 47.34 47.16 47.23 47.08 46.85 47.36 48.09 48.52 48.74 49.06 49.40 49.74 49.98 50.12 50.23 50.37 50.52 50.79 51.17 51.50 51.70 51.89 51.83 51.95 52.06 52.18 52.33 52.32 52.27 52.28 52.53 52.47 52.39 52.35 52.20 52.01 52.02 51.26 51.23 51.95 52.05 52.08 52.01 52.06 52.06 52.19 52.37 52.55 52.79 52.89 52.89 52.75 52.62 52.71 52.64 52.68 52.82 53.19 53.00 52.79 52.79 52.53 52.22 52.23 52.38 52.58 52.81 52.84 52.83 52.95 52.99 53.11 53.01 53.29 53.55 53.81 53.80 53.81 53.91 54.17 54.17 54.42 54.65 54.80 55.12 55.36 55.44 55.43 55.49 55.37 55.64 56.23 56.12 56.24 56.55 56.75 57.03 57.29 57.51 57.60 57.71 57.83 57.92 57.95 58.08 58.29 58.41 58.30 58.27 58.45 58.55 58.49 58.61 58.87 59.24 59.51 59.44 59.01 58.36 57.98 57.85 57.54 57.30 56.85 56.21 55.51 54.94 54.81 54.29 53.54 51.88 52.16 52.52 52.90 53.77 55.05 56.32 57.12 57.49 58.15 58.78 59.29 59.74 60.15 60.18 60.95 61.37 61.81 62.32 62.45 62.67
27.76 27.76 27.80 27.71 27.72 27.71 27.81 28.02 28.06 27.92 27.73 28.11 28.09 27.68 28.28 28.71 28.66 27.97 27.47 27.30 27.20 26.98 26.64 25.57 26.22 26.60 26.41 26.13 26.44 26.62 26.86 27.11 27.25 27.27 27.27 27.43 27.59 27.31 27.01 26.82 26.60 26.62 26.45 20.77 12.52 13.24 15.94 19.10 21.82 21.93 22.31 23.49 22.95 20.28 22.24 26.45 27.69 27.51 27.85 28.06 28.07 28.07 28.21 28.45 28.47 28.59 28.71 28.79 28.96 29.22 29.43 29.63 29.88 30.13 30.35 30.40 29.93 30.06 30.61 30.80 31.16 31.32 31.45 31.64 31.81 32.20 32.63 33.22 33.75 34.06 34.28 34.51 34.66 34.69 34.57 34.36 34.17 34.08 33.87 33.43 33.26 33.36 33.47 33.60 33.66 34.16 34.37 34.31 34.28 34.44 34.46 34.62 35.84 37.88 37.87 36.18 34.82 34.75 35.04 35.18 35.09 35.43 35.38 35.25 35.15 35.17 35.34 35.71 35.81 35.62 35.69 35.65 35.66 35.71 35.69 35.71 35.84 35.96 36.24 36.51 36.73 37.00 37.00 37.02 36.94 37.06 37.03 37.07 37.22 37.28 37.37 37.35 37.39 37.45 37.44 37.31 37.08 36.99 36.88 37.01 37.32 37.37 37.45 37.48 37.54 37.61 37.56 37.61 37.60 37.51 37.39 37.46 37.37 36.54 35.26 34.59 34.83 34.77 35.11 35.43 35.28 34.90 34.63 34.26 34.04 35.01 36.32 37.50 37.85 38.29 38.92 39.46 39.99 40.24 40.41 40.57 40.82 41.00 41.27 41.43 41.02 41.05 41.11 41.17 41.35 41.41 41.54 41.76 41.93 42.09 42.14 42.25 42.47 42.78 43.16 43.25 43.49 43.54 43.67 43.89 44.14 44.24 44.41 44.51 44.60 44.72 44.84 45.09 46.25 46.20 45.61 46.08 46.92 47.10 46.90 46.77 47.03 46.29 45.89 45.97 45.82 46.62 46.46 46.44 46.62 46.86 46.96 47.16 47.24 47.40 47.28 47.49 47.58 47.15 47.33 48.00 48.42 48.61 49.00 49.27 49.58 49.82 49.98 50.16 50.46 50.71 51.01 51.29 51.62 51.80 52.02 52.12 52.25 52.36 52.50 52.57 52.61 52.65 52.61 52.71 52.63 52.46 52.51 52.48 52.27 52.12 52.08 51.90 52.12 52.33 52.27 52.30 52.37 52.24 52.34 52.58 52.78 52.91 52.97 53.18 52.95 52.75 52.83 52.89 52.88 52.85 53.21 53.42 53.18 53.05 52.69 52.44 52.44 52.56 52.83 53.02 53.04 53.01 53.00 53.04 53.16 53.28 53.38 53.73 53.95 54.11 54.18 54.22 54.45 54.41 54.59 54.73 54.95 55.27 55.55 55.70 55.76 55.79 55.82 55.82 55.96 56.06 56.31 56.51 56.83 57.06 57.35 57.57 57.68 57.80 57.83 57.97 57.99 58.11 58.30 58.38 58.37 58.34 58.49 58.54 58.57 58.69 58.79 58.96 59.20 59.10 58.75 58.22 57.97 57.78 57.44 57.11 56.48 56.25 56.23 56.02 55.87 55.09 54.05 51.95 52.13 52.93 53.03 53.63 54.55 55.67 56.30 56.87 57.89 58.40 58.89 59.29 59.68 58.91 59.94 60.15 60.69 61.18 61.58 62.14
27.92 27.82 27.85 27.86 27.91 27.78 27.82 27.85 27.74 27.61 27.72 27.98 28.20 27.72 27.66 27.52 27.41 27.33 27.23 27.30 27.13 26.87 27.03 26.70 26.32 26.86 26.82 26.46 26.43 26.61 26.87 27.12 27.29 27.39 27.52 27.64 27.66 27.45 27.29 27.07 26.72 26.68 25.22 20.12 13.34 12.86 14.87 18.02 20.82 21.81 22.27 23.51 24.26 21.50 20.76 24.65 27.51 27.92 28.06 28.22 28.23 28.09 28.21 28.32 28.40 28.57 28.73 28.74 28.91 29.14 29.33 29.50 29.72 30.03 30.24 29.51 28.14 28.94 29.25 30.07 31.04 31.18 31.33 31.45 31.60 32.03 32.47 32.98 33.63 34.00 34.23 34.54 34.73 34.81 34.75 34.54 34.24 33.97 33.79 33.49 33.40 33.44 33.45 33.53 33.79 34.05 34.33 34.27 34.43 34.57 34.59 34.72 35.41 35.77 35.68 35.49 34.99 34.78 35.04 35.16 35.22 35.13 35.30 35.31 35.37 35.41 35.69 35.85 35.90 35.64 35.76 35.80 35.83 35.85 35.78 35.79 35.99 36.20 36.44 36.49 36.73 37.02 37.09 37.18 37.16 37.17 37.17 37.17 37.32 37.36 37.41 37.46 37.49 37.66 37.66 37.42 37.22 37.07 37.02 37.15 37.38 37.49 37.54 37.66 37.67 37.69 37.71 37.69 37.72 37.69 37.54 37.64 37.33 36.17 35.06 34.94 35.08 34.94 35.08 35.24 35.25 35.22 35.05 34.92 34.34 34.12 35.03 35.73 36.78 37.90 38.61 39.39 39.97 40.32 40.67 40.66 40.79 41.05 41.22 41.30 41.26 41.30 41.39 41.49 41.52 41.62 41.66 41.77 41.89 42.17 42.36 42.38 42.55 42.86 43.05 43.15 43.46 43.66 43.81 44.03 44.16 44.22 44.33 44.56 44.65 44.77 44.89 45.07 45.26 45.67 45.83 46.41 46.33 45.81 45.98 46.56 47.31 46.42 45.96 45.94 45.75 46.14 46.39 46.52 46.76 46.98 47.05 47.27 47.28 47.55 47.45 47.77 47.87 47.82 47.62 47.92 48.30 48.48 48.77 49.15 49.47 49.67 49.79 49.98 50.22 50.58 51.03 51.38 51.65 51.92 52.21 52.46 52.52 52.65 52.81 52.81 52.82 52.90 52.77 53.05 53.06 52.85 52.81 52.83 52.61 52.36 52.32 52.26 52.31 52.52 52.49 52.49 52.50 52.46 52.40 52.74 53.01 53.10 53.22 53.37 53.25 52.95 52.96 53.25 53.34 53.14 53.26 53.60 53.57 53.22 52.94 52.82 52.59 52.72 53.07 53.28 53.31 53.35 53.24 53.17 53.30 53.50 53.50 53.71 54.13 54.42 54.54 54.55 54.67 54.73 54.78 55.04 55.20 55.40 55.74 55.94 55.93 56.06 56.10 56.05 56.14 56.35 56.39 56.57 56.97 57.16 57.50 57.56 57.77 57.95 57.94 57.99 58.07 58.19 58.31 58.37 58.35 58.47 58.49 58.55 58.58 58.73 58.79 58.89 58.95 58.62 58.34 58.09 57.82 57.54 57.34 57.02 56.71 56.69 56.74 56.67 56.17 55.42 54.43 52.10 51.79 52.55 53.20 53.93 54.11 54.86 55.45 56.31 57.10 57.72 58.22 58.24 58.94 57.75 58.37 58.77 59.30 60.24 61.04 61.93
28.13 28.11 28.04 28.00 28.00 27.84 27.81 27.82 27.73 27.86 28.09 28.23 28.26 27.95 28.06 27.64 27.30 27.30 27.30 27.39 27.26 26.98 27.06 27.05 26.66 26.48 26.98 26.73 26.57 26.65 26.95 27.10 27.26 27.62 27.55 27.55 27.62 27.59 27.47 27.47 27.61 26.81 25.01 22.19 14.86 12.91 13.69 16.68 19.61 21.17 22.04 23.20 24.56 23.41 21.34 22.48 26.92 28.09 28.33 28.40 28.35 28.24 28.25 28.38 28.49 28.52 28.68 28.83 28.99 29.16 29.31 29.40 29.53 29.64 29.49 28.21 27.95 28.48 28.08 28.78 30.77 31.05 31.31 31.50 31.55 31.91 32.27 32.59 33.15 33.61 33.92 34.36 34.74 34.83 34.77 34.51 34.23 34.04 33.82 33.64 33.59 33.65 33.63 33.64 33.84 34.03 34.21 34.26 34.47 34.72 34.86 34.84 35.00 35.17 35.41 35.63 35.29 35.01 35.16 35.20 35.15 35.06 35.16 35.34 35.39 35.46 35.76 35.76 35.95 35.88 35.70 35.79 35.89 35.90 35.86 35.94 36.12 36.36 36.35 36.43 36.67 36.97 37.35 37.26 37.25 37.30 37.21 37.28 37.35 37.39 37.48 37.57 37.62 37.75 37.68 37.48 37.24 37.04 37.03 37.28 37.50 37.61 37.69 37.81 37.87 37.80 37.86 37.86 37.41 37.18 37.87 37.92 37.34 36.06 34.98 34.97 35.31 35.18 35.21 35.43 35.42 35.28 35.28 35.33 35.21 34.62 34.25 35.36 36.00 37.41 38.71 39.30 39.68 40.51 40.86 40.75 40.89 41.06 41.26 41.32 41.41 41.32 41.44 41.52 41.58 41.71 41.70 41.89 42.02 42.22 42.35 42.46 42.64 42.83 42.98 43.18 43.36 43.65 43.87 43.97 44.18 44.36 44.46 44.67 44.80 44.85 45.05 45.16 45.26 45.58 45.82 45.90 45.64 45.71 45.92 46.60 47.32 46.43 46.16 46.12 46.02 46.03 46.35 46.56 46.83 46.97 47.07 47.27 47.36 47.60 47.71 47.81 47.98 47.97 47.75 48.01 48.26 48.51 48.63 48.82 49.22 49.58 49.78 49.93 50.16 50.51 50.86 51.30 51.69 52.01 52.20 52.52 52.70 52.90 53.05 53.11 53.09 53.16 53.06 53.33 53.45 53.34 53.21 53.04 52.84 52.72 52.62 52.44 52.52 52.67 52.78 52.76 52.92 52.93 52.75 52.98 53.17 53.31 53.43 53.54 53.56 53.33 53.25 53.58 53.58 53.47 53.47 53.72 53.64 53.28 53.29 53.18 52.78 52.96 53.17 53.45 53.50 53.66 53.56 53.45 53.58 53.64 53.90 53.89 54.36 54.65 54.69 54.76 54.97 54.97 55.02 55.38 55.44 55.66 55.86 56.08 56.16 56.28 56.37 56.46 56.47 56.62 56.57 56.56 56.74 57.12 57.37 57.66 57.90 57.97 58.04 58.05 58.17 58.25 58.32 58.43 58.42 58.52 58.60 58.66 58.62 58.68 58.90 58.96 58.92 58.47 58.32 58.00 57.64 57.49 57.26 57.13 57.09 57.09 56.96 56.95 56.40 55.57 54.46 51.88 51.55 52.29 53.29 53.88 54.12 54.38 55.10 55.58 56.31 56.65 56.90 57.23 58.57 57.50 58.61 58.83 59.43 60.61 61.66 62.55
28.52 28.51 28.32 28.16 28.26 28.19 28.08 28.03 27.88 27.76 27.82 27.78 27.73 27.60 27.69 28.09 27.80 27.67 27.77 27.84 27.75 27.29 27.35 27.18 27.09 26.53 26.62 27.01 26.97 26.94 27.01 27.21 27.38 27.62 27.67 27.62 27.59 27.63 27.67 27.78 28.10 27.77 26.49 22.44 17.06 13.32 12.79 15.02 18.19 20.26 21.66 22.96 24.59 24.23 21.05 21.28 25.52 27.41 27.97 28.30 28.40 28.39 28.27 28.38 28.56 28.59 28.72 28.84 29.01 29.09 29.18 28.82 28.44 27.96 27.58 27.77 29.72 30.51 29.22 28.45 30.25 30.67 31.23 31.67 31.54 31.68 32.09 32.37 32.67 32.85 33.46 34.11 34.39 34.55 34.58 34.38 34.32 34.24 33.61 33.53 33.44 33.55 33.57 33.61 33.83 34.02 34.14 34.35 34.58 34.77 35.04 35.06 34.94 35.08 35.52 36.22 35.53 35.14 35.18 35.18 35.09 35.13 35.10 35.41 35.53 35.56 35.71 35.81 35.98 36.01 35.78 35.81 35.96 36.01 36.00 36.18 36.24 36.43 36.44 36.48 36.64 36.97 37.18 37.29 37.34 37.38 37.37 37.46 37.49 37.57 37.66 37.63 37.73 37.88 37.75 37.46 37.34 37.11 37.11 37.41 37.61 37.82 37.79 37.88 38.04 38.05 38.05 38.10 37.39 37.17 38.36 38.37 37.49 36.01 34.99 35.45 35.88 35.56 35.44 35.58 35.62 35.44 35.33 35.47 35.65 35.45 34.49 34.44 35.04 36.80 38.67 38.53 39.12 40.27 40.76 40.68 40.77 40.90 41.11 41.16 41.27 41.31 41.48 41.57 41.71 41.74 41.78 41.87 42.02 42.24 42.28 42.42 42.57 42.69 42.84 43.09 43.33 43.59 43.78 44.06 44.22 44.46 44.68 44.72 45.04 45.48 45.48 45.55 45.67 45.80 45.65 45.66 45.73 45.78 46.01 46.73 47.35 46.52 46.42 46.35 46.23 46.14 46.24 46.45 46.82 47.09 47.08 47.37 47.53 47.69 47.67 47.80 48.00 48.18 48.06 47.89 48.39 48.61 48.46 48.46 49.02 49.53 49.82 50.03 50.25 50.42 50.71 51.13 51.38 51.59 52.05 52.48 52.72 52.97 53.24 53.26 53.30 53.33 53.29 53.50 53.80 53.81 53.58 53.27 53.04 53.05 52.88 52.70 52.76 52.90 53.08 53.11 53.24 53.36 53.17 53.22 53.35 53.53 53.61 53.79 53.82 53.65 53.48 53.69 53.96 53.87 53.80 53.92 53.89 53.59 53.50 53.32 53.13 53.08 53.35 53.48 53.67 53.82 53.79 53.65 53.77 53.76 54.03 54.13 54.41 54.78 54.97 55.14 55.27 55.26 55.36 55.64 55.75 55.94 56.04 56.19 56.42 56.60 56.73 56.80 56.73 56.85 56.82 56.81 56.99 57.22 57.67 57.91 57.94 58.09 58.23 58.25 58.27 58.39 58.42 58.52 58.59 58.55 58.64 58.71 58.66 58.75 58.93 58.95 58.79 58.58 58.37 58.02 57.78 57.73 57.54 57.53 57.47 57.32 57.22 57.17 56.82 56.14 54.75 53.61 52.10 51.91 53.09 53.78 54.06 54.50 54.89 55.52 55.93 56.33 56.83 57.43 59.14 59.23 60.04 60.19 60.33 61.49 62.37 63.04
28.59 28.48 28.28 28.18 28.23 28.24 28.17 28.03 27.94 27.74 27.68 27.74 27.74 27.61 27.59 27.74 27.76 27.59 27.79 27.82 27.59 27.75 27.56 27.37 27.17 27.05 26.53 26.59 27.09 27.18 27.39 27.53 27.55 27.63 27.74 27.53 27.59 27.66 27.82 27.40 27.29 27.08 25.02 22.52 22.29 15.73 12.45 13.36 16.94 19.45 21.18 22.82 24.62 24.45 20.87 20.87 23.82 26.09 27.60 28.26 28.38 28.36 28.31 28.29 28.52 28.56 28.67 28.73 28.79 27.64 27.23 27.49 28.40 28.89 29.33 29.62 30.35 31.02 30.70 29.63 29.95 30.31 30.49 31.06 31.36 31.49 31.84 32.14 32.27 32.42 32.99 33.44 33.76 34.00 34.18 34.11 34.28 34.45 33.48 33.57 33.54 33.88 33.87 33.66 33.96 34.06 34.14 34.32 34.52 34.87 34.95 34.90 34.97 34.96 35.30 35.74 35.47 35.24 35.32 35.51 35.38 35.43 35.15 35.29 35.53 35.73 35.89 36.00 36.17 36.16 35.90 36.01 36.16 36.21 36.24 36.34 36.42 36.53 36.60 36.75 36.72 36.95 37.17 37.32 37.41 37.48 37.51 37.67 37.62 37.63 37.74 37.78 37.78 37.90 37.78 37.44 37.28 37.03 37.23 37.51 37.74 37.95 37.99 38.12 38.11 38.28 38.32 38.29 38.28 38.37 38.66 38.61 37.21 35.95 35.36 36.36 36.35 36.66 36.40 36.60 36.71 36.62 35.82 35.59 35.59 35.58 35.40 34.97 34.16 35.28 37.13 37.85 38.89 39.54 40.05 40.27 40.16 40.53 40.92 40.84 40.95 40.99 41.27 41.55 41.71 41.69 41.75 41.90 42.11 42.35 42.56 42.66 42.68 42.72 42.78 43.08 43.33 43.51 43.75 44.04 44.24 44.36 44.57 44.74 45.32 46.50 46.76 46.65 46.16 45.98 45.77 45.79 45.86 46.01 46.14 47.58 47.90 46.44 46.60 46.56 46.37 46.40 46.45 46.61 46.98 47.19 47.12 47.48 47.70 47.81 47.88 47.83 48.07 48.16 48.33 48.03 48.25 48.73 48.82 48.77 49.06 49.37 49.60 49.93 50.27 50.46 50.74 51.03 51.29 51.66 52.01 52.33 52.75 53.02 53.27 53.38 53.47 53.55 53.58 53.71 53.98 54.02 53.93 53.68 53.45 53.28 53.17 53.08 53.11 53.17 53.36 53.56 53.49 53.59 53.46 53.44 53.55 53.69 53.80 54.03 54.11 53.96 53.68 53.68 54.08 54.25 54.09 54.03 54.08 53.87 53.85 53.65 53.41 53.29 53.58 53.58 53.88 54.00 53.98 53.87 53.96 53.96 54.17 54.33 54.46 54.84 55.11 55.38 55.55 55.58 55.65 55.82 56.03 56.09 56.16 56.40 56.62 56.75 57.00 57.09 56.94 57.01 57.00 57.05 57.17 57.49 57.80 58.02 58.11 58.30 58.62 58.57 58.48 58.58 58.59 58.65 58.61 58.62 58.76 58.81 58.81 58.83 58.92 58.88 58.76 58.60 58.37 58.19 58.10 58.04 57.88 57.92 57.78 57.60 57.54 57.34 56.96 56.21 55.16 54.72 53.06 51.80 52.75 53.79 54.06 54.44 55.16 56.11 56.65 57.20 57.85 58.32 59.22 60.01 60.70 61.18 61.41 62.32 63.00 63.46
28.70 28.63 28.42 28.30 28.22 28.20 28.12 28.08 27.95 27.80 27.72 27.82 27.81 27.78 27.75 27.80 27.71 27.61 27.66 27.73 27.74 28.05 27.73 27.43 27.28 27.14 26.93 26.69 27.00 27.31 27.47 27.68 27.64 27.85 27.77 27.36 27.37 27.31 27.18 25.98 25.49 24.41 23.05 25.85 26.81 20.11 13.82 12.45 15.21 18.22 20.53 22.36 23.95 24.91 23.14 21.56 22.33 25.40 27.70 28.40 28.47 28.33 28.30 28.25 28.41 28.55 28.57 28.39 28.14 26.37 27.25 28.91 29.34 29.60 29.91 30.11 30.67 31.18 31.32 30.95 30.58 30.95 31.30 31.24 31.44 31.55 31.66 31.84 31.83 32.01 32.45 32.84 33.19 33.37 33.55 33.60 33.43 33.34 33.40 33.50 33.53 33.73 33.77 33.81 34.18 34.13 34.13 34.17 34.39 34.74 34.68 34.83 34.89 34.95 35.01 35.89 35.66 35.23 35.47 35.43 35.30 35.61 35.69 35.24 35.53 35.89 36.05 35.99 36.08 36.17 36.08 36.16 36.24 36.37 36.41 36.41 36.52 36.64 36.80 36.82 36.93 37.06 37.24 37.43 37.52 37.54 37.69 37.64 37.66 37.64 37.74 37.79 37.94 37.93 37.78 37.50 37.29 37.48 37.53 37.73 37.98 38.00 38.08 38.25 38.38 38.48 38.51 38.54 38.68 38.82 39.20 39.18 37.35 36.08 35.99 35.66 34.84 35.94 37.23 37.78 37.90 37.87 36.67 35.87 35.94 35.82 35.80 35.60 35.34 34.96 35.24 36.97 37.97 38.84 39.61 39.67 39.27 40.32 40.76 40.62 40.56 40.68 40.95 41.17 41.43 41.73 41.88 42.08 42.30 42.52 42.72 42.81 42.91 42.93 42.85 43.04 43.35 43.48 43.60 43.82 44.16 44.39 44.54 44.66 45.03 45.27 45.49 45.56 45.66 45.89 47.08 46.50 46.02 46.14 46.58 48.78 46.95 46.42 46.64 46.85 46.83 46.61 46.60 46.73 47.03 47.25 47.30 47.55 47.79 47.76 47.96 47.99 48.17 48.27 48.37 48.37 48.16 48.47 49.07 49.12 49.25 49.46 49.71 49.95 50.17 50.37 50.72 51.02 51.32 51.67 52.14 52.32 52.66 53.08 53.34 53.42 53.66 53.83 53.89 54.02 54.18 54.26 54.16 54.01 53.90 53.70 53.47 53.21 53.25 53.53 53.73 53.85 53.71 53.73 53.59 53.71 53.77 53.98 54.10 54.12 54.23 54.12 53.85 54.49 54.56 54.57 54.32 54.26 54.25 54.18 54.25 54.03 53.69 53.54 53.70 53.83 54.06 54.19 54.26 54.19 54.13 54.14 54.38 54.55 54.66 55.00 55.34 55.58 55.68 55.83 55.92 56.17 56.34 56.46 56.40 56.64 56.93 56.95 57.15 57.24 57.14 57.21 57.19 57.33 57.54 57.80 57.94 58.14 58.28 58.36 58.56 58.69 58.63 58.75 58.71 58.65 58.53 58.73 58.78 58.87 58.82 58.88 59.02 58.99 58.83 58.58 58.47 58.37 58.32 58.14 57.94 58.07 57.86 57.72 57.76 57.40 56.99 56.37 55.62 55.16 53.51 51.97 52.55 53.68 54.39 54.67 55.48 56.42 57.10 57.64 58.35 58.90 59.38 60.26 61.16 61.66 62.01 62.76 63.43 63.93
28.76 28.77 28.66 28.50 28.30 28.36 28.31 28.19 27.99 27.83 27.75 27.85 27.88 27.82 27.78 27.87 27.87 27.87 27.76 27.58 27.53 27.82 27.71 27.53 27.34 27.19 27.14 27.09 27.05 27.37 27.72 28.03 27.87 27.98 27.96 27.58 27.32 27.20 27.04 26.61 25.47 25.31 24.92 25.95 25.10 22.14 16.54 12.43 13.36 16.89 19.64 21.64 22.96 24.57 25.73 23.66 21.83 24.06 26.76 28.12 28.48 28.44 28.35 27.99 27.81 28.20 27.38 27.20 26.56 26.12 27.92 28.91 29.20 29.56 29.92 30.34 30.84 31.32 31.61 31.47 31.31 31.47 31.40 31.15 31.41 31.62 31.67 31.73 31.56 31.67 32.04 32.38 32.52 32.74 32.93 33.05 33.09 33.14 33.18 33.39 33.49 33.50 33.65 33.70 33.96 34.14 34.27 34.34 34.44 34.61 34.67 34.71 34.81 34.91 34.97 35.67 35.59 35.31 35.63 35.63 35.38 35.26 35.48 35.26 35.45 35.82 36.04 36.03 36.06 36.16 36.15 36.22 36.25 36.37 36.53 36.51 36.65 36.81 36.89 37.00 37.08 37.21 37.36 37.51 37.54 37.61 37.68 37.70 37.69 37.78 37.85 37.83 38.00 37.84 37.71 37.57 37.67 37.69 37.82 37.88 38.06 38.20 38.26 38.34 38.51 38.60 38.58 38.55 38.79 39.10 39.58 39.25 37.41 36.25 36.49 36.32 35.91 36.33 37.26 38.25 38.46 38.52 38.01 37.22 37.10 36.85 36.47 35.95 35.85 35.67 35.16 35.11 36.64 38.83 39.49 38.67 38.15 39.91 40.48 40.28 39.98 40.24 40.43 40.81 41.28 41.76 41.96 42.32 42.48 42.66 42.88 43.05 43.22 43.24 43.24 43.23 43.39 43.53 43.71 43.87 44.12 44.35 44.51 44.71 44.97 45.14 45.33 45.51 45.78 46.29 47.50 46.24 46.12 46.27 47.64 48.20 46.62 46.64 46.78 46.91 47.03 46.96 46.91 46.97 47.14 47.23 47.35 47.50 47.78 47.81 48.00 48.20 48.25 48.44 48.49 48.62 48.47 48.33 49.06 49.31 49.38 49.54 49.88 50.22 50.34 50.46 50.65 50.89 51.27 51.64 52.13 52.39 52.73 52.97 53.31 53.74 53.82 53.87 53.98 54.15 54.38 54.55 54.52 54.45 54.29 54.07 53.82 53.62 53.51 53.74 54.06 54.14 54.02 53.84 53.89 54.04 54.09 54.30 54.54 54.54 54.42 54.35 54.31 54.60 54.29 54.86 54.69 54.57 54.57 54.58 54.61 54.29 53.91 53.81 53.86 54.12 54.32 54.48 54.56 54.60 54.45 54.40 54.56 54.78 54.82 55.08 55.42 55.75 55.91 56.06 56.23 56.42 56.67 56.75 56.73 56.79 56.99 57.17 57.30 57.48 57.45 57.54 57.47 57.53 57.80 57.92 58.03 58.30 58.47 58.54 58.64 58.78 58.81 58.82 58.82 58.75 58.74 58.87 58.86 58.93 58.91 58.99 58.99 58.99 58.91 58.74 58.73 58.58 58.35 58.18 58.23 58.23 57.92 57.80 57.72 57.31 56.90 56.49 55.32 54.87 54.03 52.13 52.30 53.51 54.85 55.01 55.74 56.75 57.41 58.14 58.75 59.50 60.09 61.04 61.82 62.00 62.66 63.48 63.97 64.70
28.96 28.93 28.87 28.67 28.49 28.46 28.46 28.26 28.15 27.96 28.04 28.10 28.03 27.98 27.96 27.91 27.77 27.88 27.84 27.70 27.58 27.82 27.86 27.72 27.57 27.42 27.30 27.22 27.07 27.01 27.52 27.71 27.76 27.88 27.88 27.77 27.43 27.15 26.83 26.52 25.72 24.70 23.68 22.77 21.97 21.08 21.39 14.75 12.10 15.41 18.51 20.73 22.60 24.87 27.00 25.50 22.49 22.69 25.08 26.95 27.90 28.51 28.47 28.01 26.66 26.23 25.42 26.75 27.08 27.21 28.12 29.02 29.39 29.73 30.01 30.29 30.60 31.35 32.00 32.13 32.02 31.80 31.63 31.51 31.44 31.52 31.73 31.98 31.80 31.83 32.07 32.05 32.14 32.38 32.56 32.84 33.12 33.35 33.24 33.24 33.45 33.55 33.69 33.82 33.97 34.38 34.57 34.77 34.63 34.66 34.68 34.80 34.85 34.88 35.03 35.76 35.88 35.37 35.71 35.73 35.58 35.49 35.59 35.43 35.54 35.49 36.06 36.11 36.20 36.41 36.42 36.29 36.35 36.52 36.78 36.71 36.85 37.04 37.03 37.12 37.24 37.43 37.50 37.54 37.64 37.70 37.73 37.76 37.73 37.79 37.92 38.04 38.07 37.88 37.72 37.63 37.80 38.02 38.00 38.00 38.14 38.22 38.32 38.46 38.56 38.72 38.80 38.86 38.99 39.14 39.14 38.76 37.68 36.58 36.11 37.08 37.74 37.80 37.58 38.00 38.37 38.66 38.73 38.76 38.62 37.83 37.18 36.34 36.17 36.15 35.85 35.73 35.47 36.23 37.01 36.98 37.37 39.58 40.01 39.86 39.40 39.37 40.35 41.06 41.44 41.83 42.08 42.38 42.64 42.88 43.01 43.16 43.39 43.46 43.60 43.53 43.64 43.65 43.65 43.78 44.06 44.25 44.50 44.80 44.95 45.19 45.40 45.61 45.99 46.91 47.01 46.05 46.25 46.50 47.50 47.13 46.77 46.87 46.96 46.94 47.15 47.22 47.27 47.30 47.30 47.34 47.37 47.54 47.73 47.94 48.00 48.21 48.35 48.56 48.67 48.77 48.57 48.53 49.04 49.39 49.63 49.76 49.89 50.21 50.35 50.57 50.80 51.02 51.14 51.43 51.83 52.23 52.66 52.98 53.40 53.70 53.96 54.10 54.21 54.35 54.54 54.68 54.81 54.87 54.58 54.38 54.13 54.00 53.94 54.08 54.37 54.44 54.31 54.16 54.16 54.32 54.50 54.65 54.86 54.94 54.86 54.71 54.64 54.34 54.31 54.74 54.98 54.87 54.86 55.00 54.82 54.49 54.20 54.21 54.10 54.17 54.46 54.57 54.84 54.69 54.74 54.62 54.72 54.90 54.87 55.15 55.54 55.82 56.07 56.33 56.48 56.66 56.88 56.98 56.98 57.12 57.20 57.41 57.44 57.66 57.67 57.65 57.74 57.99 58.01 58.09 58.21 58.46 58.62 58.79 58.80 58.94 58.98 58.97 58.88 58.90 58.86 58.94 58.96 58.88 58.92 59.01 59.11 59.05 59.01 58.88 58.89 58.68 58.42 58.27 58.29 58.16 57.92 57.72 57.58 57.26 57.02 56.92 57.11 57.21 54.97 52.83 51.33 53.15 54.72 55.11 55.97 56.88 57.41 58.26 59.05 60.01 61.22 62.07 62.26 62.50 63.22 64.26 64.68 65.42
29.12 28.98 28.88 28.71 28.69 28.64 28.59 28.47 28.47 28.30 28.29 28.35 28.22 28.22 28.19 28.02 27.90 27.89 27.83 27.82 27.82 27.87 27.89 27.78 27.62 27.46 27.53 27.37 27.16 27.31 27.52 27.64 27.82 27.77 27.73 27.82 27.31 26.59 25.85 25.55 25.93 25.58 22.76 23.39 25.60 25.93 25.78 18.69 11.82 14.25 17.50 19.58 21.85 24.40 27.15 26.41 24.53 22.71 23.16 24.55 25.79 27.42 27.94 27.42 25.65 24.59 25.38 27.95 28.75 28.77 28.95 29.54 29.53 29.69 29.96 30.37 30.61 31.06 32.13 32.50 32.33 32.12 32.00 31.92 31.87 31.82 31.90 32.17 32.39 32.25 32.12 32.10 32.24 32.40 32.43 32.72 33.08 33.24 33.17 33.30 33.45 33.57 33.79 34.01 34.39 34.67 34.78 34.82 34.76 34.79 34.81 34.87 34.93 34.96 35.07 35.54 35.98 35.36 35.52 35.79 35.70 35.60 35.72 35.71 35.94 36.24 36.51 36.45 36.52 36.47 36.43 36.44 36.55 36.67 36.06 36.44 36.98 37.19 37.11 37.21 37.30 37.57 37.60 37.60 37.70 37.77 37.88 37.80 37.84 37.92 37.90 38.10 38.02 37.90 37.86 37.77 37.71 37.96 37.91 38.08 38.17 38.27 38.42 38.58 38.73 38.97 38.96 38.85 38.87 38.74 38.47 39.02 38.86 37.18 36.18 37.07 38.09 38.15 38.02 38.00 38.30 38.58 38.87 39.01 38.94 38.64 37.76 36.76 36.56 36.53 36.18 36.26 36.24 35.01 35.97 37.33 37.65 38.78 38.53 38.84 38.91 39.13 39.99 40.83 41.20 41.62 41.86 42.19 42.55 42.83 42.98 43.20 43.39 43.51 43.63 43.77 43.92 43.91 43.87 43.93 44.01 44.24 44.48 44.67 45.11 45.27 45.45 45.77 45.94 46.21 46.14 46.05 46.25 46.69 47.16 46.98 47.02 46.87 47.07 47.16 47.27 47.35 47.41 47.47 47.52 47.43 47.43 47.64 47.72 47.98 48.09 48.28 48.49 48.63 48.87 48.98 48.87 48.77 48.95 49.44 49.63 49.85 49.88 50.15 50.41 50.59 50.79 51.07 51.24 51.37 51.60 51.98 52.50 52.80 53.21 53.66 53.99 54.12 54.37 54.53 54.59 54.80 54.90 54.97 54.88 54.62 54.51 54.65 54.56 54.62 54.68 54.71 54.55 54.52 54.36 54.62 54.78 54.95 55.13 55.19 55.17 54.99 54.86 54.94 55.01 55.07 55.19 55.13 55.19 55.14 54.81 54.52 54.38 54.55 54.42 54.33 54.70 54.79 54.95 54.95 54.88 54.98 54.94 55.08 55.03 55.32 55.67 55.96 56.34 56.63 56.75 56.94 57.07 57.22 57.19 57.26 57.45 57.73 57.78 57.93 57.96 58.06 58.20 58.21 58.18 58.29 58.53 58.68 58.74 58.84 58.89 58.97 59.05 59.02 59.06 59.16 59.11 59.16 59.07 59.05 59.09 59.09 59.13 59.14 59.11 59.03 58.87 58.73 58.62 58.50 58.30 58.11 58.02 57.72 57.37 57.21 57.28 57.19 58.34 58.78 55.23 53.77 51.29 52.51 54.81 55.28 55.92 56.76 57.43 58.34 59.27 60.39 61.58 62.24 62.42 62.82 63.45 64.46 65.30 65.71
29.28 29.14 29.02 28.86 28.72 28.69 28.68 28.59 28.57 28.41 28.35 28.40 28.43 28.36 28.31 28.15 28.04 28.09 28.02 28.01 28.00 27.98 27.91 27.74 27.64 27.54 27.63 27.66 27.65 27.70 27.62 27.66 27.73 27.77 27.97 27.97 27.55 27.66 27.54 27.01 27.02 26.58 23.95 24.67 27.57 27.32 24.80 20.80 12.80 13.16 16.75 18.35 20.69 23.55 26.75 27.10 26.39 24.31 23.71 25.80 24.99 24.75 25.14 24.74 24.55 24.52 26.67 28.66 29.04 28.93 29.00 29.47 29.58 29.73 29.94 30.20 30.41 30.81 31.95 32.59 32.61 32.55 32.41 32.44 32.55 32.34 32.18 32.14 32.35 32.46 32.47 32.38 32.51 32.53 32.56 32.77 32.94 33.96 34.14 33.42 33.52 33.54 33.81 34.13 34.62 34.95 35.00 34.89 34.92 34.98 34.85 34.95 35.13 35.37 35.35 35.88 36.55 35.73 35.54 35.71 35.73 35.84 35.83 35.99 36.11 36.06 36.11 36.21 36.35 36.42 36.57 36.58 36.71 36.05 35.75 36.54 37.05 37.21 37.18 37.32 37.46 37.68 37.73 37.77 37.80 37.81 37.88 37.92 38.03 37.95 37.97 38.05 38.03 38.00 38.05 37.99 37.91 37.95 38.06 38.15 38.30 38.48 38.78 38.92 38.89 38.96 38.93 38.95 38.92 38.78 38.08 37.74 37.64 36.78 36.25 37.03 38.20 38.61 38.47 38.27 38.51 38.84 39.01 39.06 38.95 39.20 38.66 37.41 37.02 36.74 36.44 36.33 36.61 35.64 36.80 38.16 38.00 38.19 38.87 39.61 40.25 40.33 39.74 40.36 40.85 41.20 41.62 41.97 42.26 42.53 42.77 43.08 43.28 43.56 43.69 43.78 43.97 44.06 44.03 44.15 44.21 44.30 44.43 44.83 46.37 46.57 46.55 46.24 46.10 46.09 46.07 46.18 46.36 46.55 46.74 47.01 47.18 47.02 47.15 47.32 47.45 47.59 47.71 47.73 47.80 47.70 47.54 47.69 47.84 48.21 48.37 48.49 48.68 48.75 48.87 49.13 49.13 49.08 48.89 49.38 49.66 49.81 50.01 50.32 50.37 50.62 50.84 51.06 51.23 51.42 51.73 51.91 52.22 52.53 53.02 53.32 53.71 53.94 54.22 54.40 54.51 54.78 54.93 54.98 54.99 54.95 54.92 55.06 55.06 55.12 55.07 54.99 54.76 54.85 54.63 54.81 55.20 55.42 55.58 55.51 55.43 55.37 55.15 55.07 55.20 55.19 55.31 55.43 55.46 55.27 54.95 54.70 54.81 54.76 54.56 54.59 54.72 55.04 55.15 55.22 55.23 55.25 55.34 55.46 55.57 55.52 55.72 56.01 56.34 56.72 56.92 57.19 57.28 57.47 57.61 57.50 57.70 57.88 58.05 58.19 58.25 58.41 58.39 58.40 58.47 58.48 58.77 58.92 58.86 58.92 59.07 59.17 59.20 59.15 59.28 59.26 59.21 59.16 59.25 59.22 59.21 59.18 59.16 59.19 59.16 59.19 59.10 58.96 58.90 58.68 58.44 58.34 58.15 57.82 57.46 57.63 57.96 57.66 57.77 57.43 54.96 54.00 52.36 51.72 54.54 55.30 55.94 56.80 57.73 58.52 59.28 60.25 61.04 61.38 61.81 62.61 63.43 64.41 65.42 66.02
29.32 29.19 29.10 29.02 28.88 28.87 28.86 28.83 28.70 28.52 28.44 28.40 28.43 28.45 28.40 28.26 28.21 28.27 28.18 28.10 28.20 28.21 28.06 27.88 27.86 28.00 27.95 27.90 27.92 27.88 27.76 27.73 27.80 28.00 27.91 27.95 27.91 27.81 27.80 27.50 27.27 26.12 23.41 25.62 27.88 27.80 25.53 23.46 15.95 12.86 16.05 17.52 19.07 21.96 25.49 27.73 27.66 26.59 24.25 25.52 27.20 25.26 24.98 25.51 26.75 26.57 26.73 28.15 28.72 28.96 29.04 29.36 29.28 29.51 29.82 30.16 30.33 30.59 31.14 32.23 32.80 33.00 33.08 33.07 33.04 32.67 32.30 32.21 32.31 32.49 32.59 32.71 32.71 32.75 32.88 33.00 33.01 33.52 33.69 33.46 33.56 33.65 33.93 34.21 34.55 35.00 35.12 35.10 35.07 35.11 35.02 36.19 37.84 37.69 35.94 35.84 36.41 35.93 35.74 35.88 36.04 36.01 36.66 36.31 36.13 35.98 36.15 36.33 36.50 36.51 36.99 36.72 36.72 36.87 37.02 37.15 37.23 37.32 37.33 37.46 37.68 37.85 37.86 37.86 37.86 37.89 37.97 38.01 38.04 38.05 38.17 38.21 38.19 38.15 38.22 38.20 38.02 38.08 38.38 38.45 38.69 38.75 38.84 39.06 39.03 38.97 39.07 39.15 39.00 38.70 38.35 37.76 37.05 36.79 36.41 37.00 37.87 38.41 38.87 38.69 38.85 39.13 39.19 39.26 39.19 39.28 39.15 38.66 38.51 37.67 36.84 36.34 36.62 35.90 36.39 38.08 39.07 39.28 39.90 40.35 40.70 40.65 39.99 40.08 40.80 41.08 41.45 41.62 41.88 42.06 42.48 42.81 42.99 43.25 43.51 43.69 43.96 44.07 44.18 44.34 44.49 44.50 44.59 44.90 45.97 46.49 46.56 45.98 46.18 46.26 46.30 46.38 46.56 46.53 46.66 46.82 46.97 47.09 47.23 47.48 47.66 47.83 47.95 47.90 47.94 47.88 47.81 47.91 48.19 48.26 48.38 48.48 48.69 48.81 48.86 48.95 49.29 49.28 49.25 49.44 49.74 49.87 50.19 50.36 50.49 50.63 50.77 51.10 51.18 51.40 51.75 51.90 52.18 52.52 52.93 53.09 53.44 53.65 54.01 54.27 54.51 54.65 54.88 55.04 55.14 55.20 55.28 55.38 55.37 55.51 55.38 55.25 55.15 55.23 55.16 55.11 55.51 55.79 56.00 55.86 55.84 55.81 55.48 55.12 55.27 55.35 55.49 55.77 55.67 55.54 55.31 55.06 55.11 54.92 54.81 54.94 54.94 55.33 55.48 55.49 55.45 55.61 55.73 55.81 55.94 56.02 55.97 56.08 56.29 56.55 56.96 57.45 57.70 57.79 57.92 57.82 57.90 58.04 58.26 58.41 58.63 58.59 58.57 58.70 58.70 58.69 58.98 59.12 59.16 59.17 59.27 59.28 59.42 59.43 59.42 59.35 59.36 59.31 59.34 59.42 59.26 59.15 59.14 59.21 59.25 59.20 59.21 59.11 59.16 58.92 58.66 58.52 58.22 58.05 57.79 57.82 58.33 58.00 57.39 56.44 54.75 54.26 53.24 51.41 54.20 55.23 55.99 56.87 57.84 58.57 59.15 60.00 60.67 61.20 61.74 62.52 63.54 64.73 65.66 66.18
29.35 29.34 29.44 29.30 29.11 29.12 29.15 29.02 28.83 28.71 28.59 28.56 28.58 28.51 28.49 28.38 28.40 28.35 28.42 28.16 28.13 28.06 28.12 28.11 28.04 28.15 27.99 27.97 28.17 28.15 28.04 27.96 27.85 27.96 28.00 28.06 28.05 27.88 27.94 27.87 27.15 26.10 23.66 24.29 27.34 28.04 27.19 25.78 17.86 12.71 15.49 17.13 18.03 20.18 23.80 27.53 28.34 27.77 25.28 24.35 27.33 27.47 27.35 26.93 28.04 28.04 27.13 27.39 28.63 29.03 29.24 29.48 29.54 29.69 29.77 30.03 30.18 30.41 30.76 31.62 32.59 33.17 33.64 33.98 34.03 33.54 33.05 32.72 32.29 32.41 32.52 32.76 32.90 32.89 33.01 33.07 33.06 33.15 33.23 33.40 33.52 33.65 34.07 34.29 34.48 34.94 35.15 35.37 35.25 35.23 35.16 36.56 37.47 36.49 35.74 36.08 36.90 36.40 35.91 35.97 36.20 36.17 36.54 36.26 36.20 35.96 36.23 36.37 36.55 36.67 36.82 36.75 36.86 37.05 37.09 37.25 37.38 37.46 37.45 37.62 37.79 37.86 37.97 38.03 38.06 38.01 38.08 38.15 38.15 38.24 38.35 38.36 38.33 38.29 38.29 38.39 38.09 38.25 38.65 38.67 38.62 38.69 38.71 38.96 39.10 39.14 39.21 39.18 38.88 38.60 38.57 38.10 37.42 37.01 36.66 37.07 37.61 38.47 39.21 39.02 39.05 39.31 39.48 39.45 39.45 39.54 39.42 39.35 39.38 38.76 37.56 36.76 36.42 36.08 36.29 37.08 38.26 39.62 40.02 40.16 40.43 40.69 40.69 40.37 40.37 40.79 40.95 40.97 41.38 41.76 42.13 42.48 42.75 43.04 43.35 43.56 43.89 44.01 44.23 44.43 44.66 44.83 44.93 44.96 45.16 45.33 45.55 45.90 46.24 46.29 46.31 46.41 46.57 46.60 46.63 46.81 46.91 47.06 47.33 47.47 47.60 47.74 48.00 48.12 48.11 48.13 48.15 48.20 48.24 48.46 48.46 48.48 48.68 48.98 49.03 49.04 49.20 49.42 49.51 49.45 49.66 49.98 50.30 50.49 50.66 50.70 50.86 51.24 51.41 51.50 51.76 52.12 52.34 52.70 52.93 53.17 53.38 53.69 54.01 54.30 54.43 54.68 54.83 54.94 55.13 55.36 55.54 55.59 55.67 55.84 55.74 55.63 55.55 55.62 55.51 55.50 55.78 56.01 56.19 56.17 56.20 56.06 55.70 55.38 55.52 55.57 55.60 55.88 56.00 56.00 55.65 55.44 55.37 55.10 55.16 55.24 55.22 55.42 55.73 55.84 55.82 55.90 56.02 56.29 56.51 56.47 56.39 56.45 56.66 56.79 56.94 57.38 57.96 58.17 58.14 57.99 58.18 58.36 58.50 58.56 58.82 58.73 58.69 58.87 58.96 58.99 59.25 59.42 59.41 59.40 59.40 59.41 59.59 59.64 59.54 59.44 59.42 59.45 59.50 59.47 59.31 59.32 59.30 59.35 59.48 59.31 59.32 59.25 59.20 59.10 58.79 58.53 58.32 58.28 58.03 57.75 57.90 57.48 56.98 56.51 54.86 54.36 53.78 51.68 53.81 55.05 55.97 56.87 57.64 58.34 59.06 60.18 61.07 61.59 61.97 62.68 63.83 64.87 65.74 66.44
29.36 29.47 29.53 29.42 29.32 29.30 29.22 29.11 28.97 28.87 28.63 28.62 28.67 28.58 28.60 28.59 28.60 28.46 28.30 28.12 28.20 28.22 28.33 28.25 28.17 28.36 28.43 28.46 28.36 28.22 28.05 27.92 28.02 28.20 28.16 28.26 28.19 28.08 28.00 27.86 26.50 23.52 22.78 24.74 26.53 27.81 27.57 25.54 17.44 13.01 15.12 16.72 17.58 18.63 21.61 25.62 27.44 27.97 26.43 24.08 25.61 28.13 28.64 27.90 28.31 28.57 27.99 27.37 28.27 28.93 29.33 29.47 29.69 29.80 29.87 30.00 30.13 30.34 30.62 31.01 31.90 33.07 33.94 34.24 34.27 34.27 33.89 33.18 32.71 32.58 32.61 32.76 32.82 32.82 32.95 33.21 33.21 33.33 33.34 33.43 33.57 33.82 34.00 34.30 34.65 34.93 35.08 35.17 35.15 35.32 35.30 35.66 35.73 35.68 35.87 36.23 36.83 36.32 36.02 36.15 36.56 36.55 36.33 36.39 36.53 36.23 36.38 36.49 36.57 36.82 37.07 37.16 37.09 37.20 37.25 37.36 37.48 37.70 37.76 37.76 37.89 37.96 38.08 38.14 38.18 38.21 38.20 38.30 38.34 38.43 38.52 38.51 38.50 38.44 38.36 38.52 38.51 38.58 38.61 38.60 38.63 38.77 38.88 39.09 39.20 39.23 39.22 39.21 38.99 38.88 38.75 38.58 37.73 37.23 36.64 36.65 36.80 37.95 39.32 39.33 39.33 39.44 39.63 39.64 39.68 39.84 39.67 39.63 39.55 38.78 37.85 37.24 36.48 36.37 36.64 36.92 37.29 38.56 39.07 39.02 39.45 40.32 40.91 41.06 40.67 40.74 40.84 41.21 41.56 41.52 41.88 42.35 42.56 42.84 43.17 43.39 43.70 43.97 44.23 44.43 44.74 44.92 45.15 45.19 45.24 45.34 45.48 45.79 45.96 45.98 46.09 46.20 46.54 47.23 46.72 46.73 46.87 47.03 47.28 47.46 47.71 47.87 48.12 48.23 48.30 48.31 48.36 48.37 48.41 48.49 48.55 48.58 48.81 49.04 49.09 49.19 49.30 49.45 49.66 49.69 49.58 49.91 50.20 50.52 50.75 50.86 50.96 51.18 51.50 51.59 51.82 52.13 52.49 52.78 53.08 53.27 53.55 53.86 54.17 54.32 54.39 54.64 54.74 54.95 55.14 55.40 55.59 55.71 55.97 56.04 56.05 56.05 55.96 56.00 55.91 55.98 56.09 56.32 56.53 56.43 56.34 56.12 55.95 55.71 55.77 55.79 55.88 56.12 56.30 56.18 56.01 55.87 55.67 55.48 55.38 55.48 55.56 55.61 55.82 56.03 55.99 56.26 56.25 56.60 56.91 56.82 56.77 56.72 57.11 57.19 57.11 57.39 57.93 58.38 58.44 58.31 58.37 58.65 58.75 58.83 58.94 58.89 58.97 59.17 59.25 59.26 59.44 59.64 59.65 59.62 59.60 59.71 59.85 59.84 59.71 59.70 59.61 59.70 59.60 59.52 59.44 59.41 59.32 59.34 59.42 59.22 59.28 59.36 59.27 59.19 59.00 58.83 58.57 58.41 58.20 57.94 57.51 56.94 56.40 55.80 54.84 54.23 53.95 52.04 53.22 55.07 56.01 56.88 57.53 58.34 59.30 60.35 61.11 61.67 61.97 62.63 63.55 64.63 65.71 66.86
29.45 29.51 29.59 29.51 29.44 29.42 29.21 29.20 29.06 28.98 28.72 28.76 28.93 28.92 28.80 28.62 28.50 28.41 28.39 28.32 28.36 28.45 28.45 28.37 28.21 28.42 28.63 28.57 28.40 28.24 28.17 28.09 28.27 28.28 28.22 28.15 28.19 28.32 28.12 27.78 26.77 24.04 24.65 26.48 26.38 27.56 27.67 26.17 17.57 13.32 14.50 15.94 17.11 17.62 19.39 22.62 25.92 26.95 26.49 24.65 24.67 27.73 28.76 28.61 28.63 28.78 28.64 28.11 27.93 28.44 29.02 29.27 29.40 29.68 29.92 30.05 30.23 30.45 30.60 30.89 31.35 32.34 33.78 34.42 34.46 34.54 34.39 33.47 32.99 32.76 32.84 32.92 32.82 32.88 33.07 33.36 33.47 33.56 33.58 33.48 33.54 33.87 33.96 34.26 34.51 34.83 34.96 35.02 35.17 35.41 35.65 35.72 35.83 35.83 36.11 36.33 36.79 36.47 36.20 36.48 36.75 36.60 36.40 36.53 36.76 36.30 36.43 36.60 36.72 36.73 36.91 37.01 37.15 37.30 37.46 37.53 37.62 37.71 37.81 37.94 37.97 38.08 38.23 38.17 38.15 38.23 38.30 38.44 38.52 38.65 38.64 38.62 38.66 38.64 38.55 38.68 38.67 38.55 38.69 38.75 38.77 38.88 38.97 39.19 39.33 39.39 39.27 39.23 39.24 39.15 38.94 38.87 37.92 37.09 36.81 37.36 37.73 37.86 39.31 39.58 39.51 39.37 39.64 39.77 39.85 39.92 39.79 39.86 39.66 39.06 38.34 37.66 36.87 36.46 36.30 36.65 36.97 37.53 38.32 39.10 39.88 40.46 40.88 41.08 41.35 41.44 41.34 41.45 41.78 41.35 41.49 42.23 42.62 42.84 43.12 43.42 43.68 43.99 44.27 44.46 44.66 44.92 45.16 45.12 45.11 45.32 45.39 45.55 45.67 45.91 45.89 46.14 46.48 47.20 46.95 46.82 46.88 47.07 47.37 47.60 47.80 47.99 48.13 48.33 48.46 48.53 48.57 48.58 48.58 48.61 48.72 48.89 48.92 49.05 49.26 49.34 49.43 49.50 49.67 49.79 49.79 49.99 50.16 50.44 50.68 50.96 51.11 51.25 51.57 51.55 51.73 52.03 52.49 52.77 53.11 53.26 53.55 53.86 54.01 54.21 54.32 54.55 54.78 55.06 55.26 55.46 55.72 55.85 56.05 56.31 56.35 56.37 56.32 56.45 56.44 56.41 56.42 56.60 56.75 56.61 56.44 56.38 56.19 56.15 55.99 55.92 56.05 56.35 56.65 56.54 56.30 56.26 56.03 55.76 55.55 55.74 56.02 55.87 55.88 56.30 56.39 56.53 56.54 56.69 57.02 57.19 57.28 57.24 57.45 57.63 57.47 57.41 58.00 58.73 58.89 58.64 58.47 58.71 59.02 59.16 59.21 59.17 59.15 59.45 59.55 59.54 59.56 59.81 59.91 59.91 59.96 59.97 59.97 60.00 59.96 60.02 59.85 59.79 59.69 59.60 59.54 59.53 59.48 59.56 59.45 59.43 59.39 59.39 59.33 59.24 59.04 58.91 58.70 58.55 58.44 58.27 57.72 57.26 56.57 55.81 54.67 54.20 54.77 52.34 52.72 55.16 56.11 56.83 57.50 58.41 59.41 60.13 60.81 61.45 61.77 62.29 63.19 64.05 64.88 66.49
29.33 29.43 29.56 29.55 29.47 29.42 29.35 29.23 29.14 29.07 28.95 28.98 29.03 28.91 28.70 28.60 28.52 28.51 28.44 28.39 28.47 28.56 28.62 28.58 28.44 28.52 28.50 28.51 28.54 28.36 28.25 28.16 28.25 28.40 28.42 28.27 28.31 28.43 28.33 27.73 27.09 25.97 25.44 27.47 27.40 27.56 27.80 27.52 21.29 13.90 14.01 15.37 16.47 17.21 18.22 20.37 23.78 26.16 27.02 25.80 24.62 26.58 28.48 28.93 28.88 29.12 29.08 29.07 28.68 28.59 28.79 29.17 29.45 29.73 30.00 30.23 30.43 30.53 30.58 30.73 30.96 31.47 32.36 33.55 34.21 34.47 34.65 33.96 33.28 33.00 32.89 32.69 32.79 32.97 33.29 33.52 33.48 33.60 33.62 33.34 33.50 33.88 33.91 34.18 34.53 34.72 34.90 35.10 35.23 35.37 35.75 35.75 35.98 36.16 36.26 36.49 37.05 36.74 36.41 36.67 36.65 36.59 36.38 36.47 36.74 36.34 36.46 36.52 36.82 36.84 37.14 37.58 37.41 37.50 37.53 37.61 37.70 37.86 37.96 38.12 38.07 38.17 38.30 38.22 38.22 38.32 38.46 38.64 38.67 38.73 38.77 38.70 38.78 38.82 38.81 38.79 38.79 38.73 38.88 38.92 38.95 38.96 39.02 39.30 39.45 39.45 39.40 39.33 39.37 39.28 39.34 39.13 37.75 36.81 38.11 38.80 38.90 38.35 39.08 39.56 39.72 39.67 39.71 39.82 39.90 40.00 39.86 39.96 39.74 39.45 38.84 38.10 37.10 36.83 36.56 36.36 36.73 37.61 38.66 39.87 40.47 40.91 41.34 41.37 41.39 41.44 41.68 41.89 42.17 42.04 42.11 42.46 42.71 43.07 43.30 43.32 43.62 43.96 44.23 44.49 44.65 44.83 44.96 44.81 44.80 45.17 45.27 45.46 45.56 45.86 45.88 46.12 46.43 46.63 46.82 47.03 47.01 47.22 47.46 47.65 47.90 48.01 48.19 48.43 48.55 48.61 48.61 48.65 48.78 48.85 48.88 48.95 48.86 48.96 49.23 49.48 49.67 49.83 49.96 49.95 50.03 49.90 50.41 50.64 50.74 51.01 51.07 51.30 51.46 51.59 51.93 52.17 52.42 52.70 52.88 53.14 53.39 53.66 53.81 54.06 54.29 54.42 54.73 55.02 55.33 55.48 55.71 55.86 56.18 56.44 56.52 56.53 56.56 56.71 56.77 56.78 56.73 56.80 57.03 56.96 56.88 56.77 56.45 56.43 56.35 56.28 56.41 56.59 56.89 56.89 56.85 56.63 56.46 56.10 55.86 55.98 56.50 56.36 56.46 57.37 57.53 57.27 57.13 57.20 57.43 57.63 57.60 57.62 57.82 58.12 57.95 57.76 58.17 59.02 59.23 58.86 58.58 58.81 59.31 59.40 59.33 59.40 59.32 59.57 59.73 59.73 59.90 60.08 60.18 60.25 60.20 60.09 60.18 60.26 60.22 60.14 60.01 59.90 59.88 59.98 59.78 59.78 59.74 59.69 59.56 59.54 59.51 59.47 59.45 59.43 59.19 58.97 58.84 58.74 58.56 58.30 58.00 57.50 57.03 56.11 54.71 54.75 55.23 52.89 52.48 55.25 56.24 56.97 57.70 58.40 59.27 60.04 60.73 61.34 61.75 62.37 63.15 63.89 64.69 65.66
29.28 29.26 29.48 29.54 29.48 29.50 29.41 29.32 29.19 29.12 29.02 28.96 29.04 28.80 28.73 28.61 28.57 28.55 28.52 28.52 28.54 28.61 28.66 28.68 28.59 28.66 28.66 28.76 28.73 28.48 28.30 28.31 28.32 28.51 28.62 28.63 28.50 28.40 28.40 27.84 27.08 26.17 26.38 28.02 27.89 26.78 25.81 25.99 24.45 16.50 13.61 14.43 15.61 16.57 17.44 18.63 21.78 25.49 27.16 26.64 24.95 25.13 27.84 29.12 29.20 29.34 29.26 29.06 28.93 28.95 28.95 29.19 29.56 29.76 29.98 30.22 30.39 30.63 30.48 30.59 30.81 31.19 31.80 31.45 32.67 33.66 34.43 34.33 33.46 32.79 32.66 32.63 32.72 32.84 33.33 33.52 33.51 33.60 33.50 33.51 33.54 33.83 33.89 34.16 34.60 34.81 34.87 35.10 35.34 35.62 35.94 35.92 36.04 36.32 36.46 36.74 37.14 36.89 36.45 36.70 36.63 36.61 36.73 36.85 37.36 36.69 36.47 36.55 37.05 37.12 37.29 37.63 37.60 37.66 37.69 37.80 37.87 38.01 38.26 38.27 38.30 38.29 38.37 38.33 38.37 38.49 38.58 38.74 38.78 38.86 38.97 38.95 39.06 39.04 38.90 38.78 38.89 38.93 38.99 39.00 39.08 39.07 39.19 39.36 39.47 39.50 39.55 39.64 39.64 39.48 39.56 39.13 37.73 36.84 37.24 38.97 39.31 38.88 39.28 39.65 39.71 39.76 39.86 39.98 40.11 40.11 40.19 40.12 39.91 39.65 39.44 39.02 37.51 36.80 36.66 36.70 37.29 37.72 38.21 39.13 39.81 40.21 40.89 40.96 40.97 41.17 41.80 42.11 42.16 42.21 42.23 42.47 42.78 43.04 43.31 43.36 43.58 43.87 44.07 44.25 44.27 44.40 44.47 44.51 44.83 45.40 45.49 45.72 45.66 45.71 45.89 46.02 46.26 46.45 46.69 46.92 47.03 47.39 47.52 47.73 47.89 48.08 48.24 48.43 48.55 48.61 48.66 48.78 48.89 48.93 49.00 49.08 49.04 49.14 49.28 49.55 49.84 50.16 50.24 50.24 50.13 50.04 50.38 50.80 51.02 51.17 51.14 51.36 51.73 51.77 52.05 52.39 52.55 52.75 52.84 53.06 53.38 53.58 53.84 53.99 54.17 54.36 54.62 54.88 55.23 55.48 55.82 55.96 56.13 56.25 56.59 56.77 56.72 56.81 57.07 57.18 57.16 57.34 57.37 57.29 57.21 56.96 56.72 56.87 56.69 56.47 56.64 56.81 56.97 57.19 57.31 57.15 56.90 56.42 56.27 56.32 56.76 56.87 57.57 57.43 57.77 58.60 58.57 57.85 57.81 57.91 57.92 58.12 58.21 58.49 58.30 58.32 58.32 58.86 59.35 59.19 59.07 59.30 59.56 59.65 59.63 59.59 59.59 59.77 59.87 59.98 60.13 60.34 60.41 60.51 60.42 60.36 60.38 60.40 60.24 60.17 60.09 60.00 60.05 59.93 59.93 59.88 59.82 59.64 59.64 59.55 59.47 59.43 59.45 59.52 59.27 59.10 59.06 58.92 58.66 58.43 58.17 57.70 56.87 55.90 55.34 55.32 55.31 53.46 52.07 55.52 56.51 57.10 57.76 58.56 59.35 60.18 60.99 61.42 61.90 62.50 63.24 64.22 65.10 65.56
29.65 29.54 29.57 29.63 29.57 29.51 29.47 29.44 29.28 29.10 29.06 28.88 29.06 28.95 28.79 28.79 28.79 28.74 28.60 28.58 28.69 28.68 28.75 28.76 28.76 28.92 28.82 28.84 28.74 28.59 28.54 28.64 28.66 28.68 28.74 28.75 28.69 28.32 28.19 27.84 26.93 27.05 27.75 28.23 27.62 26.40 25.51 22.96 23.80 21.49 15.88 13.77 14.33 15.49 16.32 17.18 18.77 22.72 25.85 26.91 25.84 24.81 27.02 28.69 29.17 29.10 28.77 28.54 28.81 29.09 29.15 29.29 29.65 29.81 29.97 30.22 30.33 30.64 30.60 30.68 30.83 31.07 31.70 31.76 32.34 33.10 33.86 34.27 33.66 32.92 32.66 32.70 32.81 33.01 33.51 33.69 33.70 33.73 33.68 33.59 33.52 33.69 33.91 34.15 34.53 34.81 34.89 35.07 35.34 35.66 35.87 35.95 36.30 36.85 36.78 36.80 37.25 36.95 36.63 36.50 36.36 36.45 36.59 36.97 36.73 36.58 36.62 36.73 37.00 37.23 37.36 37.57 37.65 37.84 37.93 38.10 38.14 38.27 38.35 38.39 38.41 38.51 38.54 38.55 38.56 38.59 38.66 38.88 39.00 39.02 39.10 39.10 39.26 39.17 39.01 38.89 38.94 39.05 39.03 39.12 39.20 39.23 39.36 39.55 39.62 39.64 39.67 39.80 39.87 39.71 39.57 39.10 38.56 37.74 37.03 38.55 39.61 39.37 39.27 39.66 39.86 39.85 39.93 39.96 40.15 40.14 40.17 40.30 40.13 39.95 40.08 39.86 38.43 37.09 36.72 36.94 37.58 38.14 38.39 39.21 39.39 39.45 39.97 40.34 40.72 40.89 41.39 41.91 42.12 42.31 42.42 42.61 42.67 42.74 42.92 43.11 43.20 43.38 43.56 43.80 43.95 44.05 44.18 44.45 45.04 45.38 45.86 46.10 45.97 45.89 46.07 46.14 46.32 46.48 46.74 46.92 47.08 47.30 47.52 47.76 47.94 48.08 48.22 48.45 48.55 48.70 48.73 48.84 49.00 49.05 49.11 49.28 49.30 49.36 49.53 49.76 49.94 50.03 50.21 50.38 50.46 50.46 50.40 50.75 51.01 51.31 51.42 51.56 51.80 52.05 52.22 52.46 52.61 52.78 52.93 53.09 53.36 53.56 53.74 53.94 54.02 54.32 54.46 54.77 55.07 55.35 55.70 55.99 56.08 56.07 56.38 56.97 57.12 57.12 57.34 57.50 57.57 57.69 57.82 57.71 57.54 57.19 57.02 57.00 57.01 56.90 56.91 57.07 57.17 57.36 57.59 57.54 57.26 56.89 56.76 56.77 57.07 57.55 57.89 57.03 57.04 57.29 58.16 58.90 58.58 58.45 58.30 58.57 58.80 58.89 58.70 58.60 58.69 59.08 59.37 59.48 59.42 59.36 59.72 59.95 59.91 59.90 59.99 60.16 60.32 60.41 60.48 60.59 60.68 60.76 60.71 60.60 60.56 60.49 60.41 60.41 60.33 60.22 60.17 60.11 59.98 59.87 59.78 59.74 59.68 59.63 59.50 59.50 59.51 59.59 59.44 59.14 59.03 58.93 58.70 58.46 58.25 57.82 57.00 55.79 54.99 55.43 55.41 53.26 52.37 55.67 56.65 57.19 57.66 58.45 59.36 60.02 60.73 61.36 62.04 62.63 63.38 64.41 65.14 65.42
29.77 29.67 29.53 29.65 29.64 29.67 29.61 29.48 29.42 29.26 29.16 29.15 29.15 28.94 28.80 28.90 28.90 28.73 28.69 28.78 28.82 28.83 28.88 28.78 28.86 28.95 28.87 28.93 28.73 28.65 28.64 28.76 28.76 28.79 28.98 28.92 28.82 28.24 27.77 26.80 27.09 28.01 28.15 28.07 27.27 26.40 25.27 24.68 27.13 26.36 21.90 15.80 13.93 14.32 15.17 16.01 16.84 19.36 24.42 27.45 27.05 25.55 26.19 27.69 28.80 28.64 28.15 28.16 28.67 29.18 29.35 29.44 29.73 29.87 30.07 30.23 30.36 30.61 30.64 30.65 30.78 31.07 31.34 31.64 31.87 32.36 32.82 33.35 33.78 33.02 32.63 32.72 32.93 33.23 33.67 33.84 33.87 33.88 33.78 33.70 33.58 33.66 33.89 34.13 34.48 34.73 34.84 35.04 35.26 35.60 35.85 35.96 36.50 37.67 37.53 37.27 37.62 37.70 36.82 36.55 36.36 36.42 36.11 36.26 36.48 36.58 36.79 36.95 37.23 37.33 37.47 37.84 37.91 38.00 38.14 38.34 38.38 38.49 38.54 38.49 38.53 38.70 38.65 38.67 38.70 38.77 38.89 39.11 39.16 39.11 39.15 39.29 39.32 39.28 39.17 39.11 39.04 39.17 39.19 39.24 39.35 39.36 39.40 39.57 39.71 39.88 39.83 39.85 39.94 39.86 39.64 39.52 39.38 38.58 37.96 38.52 39.61 39.87 39.70 39.69 39.91 39.98 40.07 40.09 40.18 40.18 40.23 40.26 40.28 40.19 40.25 40.36 39.50 37.50 36.49 36.19 37.11 38.49 39.42 41.04 41.30 40.23 40.87 41.22 41.33 41.47 41.33 41.53 41.87 42.28 42.54 42.68 42.86 42.81 42.93 43.13 43.26 43.46 43.45 43.71 43.82 43.98 44.32 44.74 45.37 45.50 45.94 46.21 46.27 46.34 46.32 46.30 46.38 46.58 46.85 47.00 47.10 47.29 47.49 47.69 47.94 48.07 48.26 48.32 48.48 48.66 48.81 48.89 49.12 49.18 49.24 49.36 49.52 49.56 49.52 49.72 50.00 50.17 50.34 50.52 50.62 50.63 50.65 50.56 50.85 51.35 51.63 51.64 51.80 52.18 52.39 52.58 52.76 52.84 52.94 53.18 53.39 53.48 53.62 53.87 53.95 54.16 54.37 54.66 54.82 55.18 55.57 55.87 55.86 55.92 56.26 56.61 56.85 57.06 57.29 57.55 57.81 58.06 58.24 58.03 57.76 57.30 57.32 57.37 57.46 57.31 57.27 57.44 57.51 57.68 57.76 57.61 57.36 57.19 57.15 57.20 57.48 58.25 58.34 57.11 57.35 57.29 57.80 58.90 59.43 59.16 58.83 59.06 59.40 59.35 59.11 58.89 58.87 59.26 59.77 59.91 59.76 59.68 59.71 60.15 60.20 60.13 60.34 60.51 60.71 60.69 60.70 60.84 60.87 60.88 60.86 60.74 60.83 60.77 60.61 60.65 60.56 60.37 60.26 60.30 60.12 59.93 59.80 59.77 59.62 59.58 59.48 59.45 59.46 59.65 59.49 59.32 59.14 58.97 58.66 58.14 57.86 57.82 56.92 55.61 55.02 55.30 55.43 53.54 52.92 55.79 56.62 57.20 57.68 58.49 59.22 59.73 60.38 61.42 62.14 62.77 63.77 64.34 64.60 64.89
29.77 29.75 29.66 29.69 29.70 29.72 29.70 29.57 29.62 29.60 29.25 29.25 29.29 29.09 29.01 28.98 28.97 28.85 28.92 28.94 29.03 29.09 28.97 28.91 28.89 29.02 28.99 28.91 28.89 28.87 28.89 28.86 28.85 28.90 29.01 29.03 28.91 28.29 27.75 27.38 27.58 28.15 27.80 27.36 27.13 25.72 24.95 26.78 28.11 27.16 25.53 20.83 16.56 14.43 14.39 14.98 15.35 15.93 21.00 26.45 27.36 26.54 26.16 26.55 26.98 27.49 27.85 28.46 28.76 29.20 29.46 29.60 29.83 29.84 30.06 30.16 30.37 30.67 30.69 30.64 30.78 30.94 31.22 31.49 31.72 31.91 32.28 32.52 32.78 32.47 32.44 32.64 32.86 33.26 33.63 33.76 33.85 33.96 34.01 33.84 33.73 33.78 33.95 34.13 34.46 34.71 34.81 34.94 35.12 35.56 35.88 36.09 36.75 37.78 38.05 37.97 38.49 38.32 36.81 36.56 36.52 36.53 36.61 36.19 36.53 36.51 36.92 37.01 37.19 37.36 37.46 37.78 37.84 38.21 38.49 38.64 38.46 38.57 38.65 38.64 38.71 38.88 38.84 38.83 38.79 39.06 39.19 39.25 39.31 39.29 39.31 39.31 39.37 39.38 39.34 39.18 39.14 39.28 39.33 39.38 39.35 39.48 39.53 39.63 39.76 39.98 40.07 40.13 40.06 39.94 39.85 39.93 39.72 39.21 38.58 38.33 39.45 39.91 39.96 40.02 39.99 40.23 40.24 40.23 40.36 40.48 40.47 40.52 40.54 40.50 40.46 40.48 39.75 38.01 37.09 36.64 36.52 38.13 39.42 40.68 41.38 41.00 41.38 41.65 41.70 41.80 41.80 41.88 41.93 42.25 42.56 42.78 43.07 43.19 43.23 43.23 43.44 43.63 43.83 44.40 44.59 44.64 44.91 45.03 45.04 45.34 45.64 45.92 46.26 46.47 46.61 46.56 46.68 46.69 46.94 46.95 46.98 47.18 47.44 47.68 47.93 47.92 48.28 48.35 48.29 48.55 48.74 48.94 49.08 49.21 49.40 49.37 49.57 49.75 49.78 49.89 50.08 50.23 50.36 50.45 50.61 50.66 50.67 50.86 50.80 51.03 51.41 51.56 51.80 52.08 52.39 52.61 52.90 53.02 53.13 53.29 53.47 53.63 53.71 53.85 53.91 54.05 54.20 54.54 54.79 55.12 55.37 55.48 55.57 55.71 56.05 56.40 56.71 56.93 57.18 57.42 57.73 58.15 58.41 58.36 57.96 57.82 57.76 57.81 57.97 57.69 57.70 57.95 58.02 58.13 58.14 57.84 57.66 57.50 57.65 57.83 57.95 58.39 57.88 57.39 57.87 58.54 59.21 59.47 59.57 59.73 59.47 59.64 60.16 59.96 59.44 59.20 59.44 59.44 59.94 60.30 60.24 60.17 59.98 60.29 60.45 60.40 60.65 60.79 61.14 60.97 60.78 60.96 60.99 61.07 61.10 60.95 60.94 60.89 60.88 60.81 60.66 60.51 60.42 60.39 60.11 60.04 59.95 59.88 59.66 59.61 59.57 59.40 59.29 59.25 59.34 59.55 59.22 58.79 58.50 58.21 57.73 57.00 56.39 55.31 55.22 55.42 55.30 53.09 52.81 55.54 56.05 56.33 57.40 58.47 59.00 59.51 60.31 61.41 61.91 62.61 63.91 63.85 63.68 63.97
29.90 29.84 29.74 29.76 29.82 29.81 29.87 29.77 29.81 29.75 29.53 29.42 29.34 29.30 29.15 29.13 29.21 29.10 29.04 29.02 29.07 29.06 28.96 29.00 29.00 29.03 29.11 29.14 29.09 29.12 29.07 28.93 28.90 28.93 29.05 29.18 28.84 28.37 28.37 28.18 28.09 28.11 27.57 27.73 27.53 27.05 26.47 27.90 28.84 27.90 25.45 23.92 21.36 17.17 15.04 14.59 14.21 14.10 16.40 23.02 26.74 26.89 26.86 26.81 26.68 27.41 27.98 28.44 28.88 29.18 29.51 29.60 29.76 29.84 29.99 30.07 30.33 30.62 30.71 30.59 30.76 30.90 31.05 31.37 31.65 31.66 31.87 32.13 32.16 32.25 32.35 32.60 32.88 33.17 33.50 33.65 34.08 34.37 34.03 33.85 33.82 33.89 34.05 34.21 34.36 34.53 34.82 35.07 35.28 35.61 35.87 36.69 37.38 38.02 38.19 38.41 38.35 37.86 36.80 36.52 36.68 36.69 36.67 36.72 36.79 36.90 37.02 37.08 37.29 37.44 37.57 37.88 38.19 38.29 38.58 38.66 38.62 38.61 38.77 38.74 38.81 38.89 38.93 38.97 39.07 39.20 39.24 39.32 39.44 39.49 39.49 39.51 39.45 39.56 39.45 39.42 39.32 39.29 39.42 39.50 39.47 39.57 39.67 39.73 39.89 40.03 40.18 40.24 40.10 40.15 40.12 40.18 40.06 39.77 38.93 38.15 39.25 40.08 40.08 40.21 40.14 40.08 40.23 40.43 40.51 40.56 40.66 40.71 40.65 40.69 40.78 40.61 40.05 38.76 37.84 37.22 36.21 37.20 38.39 38.95 40.43 41.01 41.20 41.57 41.83 41.94 42.02 42.15 42.22 42.38 42.55 42.81 43.20 43.36 43.27 43.29 43.46 43.70 43.88 44.36 44.95 44.67 44.55 44.70 44.83 45.10 45.31 45.50 45.74 46.19 46.42 46.52 46.84 46.89 47.08 47.11 47.23 47.26 47.36 47.66 47.86 47.86 48.17 48.35 48.40 48.64 48.86 49.04 49.17 49.31 49.46 49.64 49.73 49.86 50.02 50.13 50.08 50.18 50.51 50.63 50.68 50.87 50.93 51.05 51.09 51.26 51.46 51.47 51.64 51.94 52.32 52.54 52.80 52.85 53.12 53.34 53.51 53.72 53.83 53.94 53.97 54.05 54.21 54.45 54.67 54.93 55.17 55.50 55.71 55.84 56.05 56.33 56.52 56.85 57.15 57.35 57.74 58.25 58.41 58.44 58.33 58.42 58.27 58.38 58.35 58.11 58.02 58.37 58.37 58.47 58.48 58.21 58.03 57.82 58.07 58.34 58.58 58.41 58.46 58.65 59.01 59.29 59.42 59.56 59.73 60.03 59.86 59.98 60.65 60.44 59.74 59.66 60.16 59.81 60.01 60.38 60.57 60.53 60.29 60.35 60.62 60.76 61.07 61.14 61.40 61.23 61.10 61.36 61.40 61.40 61.33 61.23 61.15 61.03 61.07 60.98 60.88 60.71 60.50 60.53 60.32 60.02 59.87 59.80 59.63 59.54 59.56 59.35 59.02 59.12 59.18 59.29 59.10 58.77 58.52 58.23 57.67 56.82 56.04 55.33 55.45 55.80 55.23 52.35 53.28 55.11 54.90 55.08 56.37 57.81 58.76 59.46 60.04 60.73 61.25 61.94 62.89 62.95 63.15 63.59
30.05 29.97 30.00 29.89 29.86 29.87 29.84 29.82 29.88 29.81 29.82 29.73 29.52 29.29 29.36 29.35 29.18 29.21 29.17 29.10 29.09 29.07 29.12 29.04 29.01 29.06 29.16 29.12 29.05 29.13 29.21 29.06 29.21 29.29 29.23 29.25 29.07 28.87 28.76 28.52 28.46 28.34 27.95 28.15 27.85 28.21 27.60 28.29 28.99 27.86 25.60 24.70 21.93 19.05 19.27 15.07 14.00 14.00 14.24 18.19 24.75 27.09 26.94 27.21 27.96 27.86 27.86 28.33 28.87 29.05 29.26 29.28 29.44 29.66 29.88 30.03 30.23 30.55 30.70 30.62 30.58 30.61 30.84 31.17 31.45 31.44 31.63 31.85 31.92 32.17 32.29 32.46 32.78 33.09 33.33 33.62 34.00 34.26 34.20 34.05 33.94 33.88 33.97 34.08 34.18 34.40 34.87 35.09 35.39 35.67 36.16 37.13 37.54 38.27 38.22 38.53 38.35 38.15 37.06 36.59 36.65 36.67 36.69 37.02 37.02 37.00 37.09 37.18 37.38 37.55 37.65 37.81 38.30 38.28 38.56 38.93 38.92 38.67 38.82 38.77 38.87 38.93 38.93 39.02 39.19 39.28 39.45 39.49 39.52 39.57 39.63 39.62 39.69 39.67 39.54 39.54 39.39 39.43 39.56 39.59 39.51 39.59 39.67 39.78 39.97 40.17 40.32 40.38 40.28 40.15 40.22 40.13 40.14 39.95 39.15 38.30 39.25 40.00 40.07 40.04 40.13 40.12 40.27 40.50 40.56 40.62 40.65 40.80 40.89 40.92 41.00 40.87 40.70 40.26 39.19 37.55 36.15 37.18 38.04 38.27 39.26 39.85 40.52 41.43 42.09 42.23 42.24 42.42 42.52 42.52 42.70 42.91 43.15 43.18 43.31 43.42 43.49 43.66 43.78 43.97 44.19 44.33 44.40 44.51 44.37 44.72 45.05 45.16 45.37 45.88 46.07 46.31 46.67 46.98 47.23 47.18 47.22 47.35 47.46 47.56 47.77 47.99 48.27 48.36 48.57 48.83 48.93 49.12 49.35 49.42 49.59 49.74 49.87 49.97 50.16 50.18 50.14 50.33 50.59 50.76 50.86 50.94 51.01 51.15 51.30 51.37 51.47 51.72 51.92 52.06 52.13 52.37 52.59 52.88 53.09 53.35 53.57 53.73 53.87 54.06 54.17 54.29 54.41 54.48 54.51 54.89 55.10 55.34 55.48 55.72 55.97 56.19 56.40 56.71 57.04 57.42 57.87 58.17 58.28 58.44 58.63 58.70 58.77 58.79 58.62 58.36 58.38 58.81 58.86 58.88 58.74 58.66 58.39 58.13 58.33 58.76 58.95 58.96 59.21 59.27 59.33 59.46 59.61 59.86 60.09 60.34 60.27 60.18 60.70 60.66 60.18 59.94 60.62 60.27 60.42 60.75 60.85 60.83 60.63 60.70 60.95 61.07 61.37 61.57 61.74 61.77 61.68 61.84 61.74 61.72 61.69 61.60 61.53 61.35 61.26 61.12 61.03 60.90 60.62 60.53 60.44 60.09 59.90 59.77 59.68 59.60 59.65 59.30 58.91 58.82 58.83 58.78 58.74 58.56 58.30 57.87 57.27 56.77 55.95 55.48 55.83 56.05 54.91 52.17 55.19 56.55 56.45 55.79 56.08 57.62 58.47 58.95 59.39 60.13 60.94 61.41 62.13 62.71 63.37 63.91
30.19 30.12 30.19 29.95 29.85 29.97 29.85 29.79 29.91 29.90 29.94 29.89 29.82 29.48 29.34 29.39 29.20 29.22 29.25 29.32 29.21 29.18 29.14 29.07 29.11 29.22 29.26 29.21 29.07 29.11 29.29 29.44 29.50 29.40 29.29 29.18 29.13 29.09 29.00 28.90 28.69 28.61 28.48 28.56 28.25 28.62 28.54 28.72 28.96 28.03 27.17 25.30 22.86 20.91 23.22 19.60 14.33 14.00 14.01 14.73 19.07 24.40 26.03 26.88 28.52 28.43 27.93 28.09 28.72 28.90 29.09 29.11 29.29 29.62 29.91 30.12 30.31 30.60 30.64 30.37 29.42 29.35 30.33 30.93 31.22 31.50 31.74 31.88 31.90 32.07 32.24 32.42 32.65 32.90 33.24 33.64 33.89 34.09 34.34 35.37 34.27 33.97 34.06 34.04 34.17 34.37 34.74 34.97 35.25 35.49 36.40 37.21 37.95 38.62 38.53 38.54 39.17 38.75 37.73 36.75 36.77 36.85 36.97 37.56 37.27 37.06 37.19 37.39 37.33 37.51 37.68 37.98 38.09 38.31 38.79 39.07 38.98 38.82 38.81 38.95 38.94 39.02 39.04 39.11 39.22 39.34 39.60 39.69 39.71 39.75 39.85 39.86 39.81 39.80 39.72 39.65 39.55 39.56 39.65 39.67 39.70 39.66 39.78 39.99 40.04 40.29 40.42 40.47 40.49 40.27 40.26 40.13 39.86 39.47 38.97 38.79 39.00 39.67 39.84 39.78 40.21 40.39 40.31 40.48 40.64 40.77 40.83 40.97 41.12 41.04 41.09 41.07 41.22 40.92 39.76 37.62 36.96 37.65 38.19 38.06 38.67 39.51 40.48 41.28 42.38 42.41 42.41 42.63 42.56 42.79 42.91 43.46 44.05 43.28 43.29 43.46 43.51 43.70 43.87 44.01 44.08 44.06 44.46 43.97 43.28 44.43 44.84 45.01 45.12 45.52 45.97 46.52 46.74 47.00 47.18 47.27 47.36 47.48 47.64 47.74 47.89 48.10 48.28 48.40 48.67 48.91 49.02 49.24 49.40 49.49 49.58 49.85 50.07 50.16 50.22 50.23 50.29 50.41 50.68 50.77 50.86 50.98 51.20 51.36 51.35 51.61 51.65 51.77 51.90 52.22 52.38 52.48 52.53 52.74 52.99 53.29 53.47 53.73 54.02 54.16 54.40 54.45 54.50 54.63 54.51 54.73 54.98 55.27 55.27 55.45 55.65 55.90 56.16 56.54 56.89 57.32 57.67 57.93 58.13 58.32 58.59 58.80 58.99 58.99 58.93 58.70 58.67 59.08 59.17 59.24 59.21 59.18 58.83 58.60 58.78 59.11 59.19 59.28 59.38 59.47 59.63 59.79 59.96 60.18 60.42 60.61 60.70 60.64 60.81 60.88 60.52 60.27 60.66 60.68 60.74 61.21 61.67 61.78 61.30 61.01 61.38 61.80 61.84 62.19 62.28 62.12 61.96 62.02 62.12 62.09 62.04 61.91 61.84 61.69 61.58 61.31 61.30 61.21 60.90 60.84 60.62 60.27 60.04 59.89 59.73 59.72 59.52 59.11 58.84 58.46 58.46 58.47 58.57 58.42 58.15 58.03 57.49 56.91 56.68 55.87 55.94 56.05 54.00 53.09 56.23 56.85 57.17 56.79 56.29 56.57 57.08 58.01 58.99 60.28 61.42 61.83 62.33 62.92 63.50 64.27
30.34 30.35 30.32 30.15 30.29 30.33 30.01 29.89 29.99 29.96 29.94 29.86 29.78 29.01 29.30 29.56 29.50 29.38 29.32 29.42 29.29 29.32 29.27 29.23 29.32 29.51 29.44 29.35 29.11 29.18 29.34 29.39 29.46 29.36 29.28 29.21 29.21 29.26 29.13 28.99 28.89 28.95 28.92 28.81 28.74 28.83 29.09 29.02 29.01 28.82 28.16 26.12 24.51 22.09 23.41 23.29 16.63 14.18 14.00 14.01 14.38 17.85 23.01 26.17 28.64 28.96 28.22 28.18 28.57 28.81 29.07 29.15 29.45 29.81 29.98 30.15 30.25 30.44 30.06 29.25 29.04 29.64 30.64 31.05 31.23 31.57 31.78 31.93 31.94 32.11 32.25 32.34 32.55 32.72 33.10 33.45 33.74 33.93 34.11 34.46 34.30 34.09 34.16 34.16 34.12 34.36 34.72 35.00 35.29 35.30 36.13 37.57 38.19 38.88 39.12 38.99 39.52 38.76 37.72 36.92 36.93 36.91 36.63 36.87 37.22 37.08 37.07 37.37 37.40 37.55 37.76 38.04 38.23 38.50 38.69 39.03 39.08 38.99 38.94 38.95 38.99 39.01 39.00 39.04 39.28 39.41 39.66 39.72 39.75 39.81 39.77 39.94 39.99 40.00 39.97 39.86 39.66 39.77 39.79 39.78 39.89 39.95 40.01 40.13 40.20 40.42 40.48 40.52 40.57 40.49 40.31 40.05 39.90 39.79 39.48 38.93 38.90 39.51 39.93 39.72 40.10 40.39 40.57 40.61 40.72 40.86 41.08 41.22 41.30 41.35 41.24 41.31 41.36 40.71 39.41 37.91 37.00 37.52 38.05 38.19 38.73 39.53 40.72 41.70 42.04 42.08 42.36 42.70 42.75 42.95 43.07 44.51 44.84 43.84 43.40 43.46 43.52 43.75 43.93 44.01 43.96 44.09 44.39 44.45 44.13 44.28 44.48 44.64 45.14 45.49 45.87 46.48 46.67 46.72 46.85 47.10 47.40 47.47 47.75 47.88 48.12 48.19 48.31 48.56 48.78 48.97 49.23 49.44 49.58 49.69 49.71 49.96 50.16 50.28 50.32 50.31 50.35 50.52 50.74 50.82 50.83 51.01 51.21 51.52 51.64 51.70 51.99 51.97 52.05 52.23 52.43 52.51 52.67 52.71 52.91 53.20 53.45 53.68 53.90 54.10 54.23 54.29 54.38 54.49 54.52 54.73 54.92 55.07 55.27 55.37 55.58 55.71 56.01 56.41 56.68 57.06 57.46 57.67 57.83 58.08 58.31 58.68 59.10 59.21 59.23 58.97 58.96 59.23 59.45 59.75 59.61 59.46 59.26 59.11 59.22 59.58 59.88 59.83 59.84 59.91 60.11 60.25 60.45 60.45 60.78 60.93 61.11 61.22 61.26 61.21 60.91 60.77 61.09 61.21 60.94 61.79 61.92 61.51 62.16 61.73 61.66 62.02 62.35 62.65 62.53 62.26 62.23 62.31 62.49 62.49 62.42 62.26 62.13 62.01 61.73 61.50 61.62 61.50 61.14 60.94 60.68 60.43 60.15 59.92 59.76 59.45 59.12 58.80 58.49 58.14 58.15 58.06 58.27 58.10 57.92 57.99 57.03 55.57 55.59 56.63 56.07 55.60 52.91 54.05 56.42 56.97 57.19 57.15 57.03 57.12 57.87 58.64 59.21 60.62 61.87 62.27 62.69 63.11 63.70 64.41
30.45 30.50 30.51 30.46 30.50 30.52 30.26 30.06 30.05 29.99 30.03 29.95 29.88 29.42 29.69 29.76 29.58 29.39 29.35 29.58 29.39 29.40 29.34 29.33 29.43 29.56 29.48 29.27 29.27 29.42 29.46 29.46 29.47 29.47 29.37 29.48 29.49 29.45 29.32 29.06 29.10 29.03 29.12 28.84 28.75 28.76 29.04 28.93 28.92 28.69 28.46 27.34 25.37 23.29 23.38 23.51 21.34 16.21 14.00 14.00 14.00 14.27 17.37 23.85 28.03 29.27 28.74 28.41 28.72 29.01 29.19 29.42 29.65 29.92 30.03 30.15 30.10 29.61 28.46 28.80 29.87 30.39 30.82 31.21 31.46 31.71 31.87 32.10 32.18 32.25 32.35 32.40 32.44 32.59 32.79 33.18 33.58 33.89 34.32 34.39 34.44 34.30 34.25 34.27 34.25 34.25 34.59 34.76 34.99 35.17 35.55 36.87 37.69 38.43 38.57 38.97 38.88 38.38 37.51 36.96 36.97 36.85 36.86 36.88 37.08 36.76 36.96 37.15 37.40 37.57 37.77 38.13 38.37 38.55 38.75 38.79 38.80 38.88 38.95 38.95 38.94 38.96 39.05 39.19 39.38 39.52 39.77 39.90 39.85 39.93 39.90 39.96 40.19 40.25 40.15 40.03 39.95 39.90 39.95 39.98 40.08 40.23 40.31 40.41 40.52 40.68 40.70 40.72 40.79 40.76 40.52 40.30 40.45 40.38 39.84 39.00 39.43 39.78 40.20 40.14 40.22 40.44 40.69 40.78 40.87 41.01 41.19 41.33 41.47 41.56 41.49 41.51 41.42 41.20 40.59 39.36 37.37 37.30 37.96 38.56 38.62 39.13 40.20 41.04 40.82 41.12 42.12 42.60 42.95 42.97 43.64 45.28 44.76 44.86 43.57 43.48 43.62 43.86 43.72 43.68 43.85 44.26 44.31 44.52 44.87 44.80 44.44 44.56 44.98 44.82 45.40 46.02 46.09 46.03 46.43 46.85 47.35 47.59 47.89 48.10 48.24 48.33 48.58 48.82 49.01 49.24 49.40 49.64 49.77 49.85 50.03 50.10 50.34 50.45 50.57 50.51 50.57 50.59 50.76 50.80 50.95 51.08 51.17 51.36 51.62 51.66 51.89 52.14 52.26 52.28 52.49 52.70 52.76 52.81 53.12 53.44 53.70 53.84 53.91 54.06 54.21 54.17 54.34 54.68 54.85 54.96 55.10 55.11 55.17 55.43 55.77 55.85 56.03 56.44 56.58 56.94 57.47 57.47 57.59 57.83 58.11 58.63 59.03 59.23 59.23 59.15 59.21 59.37 59.63 59.96 60.12 60.07 59.77 59.71 59.84 59.90 60.23 60.37 60.25 60.33 60.45 60.64 60.86 61.00 61.20 61.56 61.72 61.88 61.80 61.61 61.36 61.57 61.39 61.31 61.63 62.11 61.36 60.90 61.93 62.17 62.00 62.14 62.53 62.83 62.79 62.62 62.61 62.74 62.85 62.81 62.79 62.58 62.52 62.35 62.02 61.84 61.76 61.60 61.32 61.00 60.74 60.57 60.20 59.95 59.69 59.38 59.02 58.67 58.59 58.43 58.19 57.82 57.76 57.41 57.22 56.64 56.30 56.06 55.36 57.20 56.32 54.04 52.99 55.18 56.67 57.14 57.26 57.50 57.62 57.87 58.57 59.47 60.00 60.97 62.08 62.48 63.01 63.52 64.10 65.20
30.51 30.62 30.62 30.61 30.72 30.62 30.47 30.24 30.24 30.13 30.12 30.12 30.14 30.11 29.98 29.94 29.75 29.56 29.49 29.52 29.55 29.49 29.46 29.44 29.51 29.54 29.41 29.31 29.44 29.43 29.52 29.53 29.53 29.55 29.49 29.53 29.55 29.57 29.53 29.27 29.35 29.24 29.10 28.33 28.04 28.18 27.97 28.15 27.99 27.72 27.67 26.82 25.90 23.40 22.09 22.82 20.87 19.03 16.96 15.57 14.12 14.01 14.47 17.12 23.55 28.73 29.01 28.78 28.85 29.47 29.37 29.54 29.80 29.97 29.97 30.07 30.07 29.61 27.99 28.16 29.38 30.07 30.42 30.99 31.48 31.66 31.99 32.18 32.18 32.21 32.32 32.35 32.41 32.53 32.69 32.98 33.43 33.82 34.33 34.32 34.28 34.29 34.19 34.27 34.28 34.30 34.42 34.75 34.97 35.06 35.55 36.27 36.64 37.90 38.31 38.41 38.21 38.44 37.96 37.16 37.06 37.00 36.99 37.00 37.07 36.83 37.18 37.29 37.54 37.81 37.93 38.19 38.37 38.53 38.57 38.72 38.77 38.84 38.94 38.98 38.88 38.95 39.14 39.36 39.39 39.57 39.79 39.96 39.96 40.11 40.16 40.25 40.37 40.40 40.37 40.22 40.19 40.08 40.04 40.06 40.20 40.42 40.61 40.67 40.71 40.84 40.82 40.90 40.98 40.88 40.75 40.69 40.67 40.64 40.22 38.96 39.56 40.06 40.53 40.65 40.43 40.39 40.67 40.97 41.03 41.24 41.45 41.57 41.63 41.71 41.66 41.60 41.61 41.56 41.41 40.34 38.51 37.56 37.19 37.54 38.15 38.63 39.29 39.73 39.66 40.11 40.99 41.70 42.17 42.66 43.89 44.97 44.92 44.57 43.43 43.53 43.65 43.74 43.43 43.48 43.71 44.24 44.30 44.56 44.74 44.56 43.77 44.07 44.51 43.13 43.03 43.76 44.74 44.63 45.90 46.73 47.33 47.66 47.93 48.19 48.31 48.54 48.81 49.18 49.45 49.55 49.55 49.85 50.02 50.14 50.32 50.33 50.51 50.62 50.73 50.77 50.82 50.94 51.02 50.89 51.07 51.18 51.36 51.38 51.55 51.71 51.93 52.22 52.22 52.38 52.68 52.85 53.04 52.98 53.14 53.43 53.68 53.88 54.02 54.17 54.39 54.44 54.51 54.80 55.03 55.17 55.25 55.30 55.34 55.45 55.74 55.78 55.87 56.12 56.41 56.72 57.05 57.17 57.40 57.81 58.05 58.46 58.78 59.11 59.20 59.17 59.28 59.40 59.61 59.82 60.01 60.06 60.13 60.16 60.34 60.41 60.59 60.72 60.81 60.96 61.12 61.13 61.31 61.49 61.70 62.31 62.59 62.50 62.37 62.16 61.98 61.89 61.69 61.86 62.37 62.15 61.62 61.73 62.12 62.62 62.43 62.40 62.89 63.13 63.10 63.02 63.06 63.32 63.30 63.26 63.20 63.03 62.96 62.66 62.29 62.18 61.91 61.59 61.40 61.16 60.70 60.40 60.20 59.96 59.68 59.55 59.32 59.13 59.01 58.81 58.72 58.40 58.07 57.52 57.34 56.49 56.11 55.80 56.09 57.25 54.71 53.02 54.46 55.86 57.01 57.37 57.48 57.75 57.93 58.27 59.11 59.83 60.75 61.30 61.97 62.56 63.35 64.08 64.48 65.32
30.64 30.82 30.72 30.79 30.74 30.67 30.54 30.48 30.55 30.40 30.23 30.27 30.19 30.10 30.00 30.04 30.01 29.80 29.66 29.61 29.62 29.61 29.66 29.51 29.49 29.48 29.44 29.40 29.40 29.51 29.49 29.48 29.32 29.38 29.42 29.56 29.62 29.58 29.65 29.51 29.47 29.45 29.28 28.57 27.94 27.68 26.32 25.75 26.10 26.63 26.81 27.17 26.36 22.90 20.32 19.87 21.34 24.01 21.71 19.86 16.48 14.34 14.47 14.56 15.59 22.51 28.36 28.91 28.14 28.58 29.46 29.71 29.87 30.03 30.14 30.24 30.03 29.66 27.84 27.92 29.35 30.22 30.60 31.00 31.32 31.58 31.83 31.95 32.07 32.06 32.04 32.25 32.48 32.73 32.83 32.96 33.29 33.61 33.86 33.87 33.99 33.98 33.94 34.07 34.25 34.36 34.48 34.71 34.97 35.00 35.43 35.81 35.89 36.87 38.41 38.08 38.04 39.06 38.53 37.58 37.62 37.63 37.36 37.44 37.42 37.56 37.53 37.66 37.75 38.01 38.03 38.00 38.30 38.53 38.58 38.66 38.68 38.81 38.95 39.07 39.00 39.03 39.25 39.41 39.49 39.69 39.86 40.16 40.18 40.18 40.31 40.46 40.54 40.61 40.57 40.35 40.29 40.21 40.13 40.14 40.42 40.72 40.85 40.95 41.01 41.12 41.06 41.07 41.10 41.02 41.07 41.02 40.85 40.72 39.92 38.89 39.55 40.03 40.47 40.70 40.78 40.69 40.66 41.13 41.14 41.27 41.53 41.73 41.75 41.77 41.85 41.86 41.84 41.73 41.46 40.47 39.70 38.67 37.59 37.48 37.40 37.60 37.98 38.59 39.24 39.24 39.11 39.56 39.98 41.06 42.44 43.52 44.80 43.86 43.48 43.48 43.55 43.54 43.24 43.33 43.64 44.12 44.39 44.68 44.57 43.58 42.81 43.09 42.97 42.01 41.89 42.06 42.52 43.70 45.28 46.24 47.19 47.57 47.60 47.90 48.20 48.53 48.87 49.23 49.54 49.65 49.71 49.98 50.22 50.29 50.48 50.54 50.67 50.78 50.88 50.96 51.06 51.13 51.19 51.18 51.25 51.40 51.49 51.51 51.66 51.82 51.95 52.19 52.32 52.28 52.61 52.67 52.93 53.20 53.44 53.39 53.55 53.90 54.04 54.22 54.46 54.58 54.75 54.94 55.18 55.47 55.58 55.59 55.54 55.65 55.78 55.89 55.91 55.93 56.17 56.42 56.47 56.94 57.35 57.72 57.96 58.15 58.47 58.82 58.98 59.06 59.21 59.42 59.44 59.62 59.84 60.04 60.22 60.29 60.41 60.62 60.75 61.04 61.26 61.35 61.57 61.74 61.94 62.14 62.37 62.99 63.66 63.18 63.21 62.89 62.55 62.52 62.27 62.54 62.92 62.92 62.76 62.90 63.07 63.05 62.99 63.13 63.34 63.45 63.51 63.48 63.49 63.73 63.65 63.70 63.64 63.42 63.18 62.91 62.55 62.33 61.95 61.72 61.40 61.10 60.83 60.59 60.45 60.20 59.94 59.72 59.53 59.26 59.12 59.09 59.32 58.88 57.94 57.38 57.23 56.88 55.96 55.82 56.83 55.53 52.90 53.94 55.39 56.60 57.30 57.62 58.00 58.36 58.68 59.05 60.03 61.13 61.84 62.22 62.28 62.89 63.67 64.50 65.04 65.49
30.88 30.99 30.92 30.81 30.68 30.69 30.72 30.64 30.64 30.58 30.51 30.34 30.24 30.13 30.01 30.09 30.07 29.99 29.72 29.50 29.64 29.80 29.79 29.67 29.49 29.58 29.56 29.54 29.47 29.39 29.44 29.52 29.36 29.50 29.54 29.61 29.67 29.64 29.68 29.70 29.52 29.49 29.56 29.27 28.64 28.30 27.79 26.79 25.28 25.02 25.47 27.49 26.72 23.25 20.67 19.87 24.08 26.10 23.94 21.84 20.43 17.29 14.92 14.50 14.50 15.40 22.23 27.84 27.45 27.97 29.21 29.69 29.91 29.99 30.13 30.25 30.11 29.62 27.45 28.81 30.11 30.40 30.59 30.94 31.30 31.42 31.60 31.78 32.02 32.00 32.10 32.19 32.46 32.87 32.99 32.99 33.25 33.54 33.36 33.45 34.09 33.62 33.75 34.03 34.28 34.46 34.45 34.56 34.78 35.06 35.63 35.80 35.63 36.44 37.87 38.01 37.90 38.59 39.23 37.55 37.53 37.38 37.41 37.81 37.61 37.55 37.42 37.51 37.67 37.86 37.92 37.83 38.15 38.20 38.30 38.43 38.49 38.76 38.87 39.00 39.02 39.03 39.26 39.48 39.54 39.69 39.93 40.23 40.26 40.21 40.39 40.62 40.64 40.67 40.66 40.51 40.42 40.37 40.24 40.27 40.50 40.82 40.98 41.08 41.13 41.16 41.18 41.21 41.24 41.20 41.31 41.19 40.98 40.55 39.56 38.96 39.49 39.79 40.34 40.79 41.00 41.01 40.81 41.18 41.23 41.34 41.55 41.83 41.96 41.92 42.10 42.01 42.03 41.83 41.32 40.95 40.70 38.78 38.34 39.30 39.27 38.24 37.43 37.65 37.85 38.28 38.71 38.39 37.84 38.85 40.51 42.11 42.98 42.50 42.72 42.57 42.43 42.49 42.58 42.75 43.50 44.14 44.71 44.74 44.47 43.14 42.16 41.85 41.22 42.72 43.24 43.63 42.79 42.34 43.32 45.27 45.85 46.10 46.75 47.59 48.15 48.57 48.80 49.15 49.32 49.60 49.77 49.98 50.28 50.34 50.49 50.71 50.83 51.01 51.02 51.06 51.21 51.26 51.35 51.47 51.52 51.59 51.84 51.82 51.84 52.11 52.10 52.26 52.51 52.48 52.54 52.93 53.05 53.26 53.47 53.51 53.68 53.96 54.04 54.08 54.35 54.55 54.78 55.03 55.27 55.64 55.72 55.79 55.84 55.91 56.01 56.17 56.25 56.24 56.41 56.49 56.56 56.81 57.11 57.26 57.48 57.68 58.04 58.34 58.61 58.64 58.88 59.18 59.16 59.39 59.63 59.82 60.03 60.18 60.29 60.45 60.66 61.06 61.43 61.41 61.63 61.98 62.35 62.68 62.83 63.27 63.84 64.01 63.93 63.60 63.20 62.88 62.63 62.76 62.99 63.07 63.18 63.22 63.30 63.35 63.41 63.46 63.55 63.75 63.99 63.98 64.05 64.09 64.05 64.12 64.07 63.69 63.39 63.17 62.84 62.50 62.23 61.97 61.66 61.34 61.07 60.87 60.71 60.44 60.25 59.91 59.60 59.31 59.13 58.92 58.82 58.50 58.06 57.52 57.24 57.20 56.94 56.65 55.80 53.73 54.03 54.82 55.76 56.97 57.57 57.84 58.32 58.74 59.10 59.76 61.06 61.82 62.06 62.42 62.57 63.12 63.82 64.48 65.12 65.71
31.04 31.10 30.97 30.86 30.87 30.78 30.77 30.71 30.77 30.75 30.66 30.49 30.36 30.26 30.17 30.19 30.18 30.08 29.89 29.72 29.88 29.78 29.78 29.76 29.65 29.65 29.62 29.57 29.67 29.70 29.66 29.68 29.65 29.68 29.62 29.63 29.69 29.74 29.70 29.68 29.59 29.55 29.55 29.50 29.13 28.80 28.59 28.09 26.32 24.85 23.80 25.51 25.59 22.18 21.69 21.81 23.77 26.18 25.81 23.46 21.86 20.58 17.98 15.58 14.55 14.50 15.50 21.60 25.49 27.78 29.08 29.81 29.95 30.11 30.17 30.23 30.29 29.24 26.82 28.90 29.59 29.43 29.81 30.70 30.67 30.88 31.27 31.51 31.69 31.93 31.94 32.07 32.41 32.74 32.89 32.96 33.04 33.15 33.01 33.15 33.99 33.64 33.94 34.08 34.26 34.51 34.54 34.49 34.64 35.19 35.40 35.44 35.61 36.60 37.35 37.25 37.11 37.75 37.84 37.51 37.56 37.62 37.57 37.92 37.71 37.57 37.45 37.55 37.66 37.81 37.91 37.96 38.08 38.27 38.56 38.48 38.53 38.83 38.74 38.70 38.99 39.05 39.28 39.47 39.53 39.64 39.85 40.06 40.22 40.32 40.53 40.70 40.82 40.82 40.84 40.83 40.71 40.56 40.46 40.52 40.76 40.90 41.00 41.17 41.25 41.35 41.44 41.51 41.59 41.55 41.48 41.36 41.16 40.51 39.65 39.02 39.63 39.95 40.27 40.78 41.05 41.36 40.98 41.23 41.41 41.45 41.65 41.92 42.12 42.16 42.26 42.31 42.26 42.04 41.21 40.58 41.03 38.72 38.39 38.88 40.06 39.59 38.56 38.26 38.20 38.27 38.39 38.19 37.73 37.87 38.48 39.64 40.68 40.39 40.55 40.86 41.11 41.39 42.06 42.23 43.10 43.63 44.58 44.46 43.48 42.36 41.60 41.11 41.75 42.89 43.77 44.42 44.55 43.47 42.49 42.97 43.98 44.71 46.36 47.52 48.11 48.37 48.61 48.82 49.05 49.36 49.71 49.79 50.10 50.19 50.44 50.65 50.84 51.07 51.14 51.26 51.47 51.51 51.67 51.67 51.80 51.76 51.85 52.03 52.13 52.29 52.38 52.46 52.56 52.79 52.79 53.02 53.27 53.46 53.53 53.54 53.72 54.04 54.12 54.17 54.35 54.61 54.88 55.02 55.14 55.47 55.74 55.93 56.07 56.18 56.27 56.31 56.44 56.47 56.50 56.63 56.71 56.98 57.01 56.97 57.16 57.33 57.60 57.80 57.95 58.14 58.36 58.66 58.96 59.23 59.37 59.47 59.48 59.64 59.87 60.11 60.51 60.82 61.31 61.54 61.75 62.12 62.48 62.79 63.19 63.69 64.21 64.56 64.25 63.89 63.61 63.39 62.99 62.88 63.19 63.31 63.36 63.50 63.55 63.68 63.89 63.83 64.03 64.00 64.22 64.34 64.51 64.51 64.53 64.53 64.21 63.92 63.79 63.65 63.17 62.84 62.51 62.12 61.71 61.44 61.17 60.95 60.79 60.57 60.32 59.81 59.54 59.15 58.89 58.54 58.31 58.31 58.18 57.62 57.29 57.06 56.99 56.66 54.28 54.11 55.11 55.44 56.18 57.04 57.63 58.26 58.59 58.99 59.49 60.35 61.29 61.52 61.83 62.36 62.85 63.45 63.91 64.36 64.95 65.49
31.21 31.17 31.13 30.95 30.96 30.96 30.95 30.85 30.85 30.84 30.83 30.66 30.54 30.36 30.26 30.27 30.24 30.17 30.15 29.83 29.97 29.93 29.89 29.62 29.62 29.74 29.75 29.76 29.77 29.70 29.66 29.72 29.76 29.77 29.76 29.75 29.77 29.77 29.80 29.81 29.65 29.57 29.57 29.81 29.33 28.34 27.74 27.01 26.50 26.44 23.36 22.73 22.71 21.80 24.53 23.52 24.02 25.25 26.12 25.06 23.23 21.89 21.21 19.04 16.40 14.81 14.50 15.38 20.50 26.61 28.73 29.66 30.00 30.39 30.25 30.37 30.41 28.72 25.47 27.40 28.40 29.64 30.34 30.27 28.80 29.22 29.80 30.26 30.87 31.27 31.64 32.16 32.38 32.53 32.67 32.56 32.43 32.62 32.96 33.31 33.58 33.80 33.95 34.03 34.25 34.42 34.41 34.42 34.68 35.16 35.27 35.40 35.54 36.13 36.71 36.71 36.85 37.35 37.85 37.64 37.72 37.73 37.60 37.67 37.71 37.60 37.58 37.60 37.69 37.90 37.89 37.96 38.10 38.33 38.59 38.70 38.73 38.94 38.80 38.58 39.02 39.08 39.26 39.34 39.50 39.75 39.89 40.04 40.29 40.47 40.58 40.70 40.96 41.06 40.92 41.01 40.83 40.62 40.44 40.64 40.85 41.05 41.18 41.35 41.44 41.46 41.65 41.72 41.83 41.79 41.67 41.41 41.12 39.90 39.71 39.10 39.92 40.42 40.50 40.84 41.24 41.51 41.50 41.45 41.58 41.59 41.86 42.00 42.18 42.41 42.37 42.45 42.31 42.01 41.50 41.15 41.61 39.85 38.93 38.63 39.92 40.85 39.79 39.12 39.14 39.11 38.45 38.52 39.02 38.26 38.91 39.17 39.94 40.18 39.92 40.07 40.59 40.78 41.77 42.28 42.31 42.90 43.83 43.38 41.86 40.89 41.22 42.44 43.05 44.14 45.24 45.32 45.43 45.13 43.66 42.76 43.14 44.48 46.02 47.41 47.82 47.81 47.94 47.89 48.61 49.01 49.24 49.57 49.87 50.06 50.14 50.37 50.63 51.11 51.27 51.43 51.61 51.82 51.90 51.92 52.03 51.97 51.95 52.10 52.21 52.30 52.52 52.61 52.74 52.88 52.93 52.99 53.29 53.55 53.78 53.79 53.81 54.06 54.17 54.43 54.55 54.71 54.86 55.07 55.13 55.21 55.55 55.81 56.02 56.25 56.46 56.64 56.70 56.81 56.70 56.75 56.82 56.96 57.15 57.15 57.18 57.36 57.64 57.87 57.97 58.11 58.11 58.31 58.76 58.88 58.98 59.10 59.32 59.59 59.87 60.18 60.45 60.81 61.29 61.54 61.77 62.24 62.53 62.82 63.21 63.89 64.27 64.47 64.27 64.11 64.00 63.75 63.39 63.29 63.41 63.51 63.63 63.83 63.84 63.99 64.34 64.42 64.56 64.36 64.48 64.59 64.76 64.79 64.77 64.78 64.43 64.44 64.27 64.08 63.67 63.23 62.83 62.41 61.99 61.63 61.31 61.19 60.93 60.59 60.28 59.83 59.65 59.41 59.02 58.54 58.33 58.25 58.33 57.96 57.50 57.25 57.03 55.67 53.88 54.86 55.79 55.99 56.13 56.70 57.46 58.01 58.45 59.14 59.71 60.45 61.04 61.31 61.90 62.39 62.81 63.35 63.92 64.40 64.87 65.39
31.31 31.29 31.26 31.12 31.04 31.01 31.06 31.04 30.95 30.95 31.04 30.79 30.63 30.58 30.47 30.37 30.30 30.31 30.31 29.97 29.94 29.97 29.88 29.70 29.69 29.87 29.80 29.72 29.71 29.64 29.69 29.79 29.83 29.87 29.79 29.78 29.82 29.87 29.69 29.82 29.85 29.75 29.60 29.56 29.18 28.44 28.30 28.25 27.35 27.38 24.78 21.38 20.71 21.05 25.12 25.48 24.16 26.19 26.22 25.29 24.22 22.93 22.48 21.08 19.99 17.29 14.96 14.52 15.02 19.32 26.60 29.42 29.98 29.86 29.49 29.56 30.04 28.65 26.12 29.11 29.67 29.68 29.30 28.02 27.53 28.99 30.23 30.80 30.97 30.98 32.01 32.26 32.32 32.13 31.74 31.61 31.96 32.45 32.79 33.19 33.46 33.75 33.84 33.96 34.20 34.40 34.78 34.52 34.57 34.75 35.00 35.24 35.40 35.71 35.96 36.45 36.52 36.93 37.75 37.96 37.80 37.96 37.88 37.91 37.82 37.68 37.65 37.57 37.71 37.96 37.89 38.01 38.18 38.36 38.61 38.88 38.99 38.96 39.05 39.24 39.19 39.15 39.28 39.47 39.58 39.86 39.98 40.16 40.38 40.61 40.73 40.91 41.18 41.25 41.22 41.08 40.85 40.72 40.59 40.69 40.98 41.22 41.32 41.59 41.65 41.65 41.95 41.97 41.85 41.78 41.58 41.35 41.06 40.21 40.40 39.80 40.01 40.55 40.81 41.33 41.57 41.65 41.61 41.65 41.57 41.66 42.02 42.13 42.23 42.45 42.48 42.64 42.44 42.29 41.93 41.31 41.60 40.91 39.98 39.00 39.76 41.21 41.52 40.58 40.29 40.49 40.22 40.26 39.96 38.62 38.88 40.91 42.65 41.71 40.85 40.03 39.93 39.84 40.41 41.75 41.35 41.77 41.75 41.19 40.79 41.80 44.01 45.23 44.72 45.08 45.41 45.88 45.90 45.89 45.25 44.37 43.03 42.96 44.61 46.51 47.01 46.83 46.61 47.01 48.15 48.30 48.64 48.80 49.29 49.68 49.60 50.04 50.50 50.89 51.29 51.46 51.68 51.90 51.95 52.04 52.11 52.18 52.20 52.25 52.27 52.50 52.64 52.80 52.92 52.98 53.01 52.94 53.26 53.61 53.84 53.95 53.98 54.09 54.28 54.51 54.68 54.80 55.01 55.30 55.42 55.42 55.43 55.46 55.98 56.29 56.46 56.56 56.73 56.86 56.91 57.01 57.03 57.09 57.26 57.38 57.42 57.44 57.72 58.01 58.11 58.27 58.28 58.19 58.41 58.74 58.87 59.09 59.36 59.72 60.15 60.45 60.82 61.15 61.33 61.63 61.91 62.25 62.54 62.83 63.00 63.57 63.76 63.92 64.23 64.39 64.22 63.93 63.63 63.62 63.73 63.94 63.95 64.07 64.16 64.46 64.82 64.96 65.00 64.89 64.95 64.91 65.07 65.04 64.98 64.90 64.79 64.83 64.77 64.53 64.14 63.52 63.11 62.69 62.22 61.80 61.42 61.10 60.81 60.47 60.16 59.94 59.78 59.66 59.31 58.85 58.60 58.39 58.45 58.00 57.67 57.47 56.85 54.64 54.78 55.66 56.17 56.44 56.38 56.69 57.17 57.86 58.45 59.20 59.95 60.43 60.93 61.45 62.05 62.68 63.00 63.50 63.96 64.38 64.80 65.18
31.41 31.35 31.37 31.20 31.10 31.01 31.03 31.04 31.03 30.93 31.00 30.84 30.59 30.47 30.47 30.40 30.35 30.41 30.37 30.19 29.99 29.98 30.19 30.13 29.86 29.84 29.86 29.89 29.91 29.83 29.82 29.72 29.80 29.84 29.94 29.96 29.92 29.97 29.94 30.07 30.00 29.75 29.75 29.73 29.40 28.60 27.76 26.58 23.79 22.96 22.53 21.32 21.61 21.59 24.59 27.43 24.58 25.90 26.75 25.56 24.51 23.62 23.00 22.30 22.36 20.47 17.88 15.17 14.51 14.81 18.99 27.40 30.04 29.48 27.42 25.83 27.10 27.95 25.96 29.32 29.20 28.57 28.28 26.84 28.15 29.56 30.47 31.14 31.48 31.79 32.21 32.10 31.88 30.78 30.47 31.23 31.97 32.14 32.50 32.68 33.00 33.13 33.10 33.67 34.14 34.32 34.42 34.62 34.72 34.95 34.96 35.10 35.35 35.47 35.75 36.27 36.45 36.68 36.97 37.89 38.11 38.15 38.16 38.04 38.06 37.87 37.85 37.73 37.79 37.95 38.07 38.22 38.33 38.46 38.84 39.08 39.25 39.12 39.24 39.41 39.30 39.03 39.19 39.57 39.69 39.88 40.04 40.23 40.44 40.75 41.02 41.15 41.22 41.26 41.21 41.22 41.07 40.84 40.85 40.87 41.10 41.35 41.54 41.70 41.85 41.94 42.08 42.06 41.93 41.91 41.72 41.43 41.06 40.66 41.05 40.19 40.21 40.96 41.12 41.59 41.80 41.79 41.75 41.77 41.70 41.85 42.20 42.30 42.38 42.48 42.56 42.62 42.65 42.42 42.03 41.37 41.39 41.32 40.54 39.78 40.19 41.65 42.60 42.58 42.15 42.28 42.39 41.51 40.94 39.10 39.15 40.67 42.16 42.86 42.60 41.89 42.00 41.40 41.26 41.26 41.08 41.91 42.04 41.88 42.49 44.39 42.89 42.25 42.10 43.13 45.19 46.13 46.22 46.22 46.14 45.86 44.32 43.30 43.22 44.84 45.45 45.04 45.32 46.05 46.72 46.91 47.44 47.98 48.39 48.60 48.86 49.74 50.08 50.53 51.14 51.46 51.76 51.92 51.99 52.10 52.29 52.37 52.51 52.44 52.49 52.71 52.83 52.93 52.99 53.13 53.16 53.06 53.24 53.66 53.77 53.89 54.01 54.06 54.22 54.42 54.59 54.89 55.06 55.33 55.48 55.53 55.64 55.58 55.72 56.14 56.32 56.45 56.55 56.65 56.81 57.01 57.08 57.30 57.38 57.59 57.64 57.59 57.65 57.84 57.95 58.25 58.45 58.06 57.96 58.71 58.80 58.96 59.20 59.67 60.08 60.39 60.72 61.18 61.59 61.87 62.12 62.39 62.63 62.91 63.21 63.54 63.71 63.74 64.07 64.45 64.34 64.12 63.92 63.87 63.98 64.19 64.34 64.38 64.60 64.91 65.19 65.37 65.35 65.38 65.24 65.23 65.38 65.25 65.09 65.12 65.24 65.41 65.32 64.98 64.36 63.81 63.43 62.91 62.37 61.88 61.51 61.09 60.90 60.59 60.39 60.17 60.01 59.78 59.46 59.09 58.72 58.41 58.35 57.97 57.66 57.51 55.82 54.25 55.45 56.07 56.56 56.95 57.13 57.39 57.38 57.82 58.60 59.41 59.93 60.47 60.93 61.61 62.22 62.78 63.19 63.71 64.11 64.55 64.95 65.29
31.45 31.33 31.24 31.17 31.21 31.18 31.20 31.01 30.95 30.86 30.91 30.79 30.58 30.22 30.46 30.52 30.53 30.40 30.28 30.18 30.13 30.16 29.75 29.83 30.05 29.94 29.92 30.05 30.06 29.81 29.77 29.78 29.82 29.98 30.03 29.98 29.98 30.03 30.06 30.10 29.99 29.86 29.90 29.80 29.66 29.03 27.80 25.23 22.17 21.64 21.97 22.89 23.79 23.48 24.57 27.37 26.59 26.41 26.99 26.55 25.09 24.10 22.99 22.85 23.67 22.28 20.70 18.10 15.38 14.50 14.86 19.62 27.53 27.63 25.18 24.26 24.49 25.95 26.03 29.36 29.14 26.43 27.06 29.40 28.65 29.29 30.46 30.55 30.21 29.54 30.65 30.72 30.50 30.33 31.54 32.40 32.80 33.02 33.17 33.30 33.13 32.81 32.70 32.98 33.56 34.28 34.43 34.79 34.95 35.10 35.13 35.13 35.46 35.53 35.63 36.22 36.60 36.77 36.93 37.36 38.12 38.06 38.04 37.97 38.00 37.92 37.81 37.86 37.83 37.87 38.10 38.42 38.50 38.50 38.82 39.18 39.24 39.23 39.33 39.45 39.39 39.14 39.22 39.55 39.77 39.94 40.12 40.31 40.51 40.80 41.20 41.42 41.33 41.26 41.34 41.35 41.22 40.91 40.99 41.10 41.35 41.50 41.73 41.97 42.03 42.08 42.17 42.17 42.23 42.19 41.95 41.62 41.16 41.01 41.41 40.47 40.14 41.29 41.51 41.79 41.99 41.99 41.97 41.94 41.95 42.01 42.26 42.44 42.51 42.61 42.67 42.79 42.81 42.59 42.28 41.78 41.51 41.88 41.17 40.25 40.30 41.52 42.81 43.02 42.92 43.00 42.97 42.18 41.11 39.36 39.35 40.20 40.93 42.54 43.91 44.08 43.75 43.56 44.29 43.60 43.74 45.35 46.49 44.33 43.97 45.01 41.57 41.27 42.51 43.46 44.50 46.09 46.31 46.53 46.48 46.18 45.21 44.08 43.25 43.25 44.35 45.92 46.90 47.44 47.56 47.81 48.13 48.78 48.99 49.05 49.18 49.75 49.98 50.19 50.96 51.41 51.67 51.83 51.94 52.18 52.40 52.48 52.66 52.66 52.77 52.86 52.92 52.99 53.08 53.20 53.34 53.40 53.55 53.76 53.87 53.85 54.00 54.21 54.30 54.48 54.81 54.87 55.04 55.26 55.40 55.55 55.75 55.93 55.78 55.89 56.19 56.34 56.40 56.51 56.70 56.91 56.95 57.18 57.32 57.56 57.67 57.75 57.86 57.96 58.18 58.29 58.34 58.37 58.61 58.93 58.73 58.89 59.11 59.53 59.85 60.18 60.53 61.04 61.61 61.99 62.27 62.55 62.76 62.95 63.21 63.48 63.71 63.87 63.92 64.18 64.40 64.39 64.32 64.27 64.27 64.53 64.76 64.88 64.96 65.23 65.46 65.62 65.61 65.59 65.52 65.55 65.63 65.55 65.53 65.54 65.53 65.57 65.46 65.20 64.60 64.01 63.48 62.97 62.43 62.00 61.62 61.30 61.14 60.81 60.49 60.22 59.99 59.57 59.37 59.02 58.67 58.36 58.15 57.87 57.51 56.94 54.52 54.96 55.75 56.13 56.81 57.26 57.66 57.94 58.02 58.09 58.86 59.64 60.18 60.69 61.17 61.67 62.16 62.68 63.32 63.83 64.19 64.60 65.14 65.60
31.43 31.29 31.14 31.20 31.12 31.19 31.24 31.05 30.89 30.87 30.86 30.73 30.66 30.41 30.52 30.50 30.64 30.65 30.49 30.40 30.31 30.27 29.95 29.86 30.13 29.99 30.00 30.07 30.04 29.88 29.93 29.98 29.91 30.03 30.03 30.04 30.05 29.99 30.08 30.23 30.30 29.92 29.90 30.06 29.84 29.40 28.17 26.13 23.51 24.36 21.63 22.79 23.94 24.67 24.23 27.30 28.57 27.56 27.23 27.24 26.15 24.71 23.63 23.46 24.10 23.32 22.14 20.70 18.33 15.23 14.50 15.02 20.42 22.52 21.34 23.61 24.18 24.92 26.31 29.01 28.01 26.65 27.42 28.79 29.17 28.33 28.46 28.80 30.35 29.07 29.59 31.15 31.61 32.11 32.42 32.73 33.02 33.14 33.25 33.47 33.63 33.87 33.84 33.93 34.07 34.40 34.71 35.03 35.06 35.22 35.39 35.27 35.55 35.76 35.66 36.11 36.70 36.81 36.95 37.27 38.05 37.99 37.78 37.91 38.03 38.03 38.00 38.04 37.93 37.92 38.17 38.45 38.54 38.65 38.96 39.36 39.23 39.24 39.39 39.48 39.41 39.41 39.43 39.70 39.80 40.00 40.22 40.34 40.61 40.96 41.32 41.51 41.48 41.52 41.52 41.46 41.43 41.27 41.29 41.30 41.58 41.85 41.92 42.17 42.22 42.28 42.36 42.33 42.33 42.40 42.21 41.75 41.40 41.40 41.57 40.78 40.13 41.20 41.73 41.85 42.02 42.07 42.14 42.17 42.21 42.21 42.31 42.51 42.65 42.74 42.84 43.06 43.08 42.95 42.49 41.89 41.70 42.15 41.75 40.46 40.17 41.18 42.17 42.62 43.09 43.34 43.20 42.65 42.20 40.00 40.02 40.65 41.20 43.04 44.36 44.66 44.53 44.48 45.19 45.05 45.11 46.89 48.41 46.94 45.65 44.96 41.50 41.57 43.91 45.44 45.00 45.42 46.24 46.70 46.80 46.49 46.22 45.29 43.57 43.31 44.61 46.63 47.73 48.28 48.51 48.77 48.94 49.30 49.50 49.86 49.95 50.13 50.32 50.38 50.83 51.22 51.52 51.63 51.91 52.21 52.41 52.60 52.81 52.90 52.92 53.02 53.12 53.20 53.33 53.42 53.47 53.57 53.62 53.83 53.85 53.99 54.15 54.37 54.44 54.64 54.88 54.89 55.04 55.14 55.37 55.63 55.72 55.86 55.97 56.00 56.13 56.40 56.47 56.59 56.65 56.81 56.92 57.15 57.36 57.57 57.73 57.95 58.11 58.25 58.40 58.47 58.51 58.65 58.76 59.13 59.13 58.85 59.11 59.46 59.78 60.20 60.60 60.98 61.49 61.94 62.16 62.50 62.62 62.86 63.15 63.41 63.66 63.76 63.90 64.23 64.44 64.60 64.67 64.76 64.65 64.80 64.97 65.18 65.24 65.47 65.53 65.69 65.66 65.65 65.62 65.73 65.84 65.84 65.74 65.66 65.47 65.36 65.19 64.96 64.56 63.88 63.34 62.94 62.52 62.07 61.69 61.44 61.10 60.76 60.53 60.18 59.89 59.63 59.20 58.97 58.70 58.00 57.66 57.13 56.71 55.33 54.20 55.82 56.12 56.42 56.95 57.50 57.90 58.46 58.55 58.40 58.92 59.67 60.47 60.98 61.30 61.71 62.16 62.72 63.21 63.66 64.10 64.57 65.04 65.30
31.34 31.29 31.19 31.28 31.22 31.13 31.16 31.04 30.91 30.91 30.79 30.80 30.89 30.68 30.64 30.63 30.81 30.79 30.82 30.65 30.47 30.40 30.34 30.44 30.26 30.17 30.18 30.11 29.94 29.95 30.09 30.08 29.99 30.05 30.01 29.98 30.02 30.09 30.23 30.18 30.24 30.05 29.86 29.90 29.97 29.57 28.13 25.14 25.87 27.19 22.67 22.43 22.98 24.29 24.02 26.71 28.93 29.13 28.54 27.90 27.12 25.27 24.30 24.14 24.42 24.01 22.88 21.78 20.31 17.79 14.81 14.50 15.04 18.14 20.82 24.20 24.56 24.67 25.13 27.41 27.04 28.90 29.88 27.89 28.98 29.95 29.87 30.93 31.81 31.64 31.39 31.89 32.40 32.92 33.07 32.85 33.13 33.27 33.25 33.51 33.74 34.00 34.12 34.26 34.37 34.48 34.86 35.16 35.27 35.38 35.52 35.49 35.68 35.88 35.89 36.11 36.51 36.77 36.97 37.24 37.63 38.16 37.75 37.83 38.04 38.06 38.02 38.09 38.05 38.15 38.25 38.38 38.67 38.85 39.05 39.12 39.12 39.21 39.43 39.48 39.45 39.47 39.57 39.68 39.71 40.00 40.32 40.57 40.82 41.15 41.47 41.63 41.60 41.67 41.70 41.61 41.63 41.57 41.52 41.55 41.72 41.92 42.10 42.40 42.52 42.62 42.61 42.61 42.57 42.58 42.46 42.07 41.63 41.46 41.66 41.20 40.03 40.77 41.74 41.97 42.21 42.35 42.47 42.48 42.51 42.50 42.50 42.61 42.78 42.90 43.04 43.19 43.28 43.05 42.42 42.17 42.24 42.45 42.37 40.74 40.19 40.80 41.83 42.61 43.35 43.63 43.45 43.04 42.47 40.19 40.38 40.94 41.02 41.74 42.82 44.09 45.14 45.36 46.16 45.86 45.72 47.17 48.69 48.74 48.10 45.43 41.90 42.05 45.67 46.33 46.00 45.35 45.95 46.50 46.87 46.91 46.94 46.15 43.70 43.87 44.52 46.33 47.59 48.28 48.63 48.85 49.05 49.21 49.56 50.06 50.21 50.38 50.70 50.78 50.84 50.98 51.27 51.57 51.77 52.10 52.40 52.66 52.78 52.99 53.04 53.14 53.31 53.50 53.48 53.64 53.60 53.69 53.81 53.59 53.94 54.04 54.30 54.53 54.68 54.83 55.04 55.03 55.20 55.25 55.38 55.51 55.75 55.95 56.04 56.17 56.16 56.59 56.73 56.72 56.79 56.89 57.08 57.26 57.50 57.69 57.91 58.11 58.20 58.35 58.50 58.62 58.75 58.96 59.00 59.16 59.39 59.38 59.34 59.37 59.71 60.12 60.55 60.94 61.29 61.64 61.84 62.19 62.45 62.75 63.15 63.37 63.57 63.78 63.97 64.16 64.34 64.48 64.74 64.84 64.82 65.00 65.15 65.39 65.55 65.52 65.60 65.72 65.72 65.70 65.75 65.88 65.84 65.64 65.34 65.05 64.91 64.74 64.60 64.42 64.19 63.86 63.43 63.01 62.69 62.20 61.71 61.43 61.09 60.82 60.56 60.30 60.16 59.93 59.60 59.48 58.99 58.18 57.94 57.15 56.44 54.28 54.79 56.26 56.55 56.95 57.24 57.67 58.04 58.58 58.88 58.99 59.31 59.74 60.48 61.01 61.34 61.50 62.04 62.65 63.02 63.55 64.06 64.74 65.21 65.51
31.41 31.38 31.40 31.48 31.40 31.32 31.21 31.09 30.97 30.96 31.03 31.07 30.90 30.78 30.81 30.93 30.91 30.80 30.77 30.74 30.72 30.63 30.63 30.60 30.46 30.38 30.30 30.09 29.98 29.91 30.02 30.00 29.97 30.05 30.07 30.06 30.14 30.33 30.47 30.35 30.49 30.18 29.75 29.13 29.24 28.08 25.91 25.45 28.32 28.74 26.92 24.59 23.64 24.13 24.08 27.01 29.28 30.05 29.39 28.47 27.56 25.85 24.71 24.75 24.69 24.45 23.37 22.13 21.32 19.58 16.08 14.64 14.84 16.63 21.57 25.70 24.88 26.00 24.86 25.28 28.42 30.41 30.23 28.21 28.78 30.45 31.97 32.28 31.86 31.86 32.03 32.14 32.89 34.51 36.76 34.00 33.08 33.29 33.44 33.55 33.70 33.96 34.20 34.40 34.43 34.60 34.92 35.25 35.46 35.60 35.72 35.74 35.80 35.92 35.94 36.07 36.31 36.48 36.75 36.86 37.08 37.77 37.87 37.78 38.01 38.04 38.04 38.23 38.23 38.27 38.27 38.43 38.62 38.90 39.09 39.38 39.33 39.40 39.50 39.48 39.43 39.63 39.64 39.73 39.85 40.04 40.39 40.74 41.07 41.37 41.62 41.72 41.72 41.75 41.78 41.85 41.79 41.69 41.58 41.57 41.73 42.14 42.35 42.51 42.64 42.69 42.76 42.66 42.70 42.69 42.56 42.29 42.09 41.74 41.72 41.21 40.66 41.36 41.85 42.19 42.47 42.51 42.55 42.60 42.68 42.65 42.69 42.75 42.88 43.07 43.25 43.48 43.46 43.05 42.72 42.53 42.87 42.97 42.69 40.94 41.05 41.89 42.37 42.96 43.57 43.82 43.59 42.99 41.72 39.82 39.89 40.88 40.84 40.80 41.39 42.57 44.14 44.89 45.67 46.00 46.44 47.19 48.38 49.27 46.89 45.04 44.11 43.21 46.12 46.17 46.24 46.03 45.95 46.33 46.87 47.18 47.10 45.60 43.51 44.14 44.28 45.52 46.93 47.83 47.82 47.82 48.07 48.44 49.09 49.87 50.40 50.70 50.88 51.09 51.29 51.35 51.53 51.74 51.97 52.10 52.41 52.71 52.90 53.09 53.22 53.29 53.48 53.65 53.69 53.85 53.96 54.03 53.99 53.88 54.19 54.19 54.48 54.68 54.98 55.18 55.41 55.44 55.48 55.41 55.45 55.65 55.86 56.00 56.07 56.34 56.37 56.53 56.76 56.83 57.06 57.06 57.12 57.41 57.68 57.91 57.97 58.15 58.34 58.56 58.69 58.86 59.12 59.16 59.33 59.45 59.62 59.72 59.79 59.50 59.62 60.03 60.37 60.53 60.83 61.25 61.75 62.09 62.38 62.66 62.97 63.19 63.37 63.75 63.89 64.09 64.15 64.30 64.45 64.91 65.16 65.16 65.29 65.48 65.62 65.65 65.68 65.81 65.81 65.87 65.88 65.89 65.89 65.62 65.20 64.71 64.44 64.10 63.96 63.91 63.77 63.82 63.51 63.18 62.81 62.39 61.97 61.53 61.16 60.93 60.73 60.46 60.28 60.10 59.70 59.44 59.07 58.56 58.17 57.71 56.32 54.14 55.37 56.24 56.91 57.01 57.54 57.85 58.26 58.92 59.22 59.34 59.73 60.08 60.53 61.08 61.51 61.68 62.03 62.63 63.01 63.52 64.26 64.90 65.18 65.56
31.45 31.44 31.37 31.41 31.32 31.36 31.23 31.13 31.34 31.41 31.28 31.21 31.02 30.90 30.81 30.98 31.00 30.96 30.93 30.88 30.99 30.98 30.84 30.70 30.71 30.69 30.47 30.23 30.07 29.96 30.05 30.09 30.03 30.16 30.15 30.03 30.20 30.38 30.51 30.50 30.65 30.21 29.69 28.75 27.43 25.96 26.07 26.31 28.98 28.54 26.09 24.62 24.87 25.95 25.47 27.70 29.13 30.06 29.93 29.57 28.60 27.66 25.90 25.52 25.14 24.71 23.78 22.23 21.80 20.56 18.02 15.20 15.00 16.08 18.48 22.08 24.50 28.02 27.31 26.49 28.37 30.81 30.99 29.51 28.63 30.06 31.64 32.21 32.58 32.43 32.53 32.74 32.73 33.88 35.70 34.00 32.97 33.21 33.47 33.64 33.82 34.07 34.20 34.40 34.46 34.61 34.97 35.30 35.38 35.51 35.71 35.85 35.96 36.06 36.11 36.20 36.50 36.54 36.69 36.76 36.93 37.45 38.23 37.82 37.88 37.99 38.18 38.28 38.31 38.32 38.42 38.71 38.85 39.00 39.12 39.35 39.46 39.43 39.56 39.74 39.72 39.84 39.84 39.82 39.94 40.07 40.42 40.72 41.05 41.43 41.68 41.74 41.81 41.94 41.89 41.98 41.83 41.74 41.70 41.67 41.82 42.09 42.37 42.49 42.61 42.71 42.91 42.86 42.80 42.72 42.64 42.57 42.39 42.05 41.87 41.16 40.64 41.29 42.20 42.42 42.64 42.76 42.73 42.85 42.93 42.83 42.99 43.08 43.03 43.10 43.30 43.58 43.73 43.34 42.83 42.79 43.12 43.24 42.41 41.03 42.02 42.60 42.51 43.12 43.67 43.91 43.72 43.10 42.22 41.06 40.24 39.71 39.47 39.53 40.08 41.10 42.31 43.89 45.10 45.92 46.72 47.51 48.15 46.69 44.83 45.71 47.12 44.73 45.83 46.27 46.44 46.39 46.30 46.39 46.75 47.07 46.78 44.95 43.55 44.26 44.70 45.94 47.14 46.83 46.48 46.68 47.17 47.89 48.66 49.51 50.20 50.81 51.09 51.50 51.81 51.87 51.85 51.97 52.27 52.30 52.58 52.85 53.00 53.16 53.27 53.34 53.61 53.75 53.98 54.12 54.19 54.18 54.19 54.24 54.29 54.34 54.69 54.93 55.18 55.27 55.50 55.65 55.79 55.80 55.75 55.74 55.94 56.06 56.21 56.39 56.58 56.52 56.59 56.84 57.18 57.16 57.15 57.43 57.75 58.05 58.19 58.33 58.47 58.76 58.98 59.18 59.54 59.54 59.81 59.90 60.03 60.10 60.09 59.76 59.61 60.02 60.43 60.60 60.96 61.40 61.83 61.99 62.13 62.31 62.52 62.88 63.18 63.46 63.60 63.93 64.05 64.41 64.68 65.01 65.17 65.39 65.38 65.55 65.66 65.73 65.78 65.93 65.95 65.90 65.95 65.89 65.90 65.69 65.32 64.82 64.26 63.76 63.54 63.35 63.25 63.13 63.28 63.32 63.01 62.53 62.04 61.64 61.26 61.00 60.78 60.53 60.38 60.07 59.77 59.29 58.96 58.50 57.88 57.05 54.95 54.65 56.12 56.40 56.94 57.27 57.69 58.09 58.63 59.12 59.52 59.73 60.06 60.49 60.83 61.31 61.73 62.20 62.49 62.78 63.31 63.77 64.31 64.77 65.14 65.58
31.44 31.45 31.39 31.40 31.30 31.37 31.35 31.33 31.43 31.31 31.28 31.29 31.16 31.04 30.96 31.09 31.03 31.02 31.06 31.08 31.10 31.09 31.02 30.80 30.86 30.90 30.73 30.48 30.16 30.03 30.18 30.18 30.10 30.22 30.28 30.23 30.31 30.34 30.44 30.55 30.65 30.10 29.20 27.12 26.25 27.72 28.66 27.34 28.94 28.40 24.75 25.85 26.61 27.57 25.53 26.74 28.58 29.78 30.25 30.12 29.74 28.97 28.07 26.70 25.91 25.08 24.21 22.74 21.99 21.02 19.35 16.15 15.00 17.90 20.33 19.06 22.61 28.46 31.08 29.19 28.87 31.00 32.05 30.84 29.70 31.03 32.56 32.57 33.27 33.09 32.72 32.97 32.64 32.87 33.02 32.98 32.94 33.07 33.39 33.54 33.73 33.99 34.17 34.38 34.53 34.80 35.00 35.23 35.35 35.53 35.73 35.92 36.03 36.13 36.36 36.61 36.79 36.79 36.87 36.81 37.05 37.23 37.96 38.03 37.87 38.00 38.28 38.35 38.53 38.53 38.62 38.85 39.03 39.22 39.30 39.27 39.58 39.50 39.61 39.67 39.62 39.76 39.92 39.93 39.97 40.00 40.27 40.48 40.88 41.28 41.61 41.72 41.80 41.96 41.95 42.01 41.99 41.90 41.83 41.71 41.76 41.98 42.26 42.37 42.49 42.75 43.00 43.12 43.05 42.91 42.75 42.70 42.40 42.14 42.07 41.59 40.67 40.90 42.01 42.40 42.69 42.88 42.98 43.05 43.03 43.09 43.14 43.17 43.29 43.13 43.35 43.78 44.02 43.69 43.36 43.28 43.29 43.43 42.55 41.40 42.70 42.88 42.66 43.25 43.63 43.87 43.87 43.57 43.12 42.56 41.82 40.39 40.59 40.89 40.98 40.48 41.56 43.04 45.07 45.38 45.73 46.06 46.15 46.30 46.05 46.49 47.72 46.50 46.29 46.59 46.68 46.66 46.56 46.58 46.73 47.06 47.11 46.05 44.06 43.75 45.01 46.07 46.20 45.83 45.98 46.25 46.52 47.00 48.11 48.94 49.70 50.48 51.13 51.90 52.24 52.10 52.02 52.20 52.42 52.55 52.88 53.07 53.13 53.32 53.55 53.66 53.73 53.82 54.11 54.24 54.22 54.20 54.34 54.57 54.60 54.61 54.60 54.79 55.03 55.27 55.63 55.87 56.10 56.18 56.01 55.99 56.14 56.17 56.27 56.47 56.69 56.74 56.64 56.75 57.13 57.13 57.07 57.50 57.82 58.12 58.47 58.56 58.68 59.06 59.46 59.74 59.89 59.97 60.15 60.32 60.41 60.41 60.40 60.21 59.90 60.06 60.49 60.77 61.09 61.41 61.68 61.73 61.85 61.99 62.31 62.72 63.17 63.46 63.68 64.06 64.35 64.64 64.82 65.03 65.18 65.33 65.53 65.74 65.70 65.79 65.88 66.00 66.06 65.91 65.86 65.82 65.80 65.58 65.35 64.76 64.17 63.71 63.22 62.92 62.81 62.66 62.74 62.96 62.66 62.38 61.94 61.65 61.30 60.94 60.64 60.39 60.44 60.10 59.74 59.21 59.00 58.94 58.06 56.59 53.72 55.40 55.90 57.20 57.23 57.44 57.93 58.33 58.77 59.18 59.61 59.92 60.36 60.78 61.06 61.47 62.04 62.49 62.79 63.06 63.48 64.02 64.57 64.75 65.10 65.52
31.37 31.49 31.42 31.47 31.45 31.50 31.49 31.42 31.37 31.31 31.34 31.30 31.21 31.16 31.12 31.03 31.05 31.14 31.21 31.35 31.33 31.25 31.13 31.05 31.06 30.99 30.87 30.74 30.50 30.35 30.38 30.31 30.27 30.23 30.26 30.32 30.38 30.35 30.48 30.63 30.49 29.08 27.48 26.78 27.83 29.34 29.88 28.91 28.37 28.44 26.35 26.24 27.69 27.37 26.12 25.45 27.26 29.15 30.38 30.58 30.57 29.91 29.29 28.16 26.93 25.71 24.75 23.30 22.16 20.99 19.71 16.79 15.00 16.43 23.27 20.65 21.76 29.42 32.53 31.57 30.10 30.70 30.58 31.22 31.14 32.49 33.33 32.94 33.42 33.57 33.10 33.35 32.60 32.52 32.67 32.90 32.93 33.10 33.41 33.58 33.72 34.36 34.37 34.35 34.46 34.89 35.12 35.28 35.49 35.60 35.93 35.99 36.14 36.20 36.46 36.78 36.94 37.04 37.08 37.05 37.19 37.43 38.11 38.51 38.21 38.31 38.59 38.72 38.87 38.74 38.85 39.01 39.05 39.19 39.28 39.37 39.69 39.67 39.74 39.77 39.85 39.91 39.96 39.89 39.84 39.99 40.18 40.27 40.63 41.00 41.37 41.63 41.86 41.98 42.08 42.08 42.14 41.99 41.92 41.74 41.77 41.98 42.25 42.42 42.50 42.78 42.88 43.16 43.52 43.09 42.73 42.75 42.52 42.03 41.98 41.52 41.19 41.42 41.61 42.25 42.59 42.76 43.00 43.01 43.12 43.24 43.35 43.43 43.54 43.59 43.79 43.93 43.98 44.04 43.87 43.58 43.43 43.37 42.63 41.69 43.00 42.85 42.89 43.54 43.86 43.98 44.22 44.08 43.91 43.30 42.40 41.20 42.10 42.71 42.57 42.02 41.68 41.61 43.19 43.56 45.12 46.25 46.21 47.18 47.00 47.06 47.28 47.56 46.98 47.02 47.12 46.93 46.88 46.89 46.86 47.16 47.50 47.24 45.64 44.38 44.40 44.40 44.96 45.57 45.74 45.38 45.33 45.58 46.30 46.87 48.24 49.54 50.47 51.43 51.98 52.02 51.94 52.35 52.56 52.73 52.96 53.13 53.25 53.52 53.73 53.98 54.05 53.99 54.08 54.28 54.51 54.61 54.76 54.81 54.66 54.65 54.80 54.82 55.10 55.34 55.71 56.03 56.18 56.34 56.20 56.05 56.17 56.33 56.46 56.63 56.88 57.13 57.19 56.95 57.01 57.15 57.20 57.51 57.92 58.09 58.42 58.58 58.89 59.39 59.81 60.05 60.08 60.30 60.32 60.45 60.72 60.73 60.70 60.60 60.28 60.24 60.38 60.71 61.02 61.19 61.33 61.56 61.74 61.99 62.39 62.83 63.29 63.59 63.94 64.34 64.60 64.65 64.85 65.11 65.22 65.30 65.46 65.69 65.87 65.87 66.00 66.16 66.15 65.88 65.72 65.68 65.43 65.23 64.94 64.49 64.05 63.59 63.03 62.63 62.52 62.36 62.23 62.30 62.24 62.19 61.80 61.50 61.26 61.07 60.65 60.09 59.93 60.04 59.98 60.12 59.87 59.66 58.11 55.36 55.07 56.44 56.51 57.43 57.44 57.66 58.12 58.53 58.94 59.31 59.72 60.08 60.54 61.01 61.36 61.73 62.19 62.66 62.98 63.42 63.74 64.17 64.53 64.90 65.24 65.64
31.50 31.52 31.54 31.66 31.64 31.67 31.54 31.41 31.41 31.47 31.53 31.44 31.42 31.40 31.20 31.13 31.32 31.33 31.45 31.42 31.32 31.28 31.24 31.32 31.27 31.10 30.97 30.77 30.77 30.74 30.67 30.59 30.51 30.47 30.43 30.39 30.52 30.49 30.43 30.45 30.19 28.24 28.33 28.79 29.36 30.05 30.31 29.95 28.93 28.58 27.06 24.92 26.23 28.46 27.34 26.29 27.12 28.84 30.04 30.70 30.79 30.41 30.08 29.08 27.83 26.44 25.17 23.91 22.45 21.15 19.66 17.13 15.00 15.16 19.85 21.21 22.35 29.85 32.48 32.88 31.53 27.55 27.29 30.09 30.51 32.19 33.70 33.55 33.61 33.42 33.35 33.52 32.64 32.50 32.66 32.79 32.86 33.16 33.43 33.55 33.74 34.28 34.32 34.39 34.55 34.88 35.08 35.32 35.62 35.68 35.95 36.11 36.31 36.65 37.05 37.32 37.35 37.56 37.38 37.40 37.57 37.70 38.11 38.38 38.46 38.36 38.62 38.88 39.09 38.93 38.78 38.96 39.19 39.28 39.48 39.49 39.63 39.84 39.86 39.89 39.95 39.93 40.03 40.04 40.04 40.24 40.38 40.43 40.39 40.65 40.99 41.32 41.61 41.92 42.18 42.14 42.15 42.09 41.89 41.79 41.85 42.03 42.27 42.37 42.49 42.75 42.86 43.09 43.24 43.05 42.83 42.85 42.76 42.08 41.72 40.94 41.79 42.02 41.97 42.15 42.56 42.79 43.01 43.17 43.28 43.38 43.60 43.73 43.83 43.92 44.04 44.07 44.10 44.17 44.05 43.81 43.66 43.29 42.26 42.43 43.19 43.02 43.17 43.67 43.89 44.21 44.43 44.49 44.41 43.97 43.09 42.44 42.93 44.26 43.76 43.43 42.32 41.05 42.04 43.33 45.08 45.76 46.11 47.49 48.21 47.98 48.11 48.14 47.23 46.83 47.14 47.33 47.19 47.28 47.14 47.24 47.55 47.61 46.74 45.19 45.16 44.68 44.36 44.93 45.18 45.20 45.40 45.71 46.00 45.78 46.43 47.96 49.44 51.05 51.93 51.59 51.42 52.00 52.53 52.74 52.95 53.09 53.19 53.51 53.85 54.11 54.16 54.15 54.19 54.53 54.88 54.87 54.71 54.61 54.53 54.58 54.82 54.80 55.19 55.27 55.57 55.87 56.08 56.28 56.31 56.21 56.37 56.52 56.64 56.86 57.11 57.30 57.39 57.27 57.29 57.56 57.50 57.52 57.47 57.91 58.46 58.59 58.83 59.32 59.80 60.15 60.21 60.35 60.43 60.46 60.79 60.92 60.88 60.81 60.52 60.37 60.45 60.45 60.74 60.95 61.24 61.61 61.88 62.06 62.40 62.84 63.13 63.62 63.99 64.34 64.65 64.82 64.80 65.01 65.21 65.39 65.50 65.63 65.78 65.90 65.97 66.01 65.84 65.63 65.59 65.58 65.43 64.93 64.29 64.02 63.74 63.39 62.94 62.43 62.30 62.19 61.93 61.74 61.69 61.86 61.67 61.37 61.24 61.03 60.75 60.25 59.96 60.18 60.69 60.86 60.46 59.59 56.95 54.63 55.66 56.68 57.40 57.42 57.60 57.65 58.09 58.60 59.05 59.53 59.80 60.20 60.77 61.15 61.55 62.04 62.44 62.78 63.17 63.64 64.00 64.16 64.09 64.98 65.49 65.85
31.66 31.70 31.77 31.74 31.76 31.64 31.53 31.53 31.60 31.54 31.53 31.48 31.53 31.54 31.46 31.39 31.39 31.36 31.37 31.43 31.46 31.39 31.35 31.49 31.50 31.33 31.23 30.94 30.89 30.76 30.72 30.73 30.60 30.60 30.54 30.42 30.48 30.46 30.51 30.39 30.04 28.72 29.47 29.72 30.14 30.36 30.55 30.33 29.76 29.43 28.36 24.90 25.55 29.22 28.51 27.81 26.96 28.08 29.60 30.35 30.89 30.89 30.51 29.75 28.58 27.24 25.61 24.40 22.70 20.88 19.55 17.21 15.00 15.00 16.14 19.60 21.79 26.65 31.03 32.87 32.68 28.47 28.70 30.36 31.00 32.46 32.70 33.35 33.41 33.49 33.30 32.88 32.56 32.53 32.54 32.67 32.81 33.02 33.38 33.71 33.79 34.10 34.33 34.41 34.47 34.82 35.12 35.28 35.51 35.52 35.81 36.13 36.28 36.70 37.02 37.10 37.17 37.39 37.34 37.36 37.30 37.47 38.05 38.28 38.64 38.60 38.74 39.03 39.27 39.08 38.93 39.07 39.23 39.36 39.65 39.72 40.01 40.03 39.98 40.02 40.07 39.99 40.19 40.24 40.27 40.32 40.50 40.57 40.59 40.71 40.83 41.13 41.40 41.80 42.11 42.20 42.21 42.19 42.01 41.94 41.93 42.00 42.18 42.33 42.57 42.74 43.01 43.13 42.99 42.79 42.73 42.76 42.56 42.11 41.42 41.32 42.16 42.37 42.54 42.35 42.43 42.76 43.12 43.44 43.57 43.74 43.96 44.02 43.96 44.02 44.13 44.33 44.32 44.26 44.15 43.97 43.42 42.36 42.19 43.10 43.37 43.55 43.58 43.84 44.08 44.29 44.55 44.77 44.71 44.32 43.94 43.46 43.55 44.48 44.51 44.43 42.87 41.59 41.02 42.07 43.78 44.67 46.28 47.08 47.85 47.69 47.91 47.54 46.97 47.03 47.29 47.36 47.42 47.41 47.46 47.58 47.60 47.54 46.72 45.65 45.82 45.95 46.08 46.41 45.90 46.39 46.70 46.69 46.45 46.12 45.99 46.86 48.42 49.91 49.54 50.06 50.93 51.57 52.16 52.42 52.63 52.79 53.08 53.46 53.91 54.28 54.30 54.37 54.46 54.60 54.75 54.72 54.74 54.76 54.72 54.77 54.92 54.89 55.02 55.22 55.48 55.74 55.97 56.14 56.23 56.26 56.44 56.54 56.78 57.01 57.23 57.36 57.48 57.54 57.57 57.74 57.82 57.81 57.91 58.22 58.69 58.57 58.86 59.22 59.72 60.07 60.16 60.32 60.37 60.46 60.63 60.96 60.99 61.05 60.83 60.50 60.43 60.33 60.58 60.78 61.14 61.47 61.77 61.96 62.21 62.58 62.95 63.40 63.86 64.24 64.66 64.73 64.71 64.79 65.00 65.19 65.48 65.61 65.69 65.73 65.88 65.91 65.73 65.47 65.36 65.21 65.06 64.71 64.24 63.72 63.29 63.00 62.77 62.38 61.98 61.82 61.79 61.55 61.31 61.46 61.38 61.14 61.08 60.98 60.72 60.30 60.02 60.05 60.49 60.83 60.19 58.80 55.71 55.54 56.67 57.18 57.66 57.49 57.77 57.98 58.40 58.71 59.18 59.67 60.09 60.37 60.97 61.28 61.73 62.24 62.71 62.99 63.46 63.84 64.24 64.13 64.47 65.13 65.56 66.00
31.81 31.93 31.98 31.86 31.90 31.87 31.75 31.75 31.73 31.72 31.76 31.72 31.62 31.56 31.67 31.55 31.61 31.59 31.56 31.58 31.57 31.61 31.52 31.60 31.69 31.55 31.49 31.22 31.11 30.84 30.90 30.87 30.64 30.59 30.62 30.54 30.50 30.20 30.11 30.34 29.99 29.15 29.76 30.23 30.34 30.50 30.63 30.53 30.31 30.00 29.78 26.28 25.02 29.13 30.01 29.52 28.13 27.58 28.73 29.69 30.60 30.95 30.71 30.28 29.56 27.90 25.76 24.85 23.23 20.73 19.49 16.80 15.00 15.00 16.03 22.04 21.28 22.31 27.82 32.00 32.70 31.74 31.33 31.30 31.62 32.41 32.92 33.40 33.02 32.89 32.99 32.53 32.39 32.47 32.26 32.31 32.72 32.90 33.25 33.85 33.81 34.05 34.30 34.45 34.66 34.98 35.02 35.23 35.25 35.44 35.74 35.96 36.13 36.43 36.66 36.85 37.14 37.29 37.27 37.39 37.53 37.63 37.96 38.26 38.71 38.80 38.89 39.15 39.28 39.12 39.07 39.25 39.48 39.66 39.90 39.91 40.05 39.98 40.08 40.22 40.19 40.12 40.34 40.39 40.27 40.33 40.68 40.73 40.71 41.00 41.15 41.21 41.25 41.66 41.91 42.11 42.20 42.23 42.05 42.03 42.09 42.18 42.26 42.47 42.77 42.82 43.02 43.02 42.91 42.99 42.95 42.91 42.77 42.35 41.84 41.59 42.36 42.58 42.73 42.78 42.51 42.84 43.21 43.52 43.68 43.94 44.11 44.17 44.13 44.26 44.41 44.49 44.44 44.36 44.27 44.10 42.89 42.41 43.15 43.70 43.74 43.94 44.20 44.31 44.45 44.40 44.67 45.00 45.08 44.82 44.55 44.35 44.01 44.60 45.15 44.75 43.69 43.00 41.93 41.16 42.15 42.94 44.53 44.93 45.95 46.53 46.62 46.63 46.80 47.10 47.29 47.40 47.61 47.62 47.72 47.76 47.81 47.71 47.29 46.51 46.87 46.82 47.56 48.30 47.67 47.05 48.28 48.30 47.10 46.46 45.95 46.68 48.07 48.63 47.90 49.24 50.33 51.06 51.53 51.64 52.04 52.51 53.06 53.50 53.78 54.20 54.33 54.52 54.62 54.72 54.80 54.79 54.99 55.06 55.00 54.99 55.04 55.37 55.24 55.13 55.32 55.51 55.77 55.95 56.04 56.12 56.37 56.52 56.70 56.81 57.16 57.34 57.52 57.71 57.77 57.92 58.00 58.00 58.20 58.36 58.31 58.62 58.96 59.19 59.53 59.96 60.19 60.34 60.39 60.45 60.67 60.86 60.90 60.96 60.80 60.43 60.47 60.55 60.61 60.71 61.07 61.39 61.65 61.79 62.07 62.55 62.92 63.33 63.61 63.93 64.28 64.53 64.65 64.63 64.77 65.01 65.36 65.59 65.69 65.68 65.59 65.69 65.66 65.49 65.62 65.11 64.49 64.23 64.02 63.69 63.22 62.86 62.57 62.37 62.02 61.56 61.60 61.47 61.31 61.19 61.03 60.96 60.87 60.79 60.50 60.29 60.00 59.93 60.14 60.16 59.87 57.95 55.68 56.61 57.32 57.66 57.69 57.57 57.87 58.30 58.54 58.78 59.39 59.84 60.22 60.68 61.20 61.53 61.94 62.23 62.70 63.16 63.69 63.97 64.41 64.54 64.94 65.21 65.57 65.99
31.89 31.98 32.18 32.03 32.06 32.06 31.97 31.90 31.95 31.99 32.05 31.99 31.82 31.68 31.76 31.74 31.78 31.83 31.77 31.68 31.65 31.68 31.57 31.70 31.81 31.59 31.59 31.57 31.25 31.00 31.06 30.94 30.70 30.65 30.67 30.54 30.54 30.32 30.24 30.73 31.34 30.45 29.77 30.41 30.56 30.62 30.68 30.74 30.55 30.32 29.94 26.98 24.93 26.87 29.97 30.28 29.39 28.10 28.35 28.54 30.00 30.89 30.87 30.64 29.93 28.61 26.51 26.02 24.08 20.96 18.86 15.80 15.00 15.00 16.28 26.33 25.97 22.54 22.54 27.39 30.50 31.22 31.57 31.76 31.96 31.72 31.92 32.23 32.21 32.24 32.67 32.38 32.38 32.21 31.29 30.73 30.98 31.29 32.24 32.92 33.06 33.34 33.64 34.22 34.77 34.62 34.67 35.04 35.24 35.59 35.85 36.04 36.19 36.46 36.75 37.04 37.30 37.31 37.42 37.49 37.71 37.91 38.09 38.38 38.53 38.89 39.33 39.32 39.29 39.17 39.31 39.46 39.63 39.86 40.07 40.03 40.13 40.17 40.16 40.38 40.37 40.33 40.48 40.64 40.47 40.57 40.77 40.87 40.92 41.01 41.20 41.40 41.36 41.73 42.01 42.12 42.19 42.17 42.11 42.14 42.23 42.24 42.28 42.47 42.70 42.81 42.99 43.09 43.03 43.08 43.16 43.02 42.87 42.64 42.35 41.97 42.11 42.51 42.90 42.91 42.77 42.73 43.10 43.45 43.79 44.11 44.27 44.30 44.41 44.48 44.54 44.59 44.53 44.53 44.43 44.34 42.88 42.90 43.84 44.23 44.08 44.00 44.54 44.65 44.69 44.53 44.76 45.19 45.45 45.35 44.92 44.74 44.41 44.77 45.61 45.05 44.43 43.91 43.11 42.09 41.64 41.39 41.63 41.66 42.71 44.27 45.66 46.44 46.88 47.18 47.30 47.42 47.65 47.81 47.94 47.96 48.17 48.10 48.01 47.79 47.59 46.79 47.74 48.61 48.63 47.42 48.01 48.96 48.50 47.33 46.06 46.62 47.54 48.93 49.17 49.38 49.62 50.07 50.31 50.80 51.41 52.09 52.73 53.19 53.60 53.88 54.17 54.58 54.87 54.79 54.95 54.92 55.04 55.15 55.24 55.26 55.18 55.46 55.36 55.19 55.35 55.47 55.57 55.71 55.72 55.90 56.22 56.34 56.62 56.74 57.02 57.25 57.44 57.79 57.96 58.11 58.17 58.18 58.32 58.40 58.51 58.68 59.01 59.13 59.38 59.84 60.09 60.18 60.36 60.40 60.57 60.68 60.78 60.87 60.91 60.75 60.60 60.67 60.67 60.77 60.86 61.26 61.55 61.79 62.17 62.45 62.83 63.15 63.39 63.63 64.02 64.17 64.32 64.52 64.74 64.97 65.15 65.41 65.55 65.62 65.63 65.61 65.40 65.36 65.07 64.54 64.13 63.62 63.45 63.28 62.86 62.61 62.38 62.21 61.96 61.32 61.08 61.25 61.15 61.07 60.84 60.73 60.60 60.55 60.34 60.22 59.98 59.79 60.23 60.12 59.37 56.78 55.92 57.07 57.70 57.87 57.73 57.68 58.03 58.54 58.72 58.87 59.47 59.93 60.42 60.73 61.12 61.51 61.93 62.33 62.67 63.07 63.75 64.27 64.55 64.99 65.11 65.25 65.64 66.24
32.01 32.10 32.20 32.20 32.28 32.30 32.12 32.05 32.13 32.17 32.14 32.06 32.05 31.98 32.03 31.93 31.90 31.86 31.89 31.84 31.94 31.87 32.00 31.91 31.89 31.76 31.72 31.58 31.27 31.12 31.13 31.03 30.84 30.73 30.75 30.54 30.34 30.39 30.08 30.14 30.79 30.45 30.93 31.81 31.42 31.22 30.92 31.34 31.22 30.89 30.48 27.89 26.43 25.93 29.06 30.31 30.18 29.24 29.09 28.74 29.83 30.74 30.83 30.33 28.74 27.56 27.45 27.30 24.87 21.04 17.73 15.14 15.00 15.00 16.13 26.82 29.73 27.69 24.90 22.21 24.94 26.91 28.54 29.63 29.95 29.35 29.58 30.84 31.55 31.71 31.95 32.00 32.25 31.96 30.76 30.78 31.45 31.34 31.46 32.26 33.19 33.78 34.14 34.21 34.52 34.55 34.74 35.03 35.20 35.40 35.79 36.19 36.46 36.64 36.82 37.14 37.43 37.45 37.58 37.69 37.80 37.96 38.25 38.44 38.49 38.90 39.30 39.27 39.45 39.51 39.58 39.67 39.90 40.08 40.22 40.23 40.31 40.60 40.41 40.38 40.49 40.64 40.61 40.70 40.71 40.76 40.84 40.91 41.09 41.22 41.38 41.49 41.40 41.63 41.93 42.18 42.13 42.19 42.30 42.28 42.35 42.40 42.33 42.42 42.69 42.82 43.09 43.10 43.12 43.13 43.20 43.18 43.04 42.79 42.63 42.32 42.36 42.29 42.62 42.90 43.08 43.03 43.18 43.49 43.89 44.18 44.36 44.34 44.47 44.51 44.59 44.67 44.70 44.70 44.65 44.44 43.33 42.90 43.88 44.39 44.29 44.19 44.79 44.88 44.82 44.76 44.98 45.36 45.57 45.53 45.11 45.05 44.50 44.86 45.70 46.49 45.53 44.19 44.41 43.96 43.04 42.07 42.51 42.39 41.83 42.43 43.90 45.61 46.77 47.15 47.34 47.50 47.63 47.85 48.12 48.20 48.40 48.34 48.42 48.47 48.52 48.34 48.41 48.80 49.01 48.36 48.08 48.69 49.07 48.77 47.41 46.55 46.90 47.51 48.32 49.26 49.83 49.83 49.50 50.28 50.69 51.24 52.07 52.70 53.19 53.46 53.91 54.32 54.60 54.80 54.89 54.92 55.06 55.24 55.36 55.43 55.45 55.51 55.58 55.48 55.48 55.64 55.51 55.59 55.69 55.91 56.13 56.18 56.31 56.56 56.79 57.16 57.40 57.67 58.02 58.22 58.34 58.36 58.40 58.40 58.54 58.68 58.80 58.90 59.26 59.72 59.97 60.03 60.22 60.32 60.44 60.59 60.84 61.00 61.00 60.91 60.87 60.95 60.88 60.81 60.75 61.08 61.37 61.68 61.97 62.16 62.49 62.86 63.12 63.42 63.64 63.70 64.05 64.33 64.63 64.86 65.15 65.31 65.25 65.27 65.45 65.59 65.34 65.22 65.04 64.72 64.29 63.80 63.55 63.17 62.77 62.47 62.26 62.05 61.88 61.39 61.00 60.80 60.72 60.70 60.56 60.54 60.48 60.37 60.26 60.00 59.82 59.55 59.91 59.41 58.18 55.75 55.95 57.29 57.91 58.06 57.87 57.76 58.13 58.53 58.90 59.14 59.55 60.07 60.40 60.78 61.27 61.60 61.96 62.46 62.70 63.06 63.51 64.11 64.47 65.00 65.22 65.41 65.85 66.54
32.12 32.29 32.42 32.45 32.41 32.40 32.37 32.27 32.38 32.30 32.30 32.22 32.25 32.16 32.11 32.18 32.06 32.01 32.01 32.11 32.14 32.00 31.92 31.90 31.90 31.87 31.91 31.72 31.46 31.24 31.21 31.17 31.04 30.89 30.85 30.52 30.19 30.25 30.15 30.33 30.32 30.48 31.56 32.45 32.47 32.90 32.32 32.24 31.39 30.65 29.38 27.71 26.47 25.23 27.96 30.15 30.62 30.57 30.39 29.65 29.52 30.24 30.80 30.42 29.40 27.88 28.17 27.77 25.53 21.17 17.23 15.05 15.00 15.00 16.11 27.27 31.71 29.73 29.11 23.07 21.46 23.09 24.66 26.64 27.86 28.43 28.72 30.75 31.47 31.70 31.92 32.08 32.28 31.67 30.37 31.62 31.54 29.94 30.92 32.07 32.91 33.77 35.50 34.27 34.52 34.65 34.77 34.98 35.09 35.26 35.58 35.93 36.44 36.73 36.89 37.15 37.30 37.30 37.41 37.58 37.92 38.04 38.33 38.50 38.56 38.74 39.54 39.33 39.67 40.09 39.72 39.82 40.09 40.23 40.39 40.52 40.52 40.60 40.64 40.59 40.63 40.74 40.81 40.82 40.84 40.86 40.96 41.18 41.26 41.40 41.61 41.59 41.56 41.74 42.00 42.18 42.22 42.39 42.45 42.46 42.50 42.60 42.48 42.55 42.78 42.94 43.13 43.10 43.05 43.14 43.21 43.23 43.28 43.05 42.65 42.37 42.74 42.71 42.29 42.55 43.10 43.28 43.33 43.72 43.90 44.20 44.43 44.56 44.57 44.64 44.73 44.75 44.87 45.07 45.13 44.89 44.81 43.66 43.75 44.45 44.46 44.32 44.77 45.09 45.07 45.11 45.20 45.57 45.78 45.79 45.42 45.24 44.82 45.29 46.71 47.80 46.06 44.99 45.50 45.35 44.01 42.89 43.60 44.21 43.83 42.76 42.83 44.25 45.83 46.28 46.85 47.07 47.42 47.82 48.11 48.40 48.55 48.57 48.74 48.85 48.76 48.80 48.99 49.07 49.25 48.83 48.59 48.82 49.27 49.51 48.28 46.68 46.72 46.82 46.95 47.52 48.32 48.33 48.17 49.58 49.64 50.07 51.09 52.00 52.75 53.09 53.42 53.74 54.10 54.50 54.59 54.85 55.02 55.30 55.35 55.42 55.58 55.59 55.77 55.69 55.71 55.73 55.68 55.68 55.80 55.99 56.10 56.19 56.32 56.39 56.66 56.97 57.20 57.47 57.88 58.20 58.42 58.45 58.53 58.63 58.82 58.81 58.80 58.83 59.02 59.38 59.69 59.84 60.01 60.21 60.39 60.54 60.76 61.01 61.03 60.97 61.07 61.15 61.10 61.12 61.10 61.16 61.27 61.67 62.11 62.12 62.36 62.63 62.87 63.13 63.44 63.68 63.96 64.21 64.36 64.63 64.97 65.08 64.96 65.04 65.13 65.32 65.32 65.27 65.29 65.06 64.72 64.39 63.89 63.43 62.98 62.61 62.22 61.93 61.89 61.59 61.28 60.97 60.61 60.53 60.27 60.26 60.35 60.19 60.00 59.65 59.72 59.23 59.32 58.67 57.34 55.29 56.21 57.56 58.12 58.26 58.10 57.88 58.23 58.55 58.85 59.08 59.39 59.95 60.33 60.70 61.08 61.41 61.80 62.17 62.59 63.03 63.45 63.99 64.41 64.99 65.22 65.54 66.02 66.47
32.33 32.50 32.51 32.51 32.42 32.51 32.53 32.47 32.56 32.55 32.56 32.63 32.46 32.32 32.30 32.44 32.27 32.28 32.24 32.23 32.20 32.20 32.17 32.18 32.04 32.07 32.15 31.90 31.64 31.38 31.29 31.30 31.19 30.95 30.85 30.61 30.39 30.28 30.49 30.74 31.26 31.59 32.16 32.68 33.10 33.68 33.47 33.20 32.20 30.75 28.98 28.76 28.37 25.81 27.35 29.54 30.60 30.69 30.63 30.45 30.23 30.29 30.75 30.64 30.05 28.91 28.78 28.15 26.12 21.38 16.05 15.00 15.00 15.01 16.61 27.85 32.14 30.97 29.32 25.72 24.27 25.57 26.00 24.14 25.67 28.42 27.85 27.75 29.46 30.95 31.70 31.74 31.84 30.73 29.99 31.79 31.22 29.01 30.03 31.12 32.21 32.87 33.75 33.68 34.32 34.73 34.93 35.18 35.25 35.24 35.61 35.94 36.27 36.60 36.79 36.98 37.04 37.07 37.13 37.38 37.96 38.18 38.38 38.49 38.61 38.85 39.46 39.90 40.02 40.39 39.80 39.94 40.19 40.39 40.48 40.62 40.55 40.62 40.75 40.68 40.75 40.90 40.92 40.87 40.86 40.88 40.97 41.27 41.42 41.59 41.77 41.76 41.70 41.87 42.07 42.28 42.43 42.47 42.56 42.60 42.72 42.78 42.68 42.65 42.79 43.05 43.21 43.04 43.10 43.24 43.28 43.30 43.37 43.11 42.54 42.44 42.93 43.09 42.87 42.83 42.96 43.03 43.38 43.71 43.90 44.18 44.37 44.58 44.74 44.85 44.91 44.93 45.01 45.16 45.32 45.22 45.08 43.71 43.72 44.50 44.68 44.59 44.83 45.24 45.43 45.53 45.48 45.71 45.91 45.90 45.59 45.03 45.13 46.09 47.73 46.77 45.95 45.69 46.08 45.81 44.92 43.65 43.30 44.83 45.29 44.12 42.81 43.02 43.78 44.30 45.01 45.10 46.02 47.56 48.17 48.39 48.53 48.79 48.97 49.09 49.12 49.11 49.33 49.52 49.52 49.39 49.47 49.41 49.52 49.88 49.55 48.11 47.10 46.94 47.22 47.56 47.71 47.76 47.57 47.93 48.21 49.47 50.55 51.49 52.24 52.70 52.91 53.23 53.77 54.13 54.42 54.79 54.94 55.12 55.28 55.43 55.60 55.74 55.89 55.84 55.79 55.83 55.75 55.84 55.95 56.08 56.19 56.33 56.40 56.49 56.60 56.87 57.09 57.37 57.79 58.18 58.51 58.49 58.67 58.99 59.15 59.00 58.90 58.96 59.09 59.20 59.48 59.76 59.84 60.13 60.44 60.41 60.71 61.05 61.25 61.34 61.36 61.36 61.29 61.46 61.44 61.53 61.54 61.69 61.98 61.99 62.24 62.65 62.85 63.06 63.38 63.57 63.70 63.99 64.20 64.49 64.86 64.82 64.65 64.78 64.87 64.93 64.81 64.80 65.00 65.13 65.16 64.81 63.99 63.58 63.15 62.63 62.18 61.74 61.58 61.41 61.06 60.82 60.53 60.21 60.14 59.88 60.00 59.82 59.51 59.30 59.28 58.75 58.45 58.00 56.83 55.45 55.90 57.69 58.34 58.51 58.34 58.11 58.35 58.56 58.85 59.12 59.51 59.88 60.25 60.62 61.14 61.53 61.95 62.22 62.64 63.17 63.61 64.05 64.64 65.26 65.31 65.71 66.24 66.59
32.47 32.61 32.62 32.69 32.65 32.74 32.78 32.80 32.74 32.85 32.84 32.88 32.69 32.55 32.54 32.47 32.55 32.62 32.63 32.69 32.54 32.56 32.37 32.27 32.19 32.16 32.23 32.11 31.88 31.63 31.39 31.38 31.31 31.09 30.87 30.76 30.59 30.28 30.48 31.04 31.89 32.02 32.44 32.76 33.18 33.37 33.32 33.18 32.79 32.01 30.78 29.34 28.06 26.13 27.61 29.07 29.99 30.85 30.72 30.70 30.60 30.57 30.89 30.80 30.53 29.87 29.40 28.48 26.32 21.20 15.70 15.00 15.00 15.60 20.45 29.53 32.38 31.94 29.24 27.73 25.31 27.26 31.27 29.49 24.78 24.54 25.77 24.09 26.25 27.68 28.06 29.01 29.22 27.98 28.74 30.03 29.40 29.78 30.02 30.42 32.01 33.28 33.71 33.75 34.06 34.52 34.77 34.98 35.15 35.20 35.43 35.79 36.09 36.50 36.61 36.59 36.63 36.94 37.03 37.28 37.84 38.14 38.40 38.45 38.56 38.85 39.48 40.46 40.52 40.58 40.00 40.18 40.38 40.49 40.49 40.56 40.66 40.71 40.97 40.81 40.78 40.93 40.99 41.04 41.16 41.08 41.12 41.42 41.60 41.76 41.84 41.92 41.92 41.95 42.13 42.42 42.57 42.60 42.74 42.83 42.87 42.93 42.84 42.77 42.84 43.05 43.20 43.07 43.21 43.40 43.49 43.49 43.48 43.19 42.63 42.40 42.95 43.31 43.24 43.17 43.17 42.94 43.24 43.59 43.88 44.12 44.34 44.56 44.82 44.92 45.02 45.20 45.35 45.29 45.43 45.35 45.28 44.53 43.81 44.58 44.75 44.76 45.06 45.44 45.94 46.47 45.82 45.88 45.97 46.19 46.23 45.26 45.77 46.40 46.75 46.66 46.50 46.29 46.47 46.21 45.80 44.04 43.07 44.45 45.78 45.59 44.26 42.88 42.97 43.08 43.34 43.36 43.59 45.30 46.92 48.00 48.35 48.71 49.00 49.21 49.29 49.45 49.70 49.90 49.81 49.56 49.80 49.86 50.05 50.26 50.21 49.33 47.76 47.78 47.96 48.13 48.00 48.11 48.06 47.66 47.95 49.15 50.20 50.65 51.65 52.44 52.55 53.02 53.45 53.78 54.32 54.47 54.63 54.94 55.20 55.47 55.68 55.89 56.03 56.03 55.99 56.04 55.92 55.87 55.90 55.99 56.15 56.30 56.40 56.45 56.70 56.85 57.06 57.30 57.69 58.10 58.46 58.58 58.83 59.07 59.28 59.14 59.10 59.04 59.18 59.42 59.43 59.47 59.72 60.04 60.43 60.58 60.78 61.13 61.56 61.74 61.81 61.87 61.89 61.83 61.73 61.76 61.77 61.61 61.68 61.93 62.16 62.56 62.79 62.97 63.24 63.32 63.36 63.66 63.83 64.12 64.45 64.45 64.38 64.58 64.82 64.66 64.29 64.17 64.29 64.81 65.34 65.18 64.39 63.75 63.29 62.69 62.18 61.54 61.21 61.06 60.77 60.67 60.47 59.99 59.80 59.54 59.54 59.62 59.43 59.16 58.96 58.62 58.29 57.74 56.31 55.68 55.59 57.45 58.46 58.51 58.38 58.20 58.33 58.56 58.77 59.08 59.41 59.82 60.36 60.69 61.19 61.64 62.02 62.48 62.81 63.35 63.79 64.12 64.70 65.31 65.48 65.86 66.17 66.54
32.56 32.67 32.76 32.75 32.72 32.85 32.94 32.88 32.90 33.02 33.14 33.04 32.91 32.67 32.64 32.63 32.75 32.75 32.68 32.87 32.92 32.81 32.56 32.54 32.69 32.39 32.35 32.24 32.05 31.85 31.68 31.67 31.50 31.28 31.16 31.00 30.87 30.60 30.65 30.97 31.14 31.34 31.97 32.83 32.51 33.03 33.02 32.91 32.79 32.28 32.03 29.44 26.78 25.74 26.83 28.56 29.42 29.96 30.46 30.79 30.77 30.90 31.01 31.03 30.84 30.42 29.44 28.05 25.63 20.08 15.27 15.00 15.46 19.02 24.00 30.03 32.15 31.86 30.24 28.94 28.52 26.13 30.30 31.83 30.30 26.84 24.61 23.51 23.06 23.87 23.40 25.21 25.87 27.90 28.91 28.97 30.38 31.82 32.20 32.76 33.17 33.46 33.72 33.96 34.15 34.40 34.50 34.54 34.82 35.04 35.24 35.50 35.76 36.31 36.25 36.36 36.66 36.95 37.06 37.11 37.75 38.21 38.45 38.52 38.81 38.93 39.47 41.02 41.34 40.97 40.54 40.55 40.53 40.50 40.60 40.59 40.80 41.03 40.90 40.87 40.92 41.16 41.41 41.55 41.38 41.17 41.18 41.42 41.64 41.81 41.93 41.99 41.88 42.11 42.24 42.42 42.73 42.82 42.91 42.96 42.92 43.04 43.06 42.95 43.02 43.10 43.27 43.33 43.42 43.44 43.71 43.69 43.57 43.30 42.90 42.81 42.86 43.42 43.44 43.40 43.28 42.96 43.49 43.57 43.86 44.17 44.45 44.65 44.91 45.14 45.34 45.40 45.50 45.57 45.57 45.54 45.60 44.54 43.43 44.38 44.85 44.88 45.20 45.69 46.26 47.82 46.99 46.13 46.40 46.49 46.41 45.87 46.18 46.96 46.74 47.00 46.95 46.95 46.87 46.49 45.98 44.27 43.08 44.06 46.03 46.51 46.08 44.99 44.64 44.46 43.94 44.23 44.29 43.99 44.51 46.01 47.53 48.45 49.06 49.32 49.54 49.75 49.83 50.07 49.95 49.75 50.09 50.36 50.54 50.69 50.68 49.87 48.71 49.42 49.82 49.50 49.08 49.05 48.97 48.06 48.07 49.16 50.13 50.44 51.35 52.20 52.42 52.89 53.22 53.60 54.02 54.15 54.32 54.60 54.94 55.36 55.71 55.87 56.10 56.35 56.16 56.02 56.05 56.05 56.04 56.07 56.18 56.33 56.52 56.54 56.68 56.84 57.14 57.38 57.65 58.02 58.44 58.70 58.75 58.99 59.35 59.47 59.42 59.41 59.49 59.65 59.63 59.56 59.81 60.04 60.43 60.75 61.03 61.42 61.95 62.26 62.44 62.63 62.68 62.31 62.07 61.96 61.88 61.70 61.65 61.78 62.08 62.42 62.59 62.68 62.80 62.88 63.07 63.40 63.55 63.72 63.87 64.02 64.12 64.33 64.55 64.28 63.93 63.71 63.79 64.26 64.65 64.62 64.34 63.79 63.17 62.66 62.21 61.54 61.11 60.87 60.50 60.36 60.21 59.73 59.38 59.21 59.14 59.29 59.25 58.91 58.62 58.46 57.98 56.87 56.17 56.89 56.09 56.86 58.32 58.52 58.41 58.38 58.30 58.61 58.93 59.17 59.39 59.81 60.44 60.88 61.25 61.70 62.02 62.57 62.97 63.43 63.84 64.29 64.82 65.13 65.60 65.89 66.07 66.44
32.64 32.74 33.00 32.92 32.96 32.98 33.04 33.07 33.02 33.16 33.15 33.06 33.00 32.80 32.81 32.91 32.94 32.87 32.92 33.02 33.07 32.99 32.87 32.83 33.35 32.66 32.48 32.32 32.05 32.00 31.92 31.76 31.68 31.45 31.13 31.01 31.05 31.01 30.84 30.95 31.25 31.28 31.15 31.38 31.53 32.03 32.34 32.69 32.45 31.94 31.46 30.37 28.38 27.80 26.44 26.99 28.97 29.50 30.25 30.71 30.96 31.13 31.17 31.12 30.92 30.25 29.22 27.90 26.40 19.62 15.26 15.06 17.54 20.78 23.53 27.44 32.36 33.62 31.91 31.37 30.69 27.10 26.40 29.80 31.70 31.22 30.46 29.34 26.17 26.14 26.08 23.72 25.32 29.25 30.69 31.19 31.59 32.23 32.73 33.13 33.34 33.54 33.91 34.22 34.23 34.39 34.63 34.44 34.58 34.73 34.90 35.24 35.24 34.97 36.19 36.45 36.56 36.82 36.97 37.18 37.77 38.07 38.35 38.47 38.98 39.11 39.56 40.67 41.97 41.69 40.89 40.92 40.83 40.76 40.72 40.72 41.50 43.30 42.04 41.17 41.06 41.36 41.51 41.63 41.59 41.33 41.36 41.45 41.68 41.90 41.99 41.98 41.98 42.18 42.36 42.51 42.83 43.06 43.02 42.99 43.02 43.04 43.13 43.12 43.06 43.27 43.38 43.37 43.48 43.59 43.80 43.78 43.59 43.46 43.16 43.00 42.90 43.32 43.61 43.72 43.43 43.07 43.55 43.54 43.84 44.18 44.40 44.70 45.13 45.28 45.35 45.62 45.68 45.77 45.77 45.70 45.70 45.31 44.31 44.46 44.97 45.27 45.72 45.85 45.91 47.02 48.53 46.71 46.49 46.50 46.81 46.30 46.38 48.79 47.95 47.19 47.40 47.39 47.18 46.61 45.82 44.71 43.65 43.59 45.51 46.74 47.11 46.28 45.25 45.64 45.51 45.71 45.38 44.13 44.32 45.19 46.33 47.92 48.96 49.38 49.73 49.88 49.85 50.05 50.20 50.17 50.27 50.66 50.92 50.97 50.96 50.34 49.42 50.53 51.03 50.90 50.52 50.49 50.34 49.20 48.51 49.33 50.04 51.07 51.88 52.31 52.55 52.88 53.23 53.43 53.67 53.91 54.23 54.58 54.99 55.38 55.78 56.03 56.20 56.56 56.57 56.32 56.24 56.31 56.32 56.26 56.29 56.38 56.57 56.76 56.67 56.83 57.13 57.51 57.69 57.99 57.88 57.19 58.38 58.62 58.96 59.33 59.56 59.67 59.63 59.69 59.87 59.80 59.85 60.08 60.40 60.95 61.52 61.89 62.39 62.65 62.86 63.11 63.31 63.11 62.54 62.17 62.00 61.82 61.71 61.76 62.00 62.27 62.37 62.52 62.61 62.68 62.94 63.22 63.37 63.44 63.43 63.47 63.54 63.86 64.00 63.99 63.53 63.31 63.49 63.89 63.95 63.87 64.05 63.92 63.30 62.80 62.27 61.86 61.49 61.05 60.64 60.35 59.97 59.58 59.15 58.71 58.47 58.44 58.46 58.52 58.23 57.69 56.92 56.17 56.61 57.72 57.07 56.15 57.85 58.49 58.52 58.65 58.51 58.65 58.98 59.21 59.44 59.92 60.47 60.85 61.30 61.68 62.04 62.61 63.03 63.43 63.69 64.16 64.66 65.08 65.43 65.59 65.95 66.44
32.71 32.74 33.02 33.11 33.06 33.11 33.17 33.17 33.13 33.16 33.24 33.21 33.10 32.93 32.99 33.10 33.19 33.21 33.23 33.35 33.15 33.24 33.05 32.90 33.26 32.82 32.55 32.45 32.18 32.11 32.02 31.83 31.73 31.60 31.29 31.07 31.21 31.19 30.96 30.96 31.21 31.36 31.06 31.22 31.28 31.41 31.65 32.48 32.50 32.29 31.50 30.61 29.70 30.21 27.62 27.17 29.20 29.92 30.41 30.75 31.05 31.33 31.28 31.09 30.66 29.98 29.46 28.60 26.14 18.21 15.49 16.26 21.09 21.77 23.76 27.60 30.62 31.69 32.27 32.25 30.49 28.52 26.11 27.90 30.72 31.98 31.99 31.46 28.75 26.78 28.35 28.14 24.69 26.75 30.24 31.38 32.12 32.25 31.75 32.56 33.13 33.44 33.68 33.92 34.06 34.18 34.52 34.72 34.91 34.76 34.84 35.32 35.80 36.17 36.69 37.07 37.04 37.27 37.32 37.43 37.59 37.84 38.11 38.38 38.72 39.04 39.81 40.32 41.06 41.25 40.82 40.85 40.80 40.83 40.70 40.77 41.48 42.81 42.27 41.39 41.17 41.45 41.63 41.79 41.75 41.56 41.70 41.79 41.93 42.01 42.05 42.04 42.15 42.24 42.31 42.51 42.81 43.00 42.96 43.00 43.03 43.10 43.12 43.27 43.26 43.23 43.30 43.43 43.53 43.87 44.01 43.92 43.76 43.50 43.29 43.16 43.00 43.22 43.69 43.78 43.78 43.37 43.46 43.59 43.90 44.29 44.55 44.71 45.08 45.31 45.44 45.60 45.70 45.86 46.03 45.95 45.78 45.68 44.79 44.75 45.20 45.61 45.84 45.78 45.71 46.46 47.86 47.30 46.51 46.58 46.91 46.36 46.58 49.16 49.48 47.61 47.64 47.78 47.60 47.22 46.47 45.64 44.73 43.69 45.30 46.77 47.34 46.98 46.08 45.86 46.34 46.97 46.70 44.63 44.38 45.03 46.02 48.11 49.09 49.56 49.86 50.08 50.08 50.08 50.19 50.48 50.62 50.70 50.90 51.07 51.07 50.87 49.96 50.40 51.05 51.40 51.32 51.13 50.49 49.37 48.49 49.37 49.64 50.10 51.00 51.70 52.17 52.93 53.27 53.43 53.80 54.02 54.23 54.56 54.86 55.33 55.72 56.00 56.27 56.49 56.66 56.45 56.36 56.41 56.40 56.42 56.51 56.62 56.57 56.77 56.83 56.99 57.25 57.61 57.71 57.82 57.90 57.49 58.27 58.46 58.61 59.03 59.30 59.35 59.38 59.63 60.01 60.02 59.90 60.13 60.54 61.42 61.95 62.30 62.63 62.83 63.01 63.38 63.63 63.59 63.05 62.45 62.14 61.97 62.05 61.99 62.18 62.27 62.28 62.32 62.35 62.40 62.68 62.90 63.11 63.22 63.21 63.12 63.12 63.37 63.44 63.45 63.14 62.98 63.27 63.43 63.27 63.19 63.20 63.31 62.98 62.59 62.06 61.54 61.16 60.99 60.82 60.36 60.07 59.77 59.38 59.03 58.73 58.08 57.55 57.54 57.37 56.75 56.15 56.21 57.52 58.85 59.18 56.30 56.53 58.21 58.67 58.82 58.77 58.96 59.05 59.24 59.60 60.06 60.44 60.75 61.25 61.73 62.22 62.56 62.97 63.38 63.65 64.06 64.60 65.02 65.51 65.80 66.01 66.36
32.79 32.85 32.88 33.09 33.08 33.15 33.21 33.18 33.22 33.24 33.41 33.36 33.20 33.14 33.20 33.29 33.42 33.44 33.59 33.58 33.34 33.26 33.11 32.93 32.96 32.88 32.66 32.55 32.35 32.23 32.14 32.01 31.95 31.70 31.40 31.17 31.23 31.23 31.19 31.23 31.31 31.46 31.21 31.28 31.26 31.40 31.70 32.51 32.60 32.24 31.24 30.83 29.72 28.84 27.27 27.89 29.95 30.48 30.73 30.85 30.59 30.93 30.98 31.13 31.09 30.97 29.41 28.09 23.25 16.37 15.61 18.67 23.31 22.69 23.48 28.28 30.73 31.36 31.72 31.93 31.54 30.95 28.94 28.23 29.87 32.01 32.26 31.86 30.86 28.10 30.19 30.79 28.16 24.62 27.15 28.19 29.25 30.48 30.45 31.90 32.00 32.63 33.03 33.42 33.83 34.19 34.55 34.84 35.02 35.07 35.08 35.45 35.83 36.30 36.80 37.29 37.63 37.80 37.87 37.74 37.89 37.94 38.28 38.70 38.72 39.07 39.46 39.79 40.34 41.14 41.64 41.94 41.06 40.80 40.71 40.89 41.19 41.82 42.04 41.47 41.23 41.52 41.82 41.89 41.79 41.74 41.76 41.91 41.95 41.92 42.05 42.19 42.22 42.28 42.30 42.48 42.75 42.90 42.93 42.92 43.05 43.26 43.29 43.40 43.35 43.33 43.26 43.50 43.77 43.90 44.03 43.93 43.69 43.55 43.42 43.40 43.29 43.23 43.69 43.95 44.00 43.62 43.67 43.88 44.02 44.33 44.68 44.73 45.02 45.37 45.62 45.67 45.91 46.11 46.11 46.08 46.02 45.79 44.98 44.97 45.37 45.56 45.76 45.97 46.86 49.02 50.46 48.92 46.93 46.87 46.77 46.22 46.38 47.40 49.70 48.88 47.70 47.94 47.88 47.77 47.28 46.56 45.70 44.12 44.94 46.61 47.52 47.56 46.93 46.26 46.27 47.00 47.17 44.93 44.78 44.89 45.20 46.30 48.28 49.43 49.87 50.18 50.27 50.25 50.43 50.68 50.79 50.92 50.98 51.04 51.34 51.04 50.75 50.75 50.85 51.46 51.59 51.46 50.61 49.46 48.94 49.28 49.67 49.86 50.34 51.01 51.75 52.63 53.12 53.41 53.76 54.07 54.17 54.40 54.66 55.05 55.44 55.74 56.14 56.40 56.81 56.60 56.56 56.64 56.52 56.67 56.75 56.77 56.81 56.85 56.92 57.27 57.57 57.55 57.65 57.74 58.03 58.25 58.38 58.56 58.66 58.83 59.24 59.39 59.58 59.80 60.05 60.14 60.02 60.09 60.61 61.31 61.91 62.28 62.51 62.79 63.07 63.42 63.64 63.61 63.04 62.50 62.30 62.30 62.22 62.28 62.31 62.39 62.27 62.14 62.05 62.29 62.28 62.42 62.70 62.98 63.01 62.83 62.72 62.94 62.98 62.79 62.74 62.59 62.89 62.98 62.89 62.73 62.64 62.61 62.39 62.31 62.04 61.66 61.12 60.73 60.49 60.15 59.98 59.67 59.24 58.88 58.56 58.24 57.33 56.68 56.46 56.21 55.97 56.96 58.80 59.94 60.90 58.57 56.32 56.78 58.16 58.74 58.95 59.21 59.40 59.49 59.71 60.11 60.38 60.74 61.26 61.71 62.15 62.49 62.96 63.28 63.61 63.98 64.45 65.05 65.25 65.73 65.97 66.36
32.85 32.91 32.94 33.06 33.22 33.20 33.33 33.25 33.35 33.32 33.42 33.48 33.33 33.27 33.32 33.46 33.62 33.68 33.75 33.67 33.53 33.32 33.19 33.10 33.05 33.00 32.77 32.72 32.63 32.46 32.41 32.27 32.11 31.88 31.67 31.48 31.47 31.52 31.44 31.43 31.32 31.45 31.43 31.56 31.61 32.09 31.86 31.74 31.63 31.60 31.43 31.23 30.07 28.22 26.98 27.82 29.86 30.90 30.98 31.09 30.62 30.60 30.48 31.07 31.67 32.43 31.29 26.05 19.09 15.71 16.74 20.59 23.80 22.73 23.16 26.35 29.39 31.09 31.98 32.52 31.66 30.16 27.32 26.58 28.90 31.55 32.35 32.37 31.82 28.85 30.13 31.94 30.83 27.56 25.03 25.04 26.81 28.14 30.40 30.96 30.13 31.44 32.72 33.22 33.76 34.06 34.43 34.68 34.89 35.15 35.49 35.65 35.93 36.45 37.04 37.66 38.02 38.09 38.16 38.17 38.25 38.43 38.67 39.03 38.96 39.12 39.57 39.93 40.27 40.93 41.88 41.48 40.85 40.88 40.70 40.88 41.10 41.71 41.69 41.70 41.39 41.60 41.88 41.90 41.90 42.07 42.03 41.95 41.98 42.10 42.18 42.25 42.33 42.38 42.30 42.43 42.67 42.78 42.87 42.90 43.10 43.29 43.36 43.46 43.49 43.50 43.57 43.73 43.90 43.94 43.99 43.93 43.76 43.69 43.68 43.56 43.37 43.40 43.87 44.16 44.09 43.85 43.95 43.98 43.93 44.39 44.64 44.81 45.00 45.22 45.48 45.72 45.96 46.04 46.09 46.15 46.28 46.08 45.55 45.17 45.37 45.73 45.96 46.81 49.35 51.13 51.05 50.43 48.08 47.34 46.76 46.54 46.62 46.68 48.23 49.39 48.06 47.93 48.17 48.15 47.86 47.34 46.11 45.05 44.95 46.25 47.35 47.65 47.34 46.92 46.86 46.92 47.18 45.21 45.44 46.03 45.89 45.50 46.49 48.07 49.25 50.08 50.39 50.42 50.71 50.88 51.05 51.22 51.20 51.23 51.32 51.33 51.45 51.38 51.17 51.31 51.63 52.04 51.24 49.75 49.54 49.62 49.50 49.95 50.38 50.81 51.16 51.62 52.00 52.17 52.69 53.92 54.33 54.27 54.71 55.21 55.53 55.74 55.97 56.33 56.66 56.72 56.76 56.72 56.74 56.83 56.90 56.91 57.06 57.14 57.33 57.59 57.70 57.76 57.80 57.89 58.12 58.35 58.43 58.59 58.76 58.96 59.35 59.59 59.79 60.04 60.21 60.29 60.22 60.07 60.48 60.96 61.52 61.77 62.18 62.47 62.83 63.20 63.52 63.60 63.03 62.61 62.65 62.69 62.59 62.52 62.45 62.50 62.51 62.26 61.94 62.02 62.15 62.40 62.53 62.70 62.69 62.59 62.29 62.44 62.55 62.36 62.12 62.28 62.73 62.61 62.41 62.29 62.14 62.03 61.89 61.83 61.65 61.62 61.30 60.76 60.33 59.83 59.51 59.39 58.91 58.43 57.63 56.96 56.45 56.24 56.23 56.17 56.53 57.51 58.96 60.56 61.61 60.96 58.82 57.20 56.77 57.97 58.87 59.28 59.54 59.53 59.55 59.90 60.36 60.75 61.17 61.55 62.05 62.38 62.80 63.17 63.44 63.68 63.98 64.52 65.06 65.65 65.96 66.34
32.95 32.92 32.93 33.04 33.17 33.23 33.39 33.52 33.94 33.64 33.41 33.62 33.48 33.46 33.65 33.98 34.03 34.15 34.15 33.77 33.63 33.49 33.38 33.34 33.18 33.11 32.95 32.95 32.75 32.54 32.43 32.36 32.27 32.03 31.78 31.59 31.57 31.69 31.63 31.68 31.69 31.65 32.05 32.02 31.58 31.63 31.54 31.57 31.50 31.47 31.40 31.16 30.65 29.45 27.94 27.28 29.23 30.60 31.21 31.33 30.77 30.58 30.63 31.19 30.77 31.34 32.18 25.56 16.64 15.57 17.89 21.65 24.18 24.41 23.98 26.00 28.98 30.83 31.41 31.85 29.91 27.24 26.54 29.72 30.08 30.90 32.03 32.45 32.32 30.56 29.61 31.79 31.58 29.26 27.53 25.63 28.50 27.86 28.79 28.91 30.02 31.58 32.44 33.01 33.55 33.69 33.91 34.19 34.49 34.88 35.41 35.72 36.08 36.63 37.25 37.92 38.39 38.30 38.27 38.28 38.48 38.78 39.02 39.34 39.45 39.58 39.64 39.97 40.78 40.96 42.15 41.44 40.79 40.79 40.74 40.82 40.97 41.21 41.34 41.34 41.36 41.55 41.74 41.88 42.07 42.19 42.18 42.12 42.18 42.29 42.24 42.30 42.44 42.49 42.53 42.57 42.71 42.79 42.92 42.99 43.15 43.38 43.53 43.59 43.66 43.74 43.70 43.79 43.96 43.97 44.09 43.99 44.00 43.89 43.77 43.70 43.48 43.45 43.96 44.32 44.21 44.04 44.20 43.97 44.07 44.39 44.84 45.13 45.16 45.25 45.47 45.77 45.98 46.08 46.16 46.28 46.37 46.28 45.85 45.58 45.40 45.88 46.21 46.93 48.87 50.74 51.12 50.07 47.72 47.08 46.97 47.09 46.91 46.94 47.20 48.22 48.28 48.08 48.35 48.48 48.41 48.08 46.75 45.71 45.42 45.79 46.88 47.30 47.65 47.68 47.63 47.42 47.78 46.37 45.37 45.82 45.94 45.53 46.08 46.84 48.70 49.91 50.57 50.74 50.75 50.98 51.17 51.40 51.61 51.60 51.44 51.57 51.89 52.01 51.64 51.42 51.70 52.29 51.92 50.34 50.05 49.79 49.37 50.00 50.63 51.03 51.38 51.62 51.44 51.40 51.60 52.25 53.54 54.12 54.74 55.45 55.79 56.01 56.15 56.53 56.87 56.95 56.94 56.91 56.98 56.95 57.01 57.11 57.33 57.58 57.60 57.63 57.69 57.83 57.82 58.01 58.21 58.51 58.59 58.68 58.78 59.17 59.42 59.69 59.90 60.22 60.26 60.39 60.51 60.47 60.66 60.82 61.03 61.47 62.02 62.40 62.74 63.19 63.44 63.48 62.95 62.73 62.75 62.82 62.76 62.79 62.70 62.80 62.72 62.27 61.94 61.76 61.99 62.29 62.49 62.49 62.35 62.28 62.11 62.17 62.17 62.02 61.84 62.09 62.45 62.40 62.15 61.90 61.80 61.52 61.29 61.08 61.02 61.14 61.09 60.70 60.29 59.66 59.10 58.89 58.38 57.53 56.77 56.60 56.41 56.26 56.53 56.96 57.69 58.72 59.78 60.53 61.07 60.70 59.43 58.79 57.33 56.33 57.97 59.10 59.65 59.61 59.66 59.87 60.27 60.81 61.19 61.57 62.00 62.24 62.71 63.00 63.15 63.54 63.69 64.27 65.03 65.58 65.96 66.55
33.03 32.94 33.04 33.13 33.23 33.40 33.31 33.50 33.72 33.71 33.47 33.67 33.81 33.87 33.88 34.01 34.05 34.11 34.04 33.74 33.70 33.64 33.63 33.55 33.34 33.24 33.08 33.01 32.86 32.62 32.62 32.48 32.29 32.14 32.00 31.95 32.13 32.08 31.92 31.83 31.78 31.81 32.01 31.90 31.64 31.67 31.73 31.80 31.64 31.54 31.32 30.71 30.47 30.03 29.30 28.22 28.70 30.05 30.98 31.39 31.46 30.79 30.77 30.97 30.97 30.04 30.36 24.95 16.02 15.95 18.90 22.24 24.39 26.33 25.44 25.72 28.37 29.93 30.51 31.23 29.68 27.24 27.27 30.37 31.43 31.56 32.06 32.44 32.52 31.62 30.02 30.40 31.67 31.27 28.76 26.45 30.66 31.02 29.98 29.31 29.90 31.28 32.51 32.93 33.24 33.33 33.60 33.88 34.24 34.74 35.23 35.64 36.08 36.64 37.43 37.95 38.22 38.22 38.26 38.34 38.63 39.10 39.37 39.71 39.78 40.02 40.82 41.20 41.62 41.40 42.87 41.96 40.89 40.78 40.65 40.70 40.93 41.30 41.39 41.35 41.35 41.53 41.74 41.95 42.01 42.02 42.18 42.31 42.20 42.29 42.37 42.28 42.56 42.61 42.66 42.73 42.90 42.92 42.95 43.09 43.22 43.44 43.62 43.62 43.68 43.77 43.87 44.03 43.99 43.90 44.02 44.15 44.14 44.10 43.93 43.78 43.49 43.57 44.10 44.47 44.34 44.25 44.25 44.08 44.35 44.59 44.98 45.21 45.34 45.54 45.54 45.66 45.94 46.10 46.23 46.34 46.41 46.39 46.10 45.72 45.56 45.91 46.31 46.80 48.01 49.40 47.82 46.98 46.96 46.81 47.02 47.28 47.29 47.26 47.31 47.48 47.70 48.15 48.51 48.62 48.67 48.14 47.16 46.33 45.64 45.99 46.76 47.17 47.87 48.15 48.07 47.91 48.15 47.65 46.68 45.71 45.48 45.76 46.49 46.98 48.24 49.51 50.48 50.97 50.95 51.14 51.33 51.56 51.80 51.89 51.76 51.66 51.91 52.26 52.06 51.80 52.10 52.34 52.38 51.42 50.65 50.29 49.61 49.65 50.75 51.28 51.51 51.73 51.35 51.31 50.96 51.00 51.60 53.45 54.77 55.38 55.77 56.51 57.00 57.60 58.15 57.97 57.13 57.10 57.15 57.16 57.31 57.51 57.51 57.51 57.71 57.83 57.98 58.02 57.99 58.05 58.20 58.45 58.76 58.77 58.82 59.19 59.46 59.87 60.07 60.39 60.45 60.52 60.72 60.88 60.86 60.93 60.99 61.53 62.21 62.64 62.95 63.28 63.57 63.51 63.18 63.11 63.06 63.24 63.23 63.20 63.13 63.17 63.00 62.51 62.11 61.79 61.69 61.66 62.02 62.41 62.09 61.83 61.72 61.88 61.87 61.81 61.80 61.64 61.95 61.92 61.84 61.67 61.45 61.11 60.59 60.57 60.41 60.48 60.55 60.30 59.88 59.27 58.67 57.81 57.18 56.74 56.89 56.81 56.58 56.77 57.38 58.25 58.58 58.84 59.80 59.72 59.74 60.04 59.76 59.18 58.56 56.87 56.46 58.25 59.40 59.76 59.79 59.91 60.16 60.68 60.97 61.39 61.87 62.13 62.64 62.62 62.94 63.41 63.69 64.14 64.61 65.06 65.62 66.25
33.13 33.20 33.33 33.19 33.24 33.46 33.34 33.50 33.55 33.61 33.61 33.88 33.91 33.92 33.90 33.81 33.86 33.94 33.94 33.88 33.91 33.91 33.74 33.61 33.40 33.42 33.21 33.07 33.00 32.75 32.86 32.61 32.37 32.33 32.30 32.27 32.25 32.17 32.00 31.82 31.76 31.97 32.13 32.03 31.85 31.73 31.85 31.89 31.72 31.63 31.34 30.89 30.76 30.86 30.19 28.69 28.21 29.76 31.12 31.42 31.84 31.16 30.77 30.68 30.62 29.51 26.36 20.52 15.55 16.66 19.59 22.68 24.65 26.18 26.18 26.13 28.21 30.02 30.51 31.02 30.48 28.33 27.53 29.80 31.13 31.59 32.23 32.62 32.64 32.24 31.25 30.62 30.96 32.03 27.92 27.26 30.66 32.62 32.62 31.03 30.65 30.34 31.46 32.59 32.86 33.32 33.73 33.90 34.29 34.60 34.96 35.35 35.79 36.60 37.58 37.94 37.92 38.16 38.31 38.48 38.76 39.17 39.45 39.69 39.94 40.64 40.87 40.60 40.77 41.07 41.50 41.64 41.39 40.84 40.72 40.68 40.88 41.25 41.23 41.32 41.52 41.59 41.80 41.98 42.08 42.06 42.12 42.36 42.32 42.38 42.56 42.37 42.61 42.59 42.73 42.94 43.08 42.97 43.01 43.14 43.32 43.51 43.65 43.77 43.83 43.97 44.07 44.16 43.96 43.94 44.07 44.20 44.25 44.34 44.19 43.98 43.63 43.80 44.20 44.42 44.48 44.55 44.41 44.21 44.54 44.71 44.91 45.23 45.54 45.73 45.74 45.79 46.05 46.18 46.32 46.50 46.70 46.51 46.26 45.98 45.53 45.81 46.26 46.60 46.92 47.07 47.08 47.13 47.16 47.05 47.20 47.52 47.53 47.65 47.58 47.57 47.85 48.09 48.60 48.72 48.29 47.79 47.40 47.05 45.76 46.79 47.32 47.43 48.03 48.57 48.56 48.41 48.41 48.63 48.02 46.74 46.15 45.66 46.50 47.69 48.73 49.05 50.21 50.96 51.15 51.32 51.45 51.69 51.93 52.17 52.13 52.02 51.96 52.35 52.23 52.11 52.45 52.58 52.86 52.77 51.96 50.88 50.66 50.03 50.58 51.02 51.21 51.04 50.79 50.81 51.36 51.70 51.38 52.27 54.29 55.29 55.71 56.65 57.45 58.22 58.59 58.54 57.48 57.25 57.27 57.51 57.56 57.59 57.58 57.71 57.94 58.04 58.22 58.23 58.17 58.23 58.32 58.26 58.44 58.81 59.13 59.33 59.59 60.00 60.19 60.54 60.68 60.83 60.91 61.03 61.05 60.98 61.36 61.84 62.49 62.81 63.27 63.61 63.82 63.86 63.58 63.38 63.52 63.83 63.96 64.12 63.90 63.78 63.60 62.99 62.47 62.12 61.64 61.21 61.37 61.82 61.57 61.33 61.31 61.52 61.47 61.30 61.50 61.24 61.44 61.35 61.32 61.38 61.34 60.90 60.49 60.22 59.85 59.74 59.80 59.65 59.32 58.29 57.42 57.19 56.93 56.82 56.77 57.02 57.46 58.12 58.60 58.68 58.78 58.99 59.57 59.74 59.78 59.99 59.79 59.42 58.61 58.33 56.52 57.35 58.97 59.67 59.94 59.98 59.99 60.19 60.77 61.16 61.62 61.98 62.53 62.09 62.53 63.02 63.46 64.01 64.55 64.97 65.49 66.14
33.24 33.16 33.36 33.31 33.25 33.52 33.39 33.41 33.59 33.65 33.67 33.75 33.79 33.83 33.83 33.86 33.96 34.02 34.07 34.05 34.07 33.90 33.70 33.58 33.51 33.53 33.37 33.09 33.12 33.00 32.99 32.87 32.75 32.53 32.37 32.29 32.27 32.20 32.00 31.84 31.84 31.98 31.95 31.87 31.98 31.86 31.88 31.92 31.88 31.79 31.48 31.20 31.05 30.95 30.53 28.54 28.13 29.77 31.68 31.17 31.40 30.90 30.71 29.55 28.24 27.17 25.03 19.16 15.50 16.67 19.82 22.39 24.57 25.80 26.54 26.96 27.84 30.07 30.77 31.38 31.37 30.16 28.40 28.30 30.29 31.77 32.43 32.62 32.65 32.49 32.36 31.45 31.05 31.96 28.98 26.54 30.52 32.54 32.86 32.18 31.82 32.17 31.95 32.63 33.04 33.40 33.96 34.22 34.44 34.57 34.93 35.26 35.67 36.22 37.32 37.63 37.41 37.61 38.26 38.68 38.93 38.94 39.25 40.00 40.67 41.47 41.50 41.03 40.26 40.29 40.33 40.50 42.44 41.07 40.64 40.62 40.82 41.21 41.13 41.42 41.81 41.68 41.80 41.99 42.19 42.17 42.18 42.33 42.44 42.38 42.58 42.66 42.75 42.71 42.81 43.09 42.62 42.29 42.84 43.17 43.50 43.67 43.79 43.95 44.06 44.15 44.32 44.28 44.08 44.16 44.16 44.30 44.37 44.40 44.33 44.21 44.04 43.97 44.25 44.48 44.73 44.82 44.66 44.32 44.61 44.94 45.11 45.26 45.64 45.90 45.94 46.00 46.20 46.33 46.41 46.53 46.63 46.51 46.35 46.10 45.68 45.88 46.32 46.61 46.77 47.01 47.21 47.36 47.45 47.48 47.37 47.27 47.77 48.04 47.96 47.98 48.19 48.30 48.46 48.60 48.29 48.36 48.23 47.30 45.78 47.12 47.78 48.07 48.47 49.06 49.11 48.90 48.76 49.05 48.75 47.20 46.33 45.89 47.06 49.11 49.99 49.71 50.05 50.75 51.23 51.42 51.61 51.85 52.12 52.43 52.38 52.31 52.21 52.33 52.45 52.29 52.71 52.81 53.07 53.42 53.02 52.25 52.15 51.24 50.42 50.55 50.71 50.48 50.73 51.94 52.86 52.58 52.11 52.09 52.77 54.41 55.34 55.83 56.94 58.64 59.23 60.09 59.48 58.21 58.56 58.26 57.82 57.92 58.27 58.55 58.47 58.54 58.53 58.46 58.43 58.52 58.68 58.59 58.79 59.14 59.58 59.69 59.69 59.99 60.38 60.72 60.88 60.99 60.92 61.03 61.25 61.23 61.39 61.80 62.70 63.28 63.60 63.90 64.11 64.28 64.24 64.10 64.31 64.49 64.58 65.05 64.82 64.53 64.23 63.69 63.25 62.59 61.69 61.19 60.79 60.89 60.96 60.93 61.12 61.27 61.17 61.09 61.23 61.01 61.00 60.93 60.83 60.81 61.02 60.92 60.64 60.28 59.84 59.50 59.38 59.22 58.26 57.27 57.04 57.05 57.10 57.40 57.70 57.85 58.33 58.78 58.93 59.24 59.18 59.13 59.29 59.55 59.63 59.77 59.81 59.69 59.28 59.19 58.35 57.58 58.86 59.40 59.87 60.08 60.10 60.11 60.34 60.78 61.26 61.73 62.14 61.78 62.14 62.67 63.20 63.69 64.24 64.81 65.40 66.15
33.20 33.19 33.37 33.49 33.40 33.53 33.56 33.47 33.54 33.63 33.71 33.83 34.02 33.97 33.96 34.05 34.10 34.06 34.17 34.21 34.12 33.89 33.75 33.70 33.75 33.66 33.51 33.26 33.34 33.38 33.17 32.98 32.92 32.70 32.54 32.35 32.33 32.27 32.05 32.05 32.03 31.87 31.70 31.77 32.04 31.93 31.89 31.92 31.90 31.95 31.76 31.55 31.11 30.59 29.63 28.50 28.58 29.21 30.77 31.30 31.68 30.70 29.51 28.40 28.24 28.82 27.49 21.48 15.50 16.71 19.69 21.81 24.37 25.83 26.68 27.33 27.66 29.83 31.26 32.18 32.15 31.38 30.47 28.85 29.02 31.25 32.19 32.48 32.65 32.62 32.49 32.10 31.95 32.10 31.11 28.11 27.99 32.05 32.89 32.97 32.94 33.09 32.92 32.97 33.28 33.39 33.84 34.16 34.35 34.48 34.90 35.35 35.75 36.01 36.80 37.00 37.01 37.30 37.84 38.54 38.84 38.97 39.48 40.70 41.27 41.46 41.72 41.74 41.26 41.34 40.69 40.18 41.35 41.02 40.96 40.86 40.80 41.32 41.23 41.46 41.92 41.85 41.75 41.97 42.18 42.27 42.22 42.35 42.43 42.28 42.40 42.73 42.85 42.74 42.85 43.04 42.76 42.34 42.94 43.30 43.62 43.87 43.98 44.08 44.16 44.23 44.36 44.30 44.20 44.39 44.24 44.35 44.50 44.69 44.63 44.45 44.26 44.05 44.32 44.61 44.85 44.99 44.89 44.52 44.62 44.99 45.27 45.43 45.70 45.98 46.15 46.32 46.77 46.54 46.49 46.60 46.62 46.65 46.91 47.96 46.45 46.01 46.07 46.53 46.80 47.09 47.25 47.84 47.97 47.86 47.64 47.70 48.06 48.41 48.50 48.45 48.43 48.59 48.65 48.67 48.62 48.79 48.44 47.61 46.14 47.41 48.16 48.57 48.89 49.33 49.38 49.13 49.04 49.04 48.73 47.55 46.52 45.69 46.87 48.81 50.16 50.42 50.49 50.77 51.19 51.66 51.82 51.97 52.33 52.63 52.56 52.53 52.41 52.46 52.77 52.65 52.94 53.18 53.47 53.68 53.62 53.35 53.20 52.47 50.51 50.40 50.36 50.50 50.85 52.43 53.29 52.70 52.43 53.06 52.67 51.95 53.70 54.89 56.08 57.75 59.05 60.21 58.99 57.73 58.23 57.54 57.64 57.77 58.00 58.07 58.20 58.41 58.52 58.54 58.54 58.50 58.72 58.91 59.03 59.21 59.60 59.89 60.08 60.30 60.58 60.74 61.00 61.12 61.19 61.16 61.43 61.54 61.77 62.18 62.84 63.41 63.80 64.00 64.23 64.59 64.75 64.65 64.67 65.02 65.35 65.56 65.50 65.27 64.95 64.56 64.01 63.34 62.34 61.44 60.81 60.50 60.44 60.62 60.87 60.87 60.91 60.74 60.95 60.71 60.45 60.41 60.34 60.31 60.55 60.62 60.45 60.33 59.97 59.48 58.77 58.11 57.47 57.46 57.63 58.06 58.12 58.42 58.66 58.01 58.01 58.19 58.27 58.72 58.69 59.16 59.30 59.62 59.86 59.85 59.86 59.89 59.67 59.29 59.11 57.71 58.42 59.38 59.78 60.24 60.32 60.27 60.14 60.38 60.93 61.74 61.51 61.42 61.85 62.33 62.90 63.40 64.02 64.63 65.33 66.32
33.30 33.37 33.46 33.53 33.60 33.70 33.59 33.54 33.53 33.67 33.85 33.93 34.05 33.91 33.87 34.14 34.15 34.11 34.13 34.20 34.14 34.04 33.89 33.80 33.76 33.74 33.57 33.44 33.37 33.25 33.19 33.08 32.94 32.82 32.71 32.61 32.58 32.66 32.25 32.16 32.06 31.86 31.72 31.78 32.09 32.20 32.13 32.05 31.77 31.62 31.24 31.21 31.30 31.25 30.78 30.91 30.31 29.35 30.72 31.60 31.72 30.59 29.87 30.49 31.08 30.07 27.61 21.93 15.50 16.60 19.47 21.70 23.79 25.73 26.83 27.72 28.34 29.75 31.55 32.51 32.45 32.03 30.91 30.12 29.61 30.08 31.41 32.24 32.67 32.76 32.55 32.45 32.67 32.56 32.32 31.31 27.98 28.63 31.99 33.00 33.34 33.40 33.33 33.23 33.46 33.69 33.89 34.01 34.31 34.47 34.83 35.19 35.60 36.00 36.42 36.82 36.91 37.16 37.72 38.26 38.47 38.71 39.38 40.03 41.34 41.38 41.64 42.18 42.46 43.00 41.18 40.07 41.33 41.87 42.64 41.56 40.70 41.23 41.35 41.47 41.77 41.96 42.08 42.27 42.33 42.32 42.25 42.30 42.35 42.35 42.64 42.74 42.77 42.82 42.85 42.97 43.24 43.19 43.32 43.51 43.76 43.91 44.14 44.24 44.33 44.35 44.38 44.47 44.45 44.47 44.48 44.52 44.74 44.88 44.74 44.50 44.22 44.22 44.41 44.69 45.00 45.11 45.02 44.84 44.63 44.91 45.38 45.65 45.79 45.96 46.44 47.25 47.47 46.84 46.58 46.70 46.85 47.49 49.14 48.67 46.87 46.57 46.24 46.44 46.61 47.03 47.35 47.73 47.78 47.93 47.90 47.98 48.18 48.49 48.79 48.74 48.70 48.74 48.69 48.62 48.42 48.03 47.59 46.74 45.92 47.03 47.95 48.56 48.87 49.25 49.51 49.38 49.27 49.26 49.13 48.38 47.07 45.98 46.44 48.79 49.98 50.70 50.95 51.05 51.38 51.70 51.98 52.24 52.52 52.76 52.76 52.79 52.66 52.55 52.57 52.97 53.36 53.62 53.86 53.99 54.10 54.06 53.91 52.41 51.14 52.84 52.15 51.16 51.17 52.31 53.26 52.94 52.60 52.98 52.86 51.82 51.81 52.40 53.46 55.04 57.26 57.42 56.58 56.51 57.03 57.17 57.35 57.53 57.77 57.93 58.22 58.48 58.59 58.63 58.63 58.69 58.86 58.94 59.03 59.33 59.67 60.14 60.47 60.69 60.87 61.03 61.14 61.30 61.34 61.49 61.74 61.82 62.07 62.53 62.87 63.22 63.66 64.04 64.38 64.84 65.09 64.91 64.82 65.12 65.46 65.75 65.94 66.09 65.85 65.28 64.64 63.94 63.12 62.17 61.54 60.82 60.26 60.21 60.41 60.44 60.42 60.33 60.50 60.44 60.10 59.74 59.80 59.83 59.82 59.71 59.43 59.17 58.73 58.14 57.71 57.43 57.47 57.96 58.48 58.87 59.06 59.12 58.77 58.18 58.76 58.70 58.43 58.76 59.08 59.23 59.34 59.65 59.88 60.04 60.20 60.23 60.05 59.82 59.53 58.10 57.16 58.11 59.31 60.19 60.48 60.40 60.18 60.14 60.65 61.61 60.96 61.10 61.77 62.28 62.80 63.43 63.96 64.57 65.58 66.52
33.34 33.35 33.44 33.44 33.67 33.79 33.74 33.79 33.77 33.90 33.96 34.08 34.06 33.93 33.98 34.22 34.10 34.13 34.19 34.32 34.20 34.16 34.14 34.00 33.76 33.76 33.60 33.50 33.36 33.33 33.32 33.11 33.04 32.92 32.78 32.79 32.68 32.49 32.30 32.20 32.10 31.99 31.88 31.86 32.05 32.20 31.78 31.26 31.03 31.83 31.84 31.70 31.63 31.82 31.36 30.89 30.55 29.41 30.24 30.96 31.46 30.89 31.66 31.90 31.75 30.70 28.55 23.30 15.50 16.59 19.42 20.77 22.19 25.28 26.95 27.99 29.01 30.38 31.82 32.53 32.64 32.25 31.13 30.74 30.40 29.54 30.60 31.97 32.69 32.79 32.81 32.93 32.85 32.63 31.51 30.52 29.83 27.22 30.30 32.62 33.35 33.55 33.49 33.33 33.52 33.71 33.82 34.09 34.35 34.59 34.83 35.19 35.66 36.08 36.54 36.97 37.15 37.53 37.92 38.16 38.18 38.82 39.59 40.33 40.80 41.30 41.77 41.83 42.04 42.18 40.84 40.12 40.60 41.30 42.42 41.10 40.70 41.18 41.47 41.57 41.58 41.82 42.18 42.34 42.40 42.38 42.51 42.42 42.44 42.39 42.65 42.74 42.80 42.80 42.83 42.95 43.22 43.26 43.51 43.64 43.74 43.92 44.19 44.33 44.31 44.36 44.40 44.63 44.66 44.61 44.67 44.71 44.82 44.94 44.81 44.62 44.19 44.43 44.69 44.84 45.01 45.20 45.28 45.11 44.84 44.87 45.39 45.76 45.96 46.12 47.26 47.54 46.92 47.03 46.86 47.01 47.31 48.71 48.25 47.24 48.01 48.58 47.66 47.06 46.67 47.00 47.54 47.97 47.99 48.07 48.14 48.24 48.13 48.32 48.72 48.75 48.71 48.66 48.43 48.24 47.90 47.60 47.21 46.64 46.26 47.44 47.96 48.37 48.79 49.43 49.69 49.61 49.55 49.52 49.40 48.78 47.53 46.87 46.89 47.99 49.04 50.20 50.67 51.06 51.45 51.76 52.08 52.35 52.50 52.73 52.93 53.05 52.96 52.70 52.69 53.21 53.82 54.17 54.38 54.49 54.53 54.58 54.42 53.27 52.28 53.71 53.84 52.68 52.44 52.64 53.50 53.60 53.04 52.98 52.46 52.40 52.36 52.03 52.00 52.60 55.33 57.41 56.54 56.50 56.75 57.01 57.09 57.39 57.60 57.87 58.31 58.54 58.65 58.70 58.79 58.81 58.86 59.02 59.25 59.55 59.81 60.26 60.75 61.03 61.16 61.30 61.36 61.52 61.53 61.70 61.94 62.04 62.29 62.61 62.90 63.16 63.61 64.04 64.45 64.95 65.30 65.17 64.96 65.17 65.50 65.79 66.12 66.69 66.65 65.73 65.07 64.17 62.54 62.26 61.87 61.31 60.41 60.07 59.89 60.07 60.12 59.94 60.11 60.38 60.09 59.54 59.15 58.83 58.58 58.17 58.05 57.81 57.65 57.62 57.68 57.46 57.63 58.58 59.20 59.30 59.31 59.35 58.72 58.73 59.24 59.15 58.87 58.78 59.07 59.46 59.73 59.98 60.17 60.18 60.39 60.55 60.65 60.42 59.86 59.24 58.15 56.99 57.40 58.60 59.74 60.21 60.14 60.22 60.70 61.08 60.30 61.08 61.81 62.22 62.53 63.08 64.00 65.04 66.29 66.65
33.38 33.48 33.59 33.67 33.89 33.91 34.08 34.10 34.02 34.06 34.09 34.07 34.03 33.99 34.17 34.42 34.30 34.36 34.41 34.25 34.19 34.20 34.33 34.18 33.76 33.77 33.70 33.62 33.48 33.48 33.42 33.06 33.08 33.00 32.77 32.69 32.67 32.48 32.41 32.25 32.16 32.06 32.03 31.89 31.91 31.65 31.39 31.57 31.84 32.07 31.98 31.93 31.82 32.07 32.10 31.55 30.70 29.84 30.41 30.70 31.56 31.64 31.92 31.97 31.95 31.07 29.59 24.83 16.17 16.29 18.95 20.29 21.64 24.37 26.76 27.87 29.12 30.61 31.89 32.64 32.80 32.48 31.82 30.81 30.49 30.59 30.43 31.52 32.64 32.91 32.91 32.88 32.91 32.65 31.80 31.04 30.91 28.75 27.53 30.86 32.70 33.31 33.30 32.94 33.14 33.54 33.72 34.08 34.39 34.61 34.86 35.28 35.78 36.03 36.44 36.98 37.39 37.70 37.79 37.85 37.97 38.36 39.01 39.57 40.06 40.43 41.15 40.84 41.20 41.31 40.51 39.83 39.80 40.19 41.15 40.81 40.91 41.14 41.47 41.58 41.56 41.82 42.08 42.10 42.29 42.48 42.68 42.58 42.51 42.51 42.64 42.73 42.75 42.86 42.98 43.08 43.32 43.45 43.66 43.72 43.79 43.97 44.18 44.34 44.36 44.40 44.51 44.67 44.66 44.66 44.80 44.83 44.92 44.99 44.80 44.63 44.29 44.47 44.84 45.07 45.15 45.42 45.47 45.36 45.22 45.01 45.28 45.72 46.09 46.32 46.94 46.88 46.97 47.24 47.21 47.37 47.79 47.97 47.55 47.28 47.46 49.04 49.99 49.72 47.35 47.01 47.70 48.72 50.22 50.24 49.20 48.58 48.31 48.38 48.72 48.82 48.72 48.64 48.56 48.43 48.32 47.94 47.47 46.81 46.25 47.20 48.13 48.56 49.09 49.78 50.01 49.91 49.88 49.75 49.47 48.60 47.51 47.19 46.76 47.67 49.08 50.06 50.38 50.78 51.18 51.64 51.96 52.40 52.67 52.88 53.16 53.43 53.16 52.79 52.97 53.40 54.09 54.59 54.89 54.91 54.97 55.11 54.88 53.84 52.41 53.77 54.42 53.57 53.21 52.94 53.46 54.11 53.80 53.60 52.87 53.09 53.36 53.74 53.53 52.46 53.37 56.79 57.04 56.84 56.88 57.16 57.23 57.45 57.69 58.07 58.36 58.54 58.64 58.71 58.69 58.69 58.89 59.08 59.41 59.75 60.05 60.41 60.94 61.28 61.30 61.40 61.55 61.68 61.67 61.66 62.08 62.37 62.53 62.76 63.07 63.29 63.58 64.00 64.41 64.90 65.28 65.41 65.23 65.32 65.59 66.01 66.42 66.80 66.55 65.34 63.84 64.08 62.86 61.45 61.16 61.19 60.69 60.11 59.64 59.46 59.72 59.70 59.59 59.96 59.68 59.10 58.50 57.98 57.56 57.38 57.84 58.00 57.93 58.05 58.11 57.98 58.25 58.83 59.38 59.51 59.42 59.35 58.89 59.16 59.55 59.47 59.31 59.19 59.28 59.46 59.95 60.15 60.37 60.55 60.69 60.87 60.87 60.49 59.95 59.93 59.90 59.07 58.05 57.35 57.49 58.11 58.52 59.06 59.78 59.82 59.68 60.91 61.50 61.85 62.17 63.04 64.64 66.55 67.47 67.16
33.39 33.64 33.65 33.79 33.99 34.01 34.17 34.12 34.07 34.18 34.11 34.15 34.16 34.15 34.24 34.38 34.36 34.41 34.41 34.16 34.42 34.28 34.30 34.34 33.88 33.87 33.84 33.75 33.65 33.57 33.38 33.17 33.11 33.00 32.77 32.74 32.77 32.67 32.48 32.42 32.43 32.21 32.06 31.80 31.82 31.61 31.93 32.24 32.61 32.78 32.32 32.14 31.97 31.82 31.53 31.21 30.42 30.45 30.38 30.54 31.26 31.71 31.69 31.87 31.95 32.02 30.27 27.49 17.47 15.85 18.45 20.02 21.15 22.79 26.08 27.99 29.30 30.73 32.06 32.72 32.92 32.72 32.21 30.75 31.16 31.89 31.20 30.33 31.80 32.74 32.88 33.00 33.09 32.94 32.85 32.64 32.11 30.09 27.01 28.34 31.11 32.11 32.41 32.85 33.26 33.52 33.74 34.13 34.44 34.51 34.84 35.23 35.47 35.78 36.16 36.54 36.94 37.37 37.55 37.68 37.97 38.07 38.45 39.39 39.77 39.42 39.45 39.40 39.76 40.31 39.85 39.38 39.66 39.83 40.40 40.80 40.86 41.04 41.39 41.60 41.58 41.96 42.16 42.19 42.37 42.57 42.66 42.62 42.49 42.64 42.65 42.72 42.78 42.95 43.08 43.18 43.46 43.54 43.69 43.75 43.82 44.05 44.18 44.28 44.42 44.51 44.61 44.68 44.74 44.83 45.02 45.03 45.09 45.01 44.97 44.86 44.56 44.65 44.94 45.12 45.32 45.61 45.57 45.52 45.58 45.34 44.89 45.54 46.44 46.64 46.82 47.04 47.35 47.44 47.55 47.70 47.85 48.01 47.82 47.56 47.24 47.37 48.41 48.84 48.54 47.66 47.98 49.40 51.44 51.89 51.59 49.44 48.65 48.55 48.71 48.87 48.95 48.93 48.98 48.97 48.66 48.15 47.72 46.87 46.67 47.22 47.92 48.42 49.05 49.86 50.25 50.20 50.17 49.97 49.63 48.90 47.86 47.16 46.85 48.52 50.41 50.70 50.87 50.96 51.31 51.69 51.62 52.42 52.79 53.11 53.41 53.61 53.40 53.09 53.07 53.50 54.06 54.56 54.98 55.19 55.27 55.42 55.27 54.53 53.11 53.55 54.71 54.37 53.73 53.49 53.78 54.48 54.33 54.28 54.33 54.75 55.13 55.17 54.53 53.46 52.80 53.15 55.30 56.56 55.84 56.92 57.39 57.48 57.74 58.18 58.48 58.46 58.41 58.51 58.48 58.52 58.71 58.99 59.46 59.88 60.16 60.48 60.83 61.24 61.30 61.39 61.56 61.90 62.03 61.66 62.13 62.58 62.75 62.89 63.22 63.49 63.69 64.11 64.41 64.70 65.12 65.38 65.41 65.47 65.69 66.17 66.65 66.82 66.31 65.21 63.43 62.46 62.95 62.06 60.88 60.66 60.25 59.88 59.56 59.26 59.16 59.10 58.91 58.86 58.52 58.30 58.37 58.35 58.36 58.45 58.30 58.21 58.35 58.89 58.82 58.62 58.73 58.91 59.46 59.58 59.51 59.42 59.12 59.51 59.71 59.55 59.52 59.49 59.61 59.54 59.92 60.10 60.40 60.54 60.68 60.76 60.76 60.26 60.14 60.18 60.25 60.17 59.76 59.21 58.87 58.50 58.53 58.25 57.88 58.45 59.19 60.33 61.06 61.53 62.57 63.34 64.34 66.34 67.88 68.18
33.19 33.53 33.71 33.85 33.96 34.05 34.22 34.18 34.26 34.28 34.27 34.33 34.32 34.31 34.40 34.30 34.22 34.28 34.38 34.23 34.31 34.26 34.25 34.32 34.07 33.95 34.01 33.87 33.75 33.73 33.60 33.39 33.13 33.01 32.89 32.74 32.88 32.75 32.54 32.46 32.45 32.26 32.06 31.80 31.66 31.92 32.62 33.13 33.35 32.92 32.49 32.19 32.00 31.88 31.71 31.30 31.14 30.69 30.69 30.85 31.29 31.76 31.77 32.06 32.05 31.90 29.47 26.97 17.72 15.70 17.55 19.09 20.54 22.21 25.25 27.58 28.99 30.44 32.01 32.79 32.88 32.71 32.27 31.07 31.54 32.29 32.08 30.77 30.96 32.11 32.63 32.97 33.11 33.02 33.09 33.13 32.94 30.26 26.25 28.89 31.50 32.04 32.89 33.44 33.59 33.58 33.78 34.13 34.43 34.53 34.87 35.13 35.29 35.67 35.97 36.10 36.51 37.18 37.36 37.64 38.07 38.21 38.48 38.99 38.97 38.86 38.87 38.91 39.06 39.30 39.29 39.15 39.60 39.76 40.10 40.94 40.81 40.96 41.29 41.66 41.66 41.94 42.04 42.33 42.37 42.36 42.58 42.64 42.62 42.63 42.61 42.68 42.77 42.97 43.05 43.17 43.42 43.65 43.86 43.86 43.97 44.16 44.31 44.32 44.48 44.65 44.66 44.66 44.85 45.06 45.19 45.15 45.12 45.10 45.05 45.04 44.86 44.91 44.99 45.22 45.38 45.64 45.83 45.82 45.85 45.64 45.10 45.56 46.10 46.25 46.63 47.19 47.51 47.69 48.17 47.89 47.91 48.04 48.01 47.73 47.41 47.58 48.75 48.66 50.46 49.13 48.16 48.43 49.07 49.81 50.75 49.76 48.91 48.83 48.93 49.14 49.18 49.27 49.25 49.07 48.42 47.92 47.67 47.06 47.80 48.05 48.21 48.48 48.83 49.39 49.93 50.19 50.25 50.17 49.80 49.11 47.88 46.90 47.34 49.27 50.80 51.06 51.19 51.35 51.54 52.08 52.21 52.46 52.67 53.12 53.53 53.84 53.76 53.41 53.31 53.58 54.01 54.40 54.76 55.04 55.29 55.51 55.48 55.13 54.19 53.67 54.72 54.81 54.49 54.24 54.35 54.83 54.83 54.66 54.64 54.90 55.19 55.09 54.78 54.29 53.83 52.58 53.05 54.47 53.91 56.18 56.92 57.00 57.29 57.83 58.23 58.20 58.08 58.05 58.04 58.17 58.40 58.89 59.43 59.72 60.01 60.17 60.53 60.87 61.12 61.47 61.66 62.06 62.34 62.14 62.29 62.59 62.78 62.99 63.28 63.56 63.86 64.21 64.43 64.53 64.95 65.28 65.32 65.39 65.69 66.21 66.67 66.80 66.35 65.29 64.00 62.10 62.24 63.05 60.87 60.62 60.40 59.94 59.54 59.22 59.03 58.83 58.62 58.46 58.43 58.47 58.49 58.47 58.77 58.79 58.45 58.45 58.89 59.27 59.39 59.33 59.00 58.85 59.49 59.69 59.74 59.64 59.49 59.58 59.79 59.80 59.72 59.67 59.72 59.72 60.04 60.31 60.43 60.62 60.81 61.03 61.02 60.66 60.66 60.67 60.60 60.56 60.38 60.18 60.12 59.56 59.07 59.41 58.80 57.94 58.49 59.34 59.96 61.47 62.61 63.30 64.21 65.12 67.49 69.30
33.32 33.49 33.79 33.98 34.12 34.25 34.28 34.32 34.43 34.37 34.38 34.42 34.49 34.43 34.48 34.52 34.36 34.38 34.51 34.41 34.41 34.29 34.29 34.26 34.18 34.06 34.31 34.24 34.01 33.83 33.72 33.48 33.27 33.11 32.98 32.98 33.06 33.00 32.65 32.60 32.53 32.34 32.10 31.71 31.49 32.21 33.07 33.10 32.85 32.61 32.48 32.20 32.06 32.14 31.92 31.45 31.48 30.91 31.00 31.61 31.85 32.18 31.90 32.23 32.51 30.93 28.01 25.26 17.45 15.85 16.65 18.15 18.74 21.41 24.55 27.29 28.81 30.62 32.26 32.85 32.90 32.77 32.42 31.63 31.41 32.37 32.54 31.80 30.93 31.23 31.91 32.61 32.99 33.03 33.18 33.44 33.31 31.52 27.22 27.56 31.12 32.29 32.98 33.40 33.52 33.64 33.86 34.10 34.36 34.62 34.88 35.04 35.30 35.66 36.05 36.13 36.46 36.96 37.18 37.55 37.96 38.21 38.28 38.51 38.70 38.55 38.49 38.52 38.75 39.15 39.37 39.20 39.54 39.79 40.05 40.64 41.13 40.86 41.09 41.57 41.60 41.71 41.86 42.15 42.09 42.23 42.46 42.53 42.55 42.51 42.53 42.57 42.61 42.86 43.08 43.23 43.45 43.66 43.92 43.98 44.16 44.29 44.48 44.57 44.63 44.75 44.85 44.78 44.99 45.28 45.45 45.28 45.20 45.19 45.19 45.15 45.00 44.89 45.15 45.44 45.65 45.91 45.95 45.93 45.88 45.86 45.84 45.96 46.28 46.46 46.59 47.19 47.57 47.70 47.80 47.86 47.97 48.16 48.14 47.93 47.65 48.18 49.55 49.76 50.88 49.15 47.88 48.18 48.72 49.07 49.23 49.07 49.01 49.06 49.19 49.34 49.37 49.40 49.31 48.89 48.49 48.38 48.18 47.30 47.71 48.32 48.62 49.03 48.97 49.05 49.44 49.89 50.28 50.27 49.98 49.44 47.97 46.85 47.88 49.52 50.66 51.20 51.35 51.61 51.83 52.29 52.72 52.76 52.74 53.15 53.59 53.88 53.98 53.71 53.50 53.59 53.86 54.14 54.59 54.85 55.21 55.60 55.62 55.41 54.92 54.52 54.96 55.10 54.95 54.84 54.66 55.16 55.38 55.12 55.04 55.03 55.33 55.39 55.17 54.63 53.77 53.27 52.81 53.16 54.28 55.75 56.25 56.70 56.93 57.30 57.77 57.85 57.74 57.58 57.40 57.76 58.30 59.00 59.43 59.52 59.80 60.10 60.41 60.60 60.90 61.43 61.76 62.04 62.41 62.50 62.52 62.59 62.84 63.12 63.41 63.61 63.89 64.19 64.30 64.47 64.74 65.12 65.30 65.31 65.56 65.95 66.48 66.68 66.11 65.08 64.15 63.41 63.98 63.55 61.56 60.80 60.74 60.37 59.84 59.55 59.31 59.00 58.82 58.66 58.74 58.77 58.65 58.81 59.22 59.10 59.14 59.12 59.45 59.61 59.75 59.63 59.18 58.89 59.50 59.78 59.85 59.85 59.72 59.64 59.69 59.80 59.76 60.00 60.19 60.23 60.37 60.59 60.72 60.88 60.98 61.20 61.17 60.93 60.90 61.05 60.94 60.80 60.71 60.93 60.68 60.28 59.88 59.54 59.33 59.14 58.48 58.46 58.62 60.01 62.22 62.25 62.00 63.47 66.89 69.33
33.51 33.52 33.94 34.18 34.31 34.38 34.47 34.44 34.48 34.41 34.48 34.58 34.54 34.67 34.64 34.69 34.65 34.50 34.61 34.59 34.58 34.50 34.65 34.49 34.25 34.22 34.18 34.19 34.18 33.99 33.71 33.57 33.43 33.25 33.11 32.96 32.88 33.11 32.82 32.76 32.54 31.93 31.87 32.21 32.13 32.26 32.76 32.67 32.73 32.68 32.59 32.33 32.32 32.16 31.73 31.71 31.59 31.42 31.44 31.64 30.68 32.03 31.81 31.98 32.19 31.05 30.27 28.75 18.45 16.00 16.06 17.07 18.41 20.26 23.87 27.40 29.13 30.90 32.43 32.90 32.98 32.82 32.67 32.42 32.08 32.54 32.83 32.63 32.11 31.80 32.11 32.28 32.58 32.83 33.19 33.51 33.45 33.15 30.91 27.35 29.27 32.10 33.02 33.31 33.56 33.81 34.04 34.19 34.19 34.53 34.81 35.01 35.20 35.44 35.81 36.10 36.09 36.54 37.11 37.38 37.68 38.07 38.11 38.24 38.21 38.27 38.26 38.30 38.61 38.94 39.31 39.57 39.65 39.80 39.98 40.22 41.03 40.88 41.08 41.47 41.39 41.47 41.71 41.94 42.04 42.11 42.17 42.17 42.30 42.29 42.48 42.47 42.56 42.87 43.13 43.30 43.57 43.72 43.96 44.13 44.25 44.40 44.67 44.80 44.85 44.95 45.01 45.04 45.32 45.57 45.51 45.41 45.33 45.24 45.33 45.34 45.23 45.02 45.29 45.64 45.90 46.09 46.12 46.10 45.87 46.05 46.07 46.33 46.51 46.80 46.91 46.94 47.37 47.77 47.82 47.93 48.11 48.25 48.25 48.20 48.04 48.45 49.18 49.44 49.76 48.45 47.71 48.19 48.68 49.20 49.33 49.18 49.22 49.20 49.18 49.40 49.68 49.63 49.36 49.09 48.96 48.64 48.01 47.35 48.15 48.71 49.26 49.59 49.65 49.76 49.78 49.84 50.22 50.35 50.12 49.30 48.13 47.61 47.48 47.73 49.21 50.80 51.38 51.62 51.95 52.51 52.94 53.07 52.89 53.14 53.48 53.81 54.08 54.02 53.73 53.88 53.99 54.27 54.63 54.85 55.19 55.63 55.77 55.72 55.58 55.38 55.44 55.41 55.30 55.26 55.10 55.53 55.78 55.50 55.38 55.57 55.87 55.79 55.57 54.87 54.29 53.84 53.24 52.68 53.74 55.18 55.84 56.47 56.45 56.79 57.11 57.16 57.27 57.38 57.23 57.58 58.26 58.92 59.21 59.30 59.81 60.25 60.37 60.55 60.98 61.35 61.70 62.04 62.46 62.64 62.75 62.76 62.86 63.00 63.25 63.61 63.95 64.10 64.22 64.54 64.86 65.17 65.29 65.26 65.37 65.67 65.97 66.13 65.64 64.88 64.20 63.97 64.12 63.62 62.63 61.21 60.79 60.70 60.22 59.93 59.56 59.01 58.81 58.92 58.90 58.81 58.98 59.14 59.41 59.35 59.44 59.54 59.79 59.97 60.07 59.96 59.43 58.98 59.80 60.13 60.32 60.03 59.86 59.84 59.79 59.93 59.92 60.28 60.55 60.50 60.46 60.73 60.90 60.97 61.12 61.28 61.42 61.39 61.28 61.28 61.18 61.05 61.25 61.29 61.09 60.77 60.57 60.35 59.69 59.87 60.15 59.39 59.07 59.09 60.19 60.60 60.67 62.15 65.79 68.71
33.69 33.63 33.95 34.25 34.40 34.48 34.50 34.53 34.70 34.62 34.66 34.82 34.68 34.58 34.61 34.76 34.82 34.57 34.66 34.65 34.72 34.70 34.74 34.50 34.33 34.33 34.35 34.43 34.20 34.17 33.89 33.81 33.63 33.38 33.24 33.06 33.01 33.19 32.88 32.66 32.21 31.86 32.38 32.53 32.33 32.41 32.60 32.64 32.71 32.70 32.57 32.65 32.70 32.22 32.07 32.10 31.98 32.56 33.18 31.86 31.52 31.78 31.98 32.11 31.80 31.61 30.74 28.03 20.02 16.01 16.00 16.16 17.05 18.84 22.42 26.81 29.11 30.46 31.82 32.91 33.10 33.09 33.05 32.85 32.65 32.80 33.10 33.03 32.90 32.75 32.74 32.61 32.59 32.86 33.10 33.33 33.38 33.37 32.75 29.42 29.54 32.35 33.39 33.56 33.66 33.89 34.19 34.40 34.27 34.41 34.60 34.76 35.03 35.31 35.64 36.01 36.08 36.45 36.86 37.08 37.57 38.02 37.80 37.63 37.80 38.16 38.31 39.03 39.35 39.46 39.63 39.73 39.92 40.05 39.89 39.95 40.50 41.16 41.14 41.28 41.29 41.25 41.49 41.64 41.71 41.93 42.02 42.11 41.99 42.11 42.37 42.57 42.71 42.92 43.18 43.39 43.51 43.82 44.06 44.11 44.26 44.49 44.88 45.02 45.03 45.12 45.09 45.28 45.62 45.92 45.92 45.85 45.66 45.61 45.66 45.62 45.49 45.46 45.54 45.64 45.95 46.26 46.41 46.26 46.00 46.19 46.34 46.54 46.76 47.13 47.29 47.07 47.11 47.45 47.58 47.87 48.13 48.28 48.52 48.61 48.36 48.33 48.24 48.08 48.14 48.06 47.79 48.27 48.79 49.28 49.42 49.34 49.38 49.35 49.31 49.44 49.65 49.59 49.37 49.39 49.24 48.70 48.18 47.69 48.59 49.16 49.56 49.86 50.06 50.17 50.14 50.04 50.28 50.49 50.27 49.47 48.73 48.66 48.03 47.63 48.03 49.98 51.19 51.50 52.05 52.69 53.26 53.50 53.38 53.46 53.53 53.72 54.03 54.15 54.12 54.26 54.36 54.49 55.07 55.30 55.49 55.73 55.96 55.98 56.00 55.86 56.06 55.87 55.65 55.49 55.54 55.86 56.03 55.82 55.70 55.95 56.13 56.03 55.87 55.26 54.60 53.99 53.61 53.36 53.80 54.97 55.32 55.62 55.85 56.17 56.62 57.15 57.44 57.58 56.93 57.56 58.15 58.65 58.83 59.03 59.56 59.92 59.97 60.53 61.16 61.45 61.68 61.99 62.42 62.69 62.95 63.04 62.98 63.02 63.36 63.58 63.87 64.04 64.32 64.60 64.95 65.32 65.40 65.36 65.28 65.28 65.33 65.30 65.10 64.86 64.64 64.50 64.46 64.08 62.74 61.23 60.65 60.51 60.24 59.71 59.37 59.17 58.99 59.18 59.26 59.16 59.21 59.32 59.52 59.73 59.91 59.91 59.92 60.13 60.06 59.81 59.24 59.37 60.38 61.64 62.24 60.39 60.08 59.99 60.01 60.05 60.10 60.32 60.54 60.55 60.60 60.73 60.97 61.21 61.41 61.56 61.75 61.74 61.51 61.65 61.63 61.41 61.59 61.57 61.50 61.21 60.97 60.85 60.30 59.81 60.51 61.23 61.34 61.26 59.31 59.13 59.78 61.14 63.44 66.58
33.83 33.82 34.00 34.34 34.47 34.49 34.53 34.62 34.71 34.65 34.66 34.78 34.77 34.64 34.66 34.82 34.81 34.60 34.78 34.88 34.97 34.91 34.91 34.70 34.66 34.69 34.55 34.40 34.17 34.21 34.06 33.98 33.79 33.51 33.44 33.29 33.18 33.03 32.75 32.54 32.23 32.57 32.80 32.86 32.57 32.59 32.74 32.72 32.80 32.98 33.00 32.79 32.47 32.48 32.61 32.55 32.21 32.75 32.84 31.83 31.48 31.99 32.02 31.98 31.20 29.69 28.25 26.19 22.79 17.13 16.01 16.00 16.00 16.94 19.93 25.14 28.92 30.60 31.83 32.89 33.19 33.32 33.23 33.16 32.81 32.73 32.97 33.17 33.21 33.18 33.15 33.05 32.99 33.11 33.29 33.26 33.50 33.51 33.32 30.95 30.11 32.69 33.14 33.44 33.73 34.00 34.13 34.32 34.32 34.24 34.24 34.54 35.03 35.64 35.77 35.94 36.19 36.56 36.90 37.20 37.47 37.57 37.52 37.56 37.76 37.94 38.29 39.24 39.87 40.00 40.03 40.04 40.22 40.30 40.05 40.05 40.35 41.10 41.36 41.04 41.06 41.19 41.26 41.45 41.51 41.68 41.80 41.95 41.96 42.12 42.35 42.53 42.68 42.93 43.13 43.31 43.57 43.78 44.02 44.05 44.20 44.54 44.91 45.26 45.37 45.36 45.38 45.62 45.85 46.32 46.34 46.26 46.11 46.07 46.02 45.85 45.60 45.70 45.65 45.80 46.10 46.43 46.58 46.49 46.24 46.28 46.61 46.77 47.01 47.47 47.54 47.43 47.31 47.42 47.59 47.76 48.10 48.39 48.61 48.65 48.47 48.48 48.29 48.16 48.06 47.97 47.91 48.14 48.69 49.05 49.16 49.23 49.26 49.35 49.47 49.59 49.71 49.77 49.70 49.68 49.32 48.80 48.55 48.11 48.21 48.60 48.86 49.30 49.58 50.03 50.35 50.38 50.59 50.91 50.92 50.02 49.42 49.27 49.08 48.06 47.79 49.12 51.20 51.63 52.21 52.97 53.46 53.65 53.80 53.82 53.93 53.92 54.11 54.29 54.42 54.58 54.79 54.79 55.16 55.54 55.73 55.96 56.11 56.19 56.27 56.15 56.40 56.45 56.12 55.93 56.07 56.28 56.31 56.26 56.11 56.25 56.41 56.32 56.17 55.57 54.74 54.38 53.97 53.58 53.66 54.87 55.17 55.29 55.32 56.03 56.13 56.58 56.95 57.04 57.07 57.52 57.94 58.30 58.46 58.77 59.15 59.46 59.85 60.29 61.00 61.23 61.35 61.84 62.36 62.72 62.97 63.08 63.15 63.10 63.44 63.78 63.91 64.14 64.37 64.70 65.11 65.42 65.45 65.34 65.23 65.12 64.97 64.88 64.71 64.80 64.95 64.86 64.57 64.34 63.10 61.63 60.62 60.45 60.13 59.99 59.54 59.39 59.25 59.49 59.72 59.75 59.52 59.36 59.71 60.05 60.20 60.23 60.32 60.38 60.13 59.69 59.30 60.05 60.68 60.87 60.78 60.30 60.29 60.19 60.28 60.27 60.40 60.43 60.57 60.63 60.80 60.88 61.07 61.45 61.71 61.78 61.80 61.55 61.60 61.91 61.90 61.68 61.87 61.90 61.82 61.75 61.62 61.07 60.57 60.11 60.12 60.81 61.63 61.70 60.47 59.69 59.60 59.52 61.00 64.00
34.03 34.01 34.02 34.26 34.40 34.46 34.58 34.65 34.65 34.77 34.75 34.80 34.85 34.75 34.77 34.90 34.99 34.97 34.90 34.99 35.03 34.99 35.05 34.92 34.77 34.66 34.61 34.55 34.35 34.35 34.12 34.06 34.02 33.70 33.57 33.48 33.27 33.22 32.98 32.83 32.74 32.94 32.99 33.04 32.71 32.83 32.87 32.76 32.88 33.40 33.03 32.69 32.60 32.75 32.81 32.47 32.49 32.35 32.32 31.99 31.64 31.79 31.86 32.13 31.18 30.32 30.45 29.08 27.13 24.63 18.23 16.06 16.00 16.05 17.25 21.60 27.26 29.81 31.47 32.67 33.25 33.42 33.34 33.37 33.11 33.03 33.05 33.35 33.45 33.35 33.32 33.30 33.36 33.37 33.38 33.34 33.55 33.65 33.60 32.60 29.95 30.49 32.48 33.26 33.50 33.57 33.88 34.29 34.43 34.22 34.00 34.50 34.98 35.46 35.58 35.88 36.24 36.50 36.87 37.21 37.28 37.18 37.21 37.34 37.70 38.15 38.62 39.28 40.16 40.38 40.40 40.31 40.36 40.41 40.24 40.15 40.33 40.62 40.95 41.17 42.00 41.19 41.01 41.18 41.41 41.48 41.71 41.93 42.06 42.24 42.25 42.49 42.76 42.96 43.24 43.49 43.75 43.83 44.03 44.09 44.33 44.75 45.14 45.38 45.61 45.62 45.69 45.94 46.19 46.58 46.62 46.52 46.50 46.29 46.26 46.06 45.77 45.83 45.68 45.87 46.26 46.65 46.86 46.77 46.56 46.54 46.84 47.08 47.32 47.71 47.76 47.60 47.35 47.58 47.78 47.88 48.14 48.49 48.76 48.75 48.77 48.70 48.49 48.43 48.35 48.07 47.85 48.00 48.32 48.68 48.90 49.03 49.24 49.41 49.64 49.71 49.86 50.02 49.97 49.80 49.46 49.21 49.10 48.88 48.54 48.81 48.85 49.05 49.52 50.03 50.49 50.70 51.00 51.42 51.30 50.52 50.02 50.09 50.30 48.74 48.26 48.44 49.47 50.94 52.03 52.72 53.19 53.62 54.05 54.22 54.32 54.26 54.26 54.44 54.65 54.81 55.09 55.25 55.44 55.55 55.82 56.13 56.29 56.49 56.62 56.61 56.64 56.60 56.32 56.29 56.34 56.64 56.67 56.71 56.74 56.72 56.79 56.59 56.43 55.66 55.02 54.61 53.88 53.29 53.55 54.59 55.52 55.86 55.98 56.19 56.31 56.53 56.65 56.82 57.01 57.20 57.64 58.07 58.29 58.63 59.11 59.40 59.74 59.98 60.37 60.60 61.12 61.84 62.35 62.70 62.94 63.14 63.31 63.27 63.43 63.74 64.07 64.24 64.49 64.93 65.31 65.57 65.59 65.43 65.35 65.33 65.23 65.18 64.80 64.55 64.67 64.85 64.56 64.43 63.73 61.97 60.44 60.51 60.56 60.37 60.07 59.95 59.77 59.83 60.07 60.05 59.84 59.47 59.89 60.29 60.49 60.58 60.58 60.51 60.16 59.61 59.68 60.09 60.26 60.32 60.46 60.32 60.16 60.33 60.47 60.55 60.66 60.64 60.73 60.83 60.96 61.11 61.28 61.47 61.76 61.79 61.76 61.69 61.80 62.04 62.04 61.86 62.03 62.09 61.98 62.22 62.05 61.39 60.97 60.69 60.25 60.60 61.23 60.98 60.57 60.57 60.66 59.91 59.47 60.17
34.04 34.23 34.21 34.17 34.43 34.55 34.68 34.67 34.62 34.72 34.83 34.85 34.85 34.87 34.92 34.94 35.00 35.11 35.16 35.13 35.16 35.16 35.10 35.08 35.03 34.76 34.69 34.73 34.53 34.53 34.34 34.22 34.11 33.96 33.89 33.62 33.42 33.25 33.06 32.93 33.01 33.18 33.10 33.00 32.94 32.97 33.13 33.25 33.26 33.01 32.92 32.94 32.86 32.81 32.69 32.59 32.58 32.32 32.26 32.12 31.91 31.76 31.57 31.68 31.85 31.80 31.30 31.00 30.59 29.14 26.60 18.14 16.07 16.00 16.00 17.08 22.89 28.02 31.01 32.97 33.34 33.48 33.51 33.49 33.33 33.36 33.32 33.61 33.74 33.49 33.46 33.57 33.54 33.47 33.48 33.42 33.52 33.72 33.84 33.63 31.91 29.35 30.04 31.18 32.54 32.61 33.55 33.87 33.68 33.78 34.08 34.46 34.93 35.12 35.33 35.75 36.30 36.59 36.69 36.85 37.12 36.95 37.08 37.47 37.75 38.16 38.54 39.12 39.91 40.40 40.64 40.54 40.55 40.58 40.41 40.31 40.35 40.51 41.10 41.82 42.44 41.44 40.98 41.09 41.19 41.25 41.57 41.88 42.07 42.18 42.24 42.38 42.81 42.86 43.15 43.47 43.68 43.74 43.96 44.12 44.51 44.97 45.25 45.44 45.74 45.87 45.98 46.21 46.47 46.71 46.92 46.87 46.83 46.64 46.56 46.19 46.07 45.95 45.89 46.05 46.38 46.86 47.13 47.03 46.73 46.85 47.33 47.54 47.64 47.75 47.82 47.68 47.52 47.70 47.90 47.95 48.30 48.67 48.90 49.00 48.94 48.84 48.69 48.62 48.63 48.19 47.94 48.25 48.36 48.56 48.70 48.99 49.22 49.48 49.77 49.81 49.97 50.18 50.19 50.08 49.86 49.61 49.53 49.10 48.70 49.12 49.42 49.08 49.59 50.11 50.66 51.02 51.49 51.76 51.38 50.75 50.45 50.73 50.70 49.06 48.77 48.90 48.88 50.11 51.72 52.70 53.31 53.80 54.34 54.54 54.58 54.46 54.47 54.59 54.90 55.15 55.43 55.64 55.59 55.69 55.93 56.09 56.51 56.84 56.93 57.04 56.94 56.79 56.75 56.62 56.73 56.79 56.97 56.95 57.28 57.30 57.19 56.93 56.50 55.97 55.69 55.19 54.07 53.39 54.03 55.48 56.07 56.14 56.58 56.81 56.77 56.93 57.00 57.09 57.22 57.30 57.60 57.92 58.24 58.72 59.24 59.59 60.01 60.15 60.36 60.70 61.23 61.78 62.33 62.74 63.07 63.23 63.47 63.60 63.65 63.81 64.36 64.50 64.80 65.28 65.52 65.64 65.60 65.56 65.53 65.56 65.50 65.34 64.87 64.51 64.29 64.46 64.49 64.34 63.31 61.57 60.29 60.53 60.37 60.34 60.03 59.73 60.06 60.30 60.32 60.19 60.01 59.69 60.02 60.55 60.73 60.75 60.76 60.74 60.43 59.80 59.77 59.88 60.43 60.53 60.57 60.58 60.44 60.59 60.61 60.82 60.89 60.98 61.11 61.19 61.27 61.37 61.53 61.57 61.64 61.97 62.01 62.00 61.92 62.17 62.15 61.94 61.99 62.21 62.25 62.47 62.30 61.94 61.54 61.19 60.62 61.08 61.52 61.27 60.54 60.60 60.55 60.57 60.88 60.18
34.00 34.20 34.16 34.14 34.53 34.76 34.81 34.75 34.80 34.78 34.92 34.90 34.97 35.13 35.13 35.11 35.23 35.32 35.51 35.37 35.42 35.53 35.40 35.35 35.31 35.06 34.90 34.85 34.69 34.63 34.41 34.33 34.18 34.17 34.01 33.79 33.50 33.28 33.00 32.77 33.15 33.27 33.20 33.09 33.05 33.14 33.64 33.75 33.25 33.00 33.03 33.01 33.01 32.95 32.94 32.65 32.45 32.38 32.32 32.29 31.96 31.47 30.95 30.95 31.47 31.72 30.48 31.14 29.73 27.49 26.86 21.62 17.09 16.22 16.00 16.00 17.21 22.54 28.79 31.99 33.25 33.51 33.64 33.57 33.45 33.62 33.58 33.57 33.62 33.73 33.65 33.58 33.61 33.67 33.58 33.60 33.60 33.71 33.78 33.89 33.77 31.93 30.66 30.11 29.72 30.42 31.94 32.40 33.33 34.02 34.37 34.68 34.82 35.11 35.32 35.56 36.05 36.29 36.29 36.52 36.90 36.80 37.14 37.59 37.84 38.11 38.72 39.12 39.54 40.23 40.75 40.81 40.74 40.69 40.54 40.42 40.50 40.64 40.90 41.89 42.29 41.56 40.96 41.07 41.27 41.30 41.38 41.90 41.97 42.21 42.27 42.43 42.75 42.78 43.03 43.30 43.56 43.70 43.92 44.12 44.47 44.79 45.00 45.28 45.68 45.95 46.23 46.53 46.91 46.93 47.22 47.27 47.01 46.93 46.77 46.53 46.36 46.20 46.09 46.17 46.37 46.87 47.21 47.11 46.83 47.09 47.61 47.73 47.92 48.00 47.88 47.73 47.78 47.89 48.06 48.29 48.47 48.74 48.98 48.98 49.07 48.87 48.61 48.79 48.71 48.31 48.02 48.33 48.63 48.73 48.83 49.09 49.37 49.55 49.88 50.03 50.19 50.32 50.49 50.43 50.27 49.89 49.72 49.39 49.05 49.04 49.34 49.42 49.55 49.95 50.68 51.31 51.70 51.84 51.54 51.15 51.01 51.25 50.70 49.50 49.35 49.43 49.34 49.08 49.52 51.12 52.91 53.83 54.28 54.54 54.55 54.44 54.56 54.78 55.12 55.39 55.57 55.74 55.76 55.95 56.18 56.39 56.69 56.92 57.14 57.37 57.33 57.18 57.05 57.11 57.03 57.14 57.26 57.25 57.58 57.68 57.72 57.27 56.76 56.62 56.25 55.72 54.97 53.54 53.94 55.91 56.65 56.64 56.79 57.13 57.16 57.22 57.20 57.39 57.60 57.84 57.92 58.13 58.32 58.64 59.09 59.48 59.95 60.36 60.75 61.11 61.40 61.97 62.47 63.02 63.36 63.39 63.59 63.81 63.84 63.83 64.47 64.77 65.05 65.49 65.73 65.76 65.69 65.64 65.61 65.64 65.50 65.30 64.88 64.44 64.08 63.93 64.05 64.16 63.40 61.25 60.44 60.44 60.12 60.13 60.15 60.17 60.43 60.53 60.56 60.53 60.16 59.85 60.12 60.62 60.84 60.88 60.93 60.84 60.51 59.88 59.99 59.85 60.38 60.54 60.78 60.86 60.75 60.84 60.91 61.20 61.26 61.23 61.37 61.42 61.57 61.72 61.77 61.83 61.96 62.10 62.10 62.15 62.26 62.40 62.38 62.19 62.33 62.43 62.48 62.61 62.30 62.07 61.94 61.80 61.27 61.30 61.47 61.13 60.91 61.11 61.16 61.01 61.41 61.69
34.24 34.18 34.19 34.13 34.54 34.89 34.91 34.94 34.94 34.91 35.07 35.12 35.07 35.11 35.19 35.23 35.34 35.50 35.54 35.60 35.74 35.79 35.68 35.58 35.53 35.30 35.11 34.97 34.83 34.66 34.44 34.34 34.27 34.23 34.01 33.79 33.73 33.56 33.31 33.08 33.28 33.41 33.38 33.18 33.26 33.48 33.90 33.58 33.45 33.25 33.22 33.15 33.01 32.98 32.28 32.02 32.09 32.10 31.93 32.24 31.31 30.48 29.50 28.91 28.50 29.22 29.25 30.79 29.57 26.21 25.19 24.71 19.18 16.96 16.66 16.19 16.01 16.59 22.70 29.88 32.77 33.40 33.69 33.69 33.69 33.64 33.65 33.73 33.85 33.98 33.90 33.79 33.84 33.79 33.70 33.68 33.75 33.84 33.76 33.84 34.06 33.70 32.40 32.70 32.11 30.33 30.11 32.63 33.55 34.10 34.40 34.68 34.91 35.16 35.34 35.56 35.89 36.07 36.18 36.78 37.02 36.98 37.25 37.66 38.00 38.28 38.63 38.86 39.19 39.93 40.63 40.92 40.93 40.81 40.66 40.42 40.37 40.72 40.97 41.92 42.44 41.30 40.99 41.38 41.66 41.73 41.49 41.93 41.98 42.14 42.28 42.46 42.68 42.92 43.19 43.34 43.56 43.82 44.10 44.35 44.43 44.59 44.92 45.35 45.77 46.01 46.31 46.62 47.08 47.22 47.45 47.55 47.41 47.25 47.14 46.95 46.64 46.42 46.37 46.48 46.44 46.74 47.18 47.27 47.06 47.07 47.51 47.70 48.01 48.06 47.89 47.85 47.91 48.08 48.30 48.42 48.55 48.76 48.92 48.89 48.94 48.91 48.77 49.02 48.89 48.61 48.30 48.31 48.53 48.74 49.03 49.12 49.37 49.60 49.91 50.16 50.32 50.35 50.49 50.53 50.39 50.20 49.92 49.64 49.54 49.40 49.52 49.65 49.94 50.03 50.49 51.11 51.48 51.74 51.65 51.43 51.46 51.57 51.24 50.38 50.25 50.24 50.26 49.73 48.98 50.06 52.07 53.19 53.69 53.99 54.20 54.21 54.59 54.95 55.25 55.40 55.63 55.87 56.12 56.35 56.66 56.88 57.03 57.06 57.33 57.59 57.56 57.48 57.43 57.48 57.25 57.31 57.52 57.77 57.95 58.04 58.05 57.54 57.26 57.05 56.58 55.99 55.31 54.07 53.77 55.52 56.63 57.01 56.95 57.13 57.44 57.45 57.29 57.59 57.83 58.18 58.36 58.58 58.73 58.79 59.08 59.42 59.86 60.45 61.04 61.37 61.53 62.04 62.53 63.02 63.33 63.32 63.38 63.78 64.07 63.98 64.18 64.65 65.12 65.44 65.69 65.65 65.53 65.59 65.62 65.59 65.42 65.25 64.91 64.61 64.41 64.22 64.35 64.77 64.01 62.13 61.01 60.57 60.28 60.13 60.10 60.44 60.78 60.83 60.82 60.69 60.30 60.10 60.37 60.75 61.00 61.01 60.98 60.83 60.35 60.03 60.40 60.15 60.36 60.63 61.04 60.95 60.86 60.88 61.17 61.39 61.48 61.58 61.64 61.70 61.88 61.98 61.97 62.03 62.19 62.35 62.32 62.30 62.50 62.75 62.68 62.47 62.65 62.69 62.77 62.74 62.48 62.45 62.52 62.55 61.79 61.73 61.72 61.04 61.12 61.37 61.49 61.40 61.75 62.16
34.34 34.24 34.26 34.20 34.60 34.93 34.97 34.97 35.00 34.97 35.21 35.30 35.14 35.22 35.33 35.43 35.61 35.68 35.73 35.77 35.86 35.89 35.85 35.73 35.68 35.61 35.41 35.21 34.98 34.86 34.64 34.48 34.47 34.26 34.16 34.05 33.88 33.73 33.68 33.28 33.28 33.42 33.40 33.39 33.58 33.76 33.70 33.62 33.57 33.29 33.28 33.26 33.34 32.87 32.02 31.45 30.82 30.75 30.05 29.85 28.88 27.92 26.35 27.08 27.80 26.61 26.42 27.80 27.32 23.46 23.37 22.36 19.78 20.46 21.54 19.25 16.92 16.08 16.77 21.19 26.91 31.79 33.60 33.73 33.75 33.71 33.70 33.97 33.97 33.85 33.92 33.99 33.88 33.88 33.85 33.74 33.86 33.92 33.81 33.84 33.86 33.70 32.77 33.10 33.66 32.51 29.84 31.65 33.13 34.04 34.41 34.57 34.74 35.05 35.37 35.58 35.76 36.04 36.08 36.32 36.58 36.86 37.13 37.57 38.02 38.12 38.39 38.81 39.42 39.87 40.50 40.87 40.77 40.70 40.56 40.28 40.21 40.91 41.25 41.78 42.45 42.22 41.33 41.71 41.85 41.84 41.92 42.13 42.25 42.37 42.48 42.60 42.78 42.82 43.08 43.33 43.43 43.72 44.14 44.44 44.65 44.77 44.98 45.32 45.72 46.11 46.41 46.72 47.21 47.39 47.55 47.78 47.95 47.63 47.41 47.19 46.92 46.71 46.73 46.81 46.62 46.74 47.14 47.31 47.23 46.94 47.32 47.63 47.90 47.91 47.89 47.88 48.02 48.21 48.48 48.67 48.69 48.76 48.92 48.99 49.02 49.11 49.21 49.36 49.23 48.95 48.42 48.52 48.73 48.78 48.94 49.18 49.42 49.58 49.84 50.13 50.28 50.40 50.61 50.79 50.69 50.55 50.21 49.87 49.96 50.00 50.02 49.84 50.15 50.55 50.54 50.83 51.18 51.42 51.64 51.78 51.78 51.94 51.76 51.25 51.12 51.15 51.01 50.54 48.88 49.93 51.75 52.74 52.93 53.17 53.55 53.96 54.31 54.55 54.94 55.21 55.51 55.84 56.23 56.50 56.87 57.23 57.38 57.35 57.62 57.90 57.82 57.97 57.86 57.97 57.82 57.69 57.76 58.12 58.27 58.18 58.11 57.91 57.85 57.32 56.63 55.78 55.27 54.45 53.73 54.14 55.34 56.52 56.95 57.29 57.54 57.64 57.46 57.68 58.06 58.33 58.64 58.82 58.99 59.13 59.29 59.50 59.83 60.27 60.70 61.02 61.33 61.92 62.40 63.02 63.10 62.85 63.04 63.61 64.20 64.38 64.59 64.54 64.59 64.96 65.31 65.56 65.25 65.42 65.57 65.54 65.42 65.24 65.08 64.96 64.85 64.77 64.83 64.76 64.64 63.19 61.24 60.75 60.61 60.43 60.38 60.41 60.86 61.28 61.07 60.82 60.48 60.33 60.51 60.78 61.08 61.16 60.99 60.77 60.44 60.39 60.67 60.43 60.65 60.84 61.13 61.06 61.00 60.94 61.18 61.49 61.65 61.82 61.90 61.95 62.11 62.24 62.25 62.32 62.34 62.55 62.59 62.56 62.72 63.00 62.92 62.81 62.76 62.93 62.98 62.86 62.87 62.85 62.81 62.50 62.01 61.94 61.75 61.16 61.21 61.34 61.68 62.08 61.76 61.83
34.36 34.43 34.52 34.38 34.78 34.78 34.93 35.07 35.17 35.23 35.43 35.43 35.39 35.49 35.61 35.69 35.84 35.89 35.90 35.78 35.88 36.01 35.95 35.83 35.80 35.77 35.59 35.32 35.17 35.05 34.94 34.85 34.96 34.44 34.26 34.15 34.07 33.89 33.50 33.33 33.28 33.48 33.57 33.47 33.46 33.88 33.80 33.66 33.70 33.50 33.17 33.22 33.08 32.41 32.15 31.67 30.90 30.58 31.05 30.92 30.59 29.19 28.32 29.79 30.56 29.70 26.22 25.38 22.88 21.41 20.20 20.50 22.77 25.24 25.33 23.55 20.84 17.64 16.12 16.31 18.22 25.38 32.47 33.73 33.71 33.68 33.74 33.93 33.88 33.97 34.06 34.14 34.06 34.07 34.05 34.12 34.12 34.05 33.99 33.95 33.90 33.69 33.31 33.42 33.05 31.93 30.10 30.06 31.36 33.76 34.17 34.27 34.47 34.72 34.99 35.39 35.56 35.65 35.84 36.21 36.35 36.73 37.15 37.57 37.74 38.05 38.53 39.00 39.31 39.53 40.36 40.88 40.56 40.34 40.16 40.04 40.97 42.51 42.33 41.58 42.12 43.45 42.14 41.78 41.88 42.00 42.19 42.47 42.54 42.75 42.76 42.83 42.90 42.91 42.96 43.17 43.38 43.63 44.16 44.46 44.58 44.76 45.02 45.43 45.78 46.24 46.51 46.78 47.27 47.49 47.68 47.94 48.43 48.01 47.73 47.47 47.29 47.07 47.02 46.99 46.89 46.98 47.17 47.18 47.24 47.10 47.27 47.44 47.66 47.81 47.84 47.95 48.16 48.38 48.58 48.74 48.85 48.81 48.95 49.07 49.07 49.24 49.72 50.19 49.93 49.32 48.70 48.67 48.91 48.91 49.05 49.18 49.40 49.69 49.82 49.96 50.30 50.52 50.72 50.95 51.12 50.96 50.48 50.34 50.57 50.54 50.36 50.21 50.20 50.70 50.69 50.92 51.26 51.51 51.73 52.09 52.25 52.30 52.17 51.78 51.82 51.76 51.20 50.39 49.22 50.31 50.95 51.88 52.25 53.14 53.65 53.84 54.11 54.38 54.84 55.20 55.43 55.78 56.33 56.76 56.98 57.39 57.75 57.72 57.86 58.13 58.25 58.34 58.30 58.25 58.14 58.04 58.05 58.26 58.36 58.49 58.52 58.26 57.80 57.19 56.63 56.28 55.76 54.83 54.08 53.83 54.30 55.28 56.44 57.29 57.47 57.68 57.61 57.71 57.94 58.30 58.60 58.74 58.91 59.11 59.30 59.52 59.76 60.07 60.32 60.67 61.10 61.64 62.20 62.83 62.83 62.57 62.80 63.32 63.93 64.41 64.79 64.92 64.86 64.98 65.03 65.16 65.21 65.32 65.44 65.47 65.49 65.39 65.35 65.25 65.20 65.22 65.30 65.17 64.64 62.74 60.71 60.85 60.65 60.82 60.84 60.92 61.33 61.41 61.14 60.92 60.53 60.46 60.60 60.82 61.19 61.21 60.97 60.93 60.83 60.76 60.77 60.53 60.67 60.83 61.11 61.17 61.33 61.46 61.34 61.63 61.90 62.10 62.21 62.28 62.36 62.48 62.61 62.63 62.64 62.86 62.96 62.97 62.99 63.25 63.34 63.30 62.91 63.17 63.13 63.04 63.02 62.95 62.87 62.60 62.20 62.08 61.89 61.57 61.88 61.93 62.02 62.22 62.00 61.95
34.48 34.42 34.34 34.49 34.61 34.66 34.78 35.02 35.16 35.37 35.55 35.59 35.60 35.56 35.65 35.70 35.88 35.95 35.97 35.77 35.87 36.13 36.04 35.96 35.93 35.89 35.79 35.58 35.44 35.29 35.23 35.06 34.90 34.61 34.37 34.30 34.25 34.07 33.84 33.78 33.78 33.92 33.76 33.66 33.58 33.79 33.78 33.69 33.76 33.68 33.42 33.35 32.61 31.93 31.95 32.21 31.93 32.07 31.98 32.07 31.01 28.95 29.79 31.79 31.92 30.71 27.34 23.75 21.70 21.50 20.17 21.79 23.85 25.88 26.36 25.65 24.05 21.47 18.50 16.92 16.55 17.74 23.92 30.64 33.11 33.30 33.29 33.64 33.90 34.09 34.08 34.06 34.32 34.28 34.23 34.23 34.17 34.20 34.22 34.21 34.18 33.83 33.60 32.79 32.20 32.23 32.04 31.57 30.00 31.92 32.66 33.48 33.85 34.40 34.74 35.14 35.43 35.39 35.73 36.11 36.40 36.83 37.18 37.67 37.87 38.17 38.47 38.68 38.85 39.25 40.11 40.82 40.41 39.90 39.85 39.84 41.14 43.23 44.13 43.02 42.23 43.22 42.75 41.70 41.97 42.24 42.39 42.48 42.64 42.81 42.96 43.04 43.05 43.07 43.07 43.34 43.50 43.60 43.86 44.16 44.40 44.82 45.21 45.63 45.90 46.40 46.61 46.99 47.37 47.55 47.87 48.09 48.88 48.67 48.32 47.82 47.54 47.44 47.36 47.23 47.19 47.02 47.12 47.24 47.30 47.35 47.23 47.37 47.59 47.84 47.86 48.00 48.25 48.51 48.76 49.05 49.12 48.99 49.05 49.07 49.23 49.52 50.22 50.77 50.30 49.78 48.90 48.67 48.99 49.18 49.15 49.26 49.48 49.88 50.03 50.11 50.22 50.46 50.73 50.97 51.18 51.15 50.78 50.86 50.93 50.88 50.50 50.46 50.43 50.51 50.89 51.08 51.55 51.97 52.14 52.47 52.67 52.64 52.55 52.14 52.18 52.13 51.42 50.49 49.63 50.61 51.84 52.11 52.56 53.28 53.90 54.20 54.44 54.73 55.13 55.49 55.81 56.05 56.51 56.91 57.31 57.54 57.86 57.99 58.06 58.26 58.50 58.62 58.70 58.60 58.52 58.41 58.36 58.50 58.53 58.66 58.78 58.27 57.69 57.27 56.98 56.75 55.86 54.88 54.27 53.89 54.32 54.81 55.92 57.06 56.82 57.14 57.57 57.78 57.94 58.26 58.43 58.66 58.72 59.01 59.23 59.42 59.60 59.88 60.15 60.39 60.67 61.01 61.52 62.04 62.20 62.35 62.83 63.49 64.15 64.49 64.81 65.10 65.22 65.20 65.07 65.08 65.25 65.37 65.43 65.58 65.62 65.58 65.51 65.48 65.39 65.44 65.39 64.98 64.10 61.69 60.79 61.18 61.08 61.04 61.52 62.57 62.27 61.68 61.23 60.96 60.79 60.62 60.82 61.02 61.39 61.39 61.19 61.06 60.99 61.12 61.08 60.74 60.53 60.87 61.30 61.39 61.51 61.50 61.58 61.87 62.08 62.36 62.45 62.43 62.63 62.79 62.82 62.95 63.15 63.22 63.27 63.19 63.10 63.36 63.62 63.52 63.22 63.36 63.43 63.35 63.36 63.31 63.16 62.73 62.27 62.19 61.88 61.78 62.07 62.12 62.05 62.34 62.32 62.32
34.57 34.61 34.40 34.52 34.75 34.84 34.93 35.08 35.20 35.36 35.58 35.62 35.58 35.64 35.70 35.76 35.90 35.99 36.07 35.92 35.92 36.20 36.11 35.99 35.99 36.00 35.96 35.76 35.65 35.43 35.37 35.14 34.86 34.70 34.54 34.51 34.41 34.39 34.26 33.99 33.91 34.01 33.91 33.76 33.59 33.81 33.87 33.77 33.74 33.72 33.40 32.99 32.72 32.53 32.80 32.77 32.63 32.55 32.21 31.23 29.73 28.60 30.16 32.20 32.30 31.74 28.98 23.89 22.04 21.98 20.25 21.36 22.94 24.61 25.52 26.12 25.90 24.62 22.18 19.73 17.81 16.78 16.81 19.00 23.97 28.67 30.90 33.40 34.01 34.16 34.21 34.15 34.62 34.64 34.24 34.30 34.33 34.39 34.33 34.24 34.19 33.96 33.36 32.14 33.03 33.74 33.40 31.98 31.25 33.04 32.84 33.13 33.72 34.20 34.68 34.95 35.36 35.56 35.83 36.12 36.37 36.81 37.17 38.17 38.10 38.07 38.16 38.19 38.53 39.07 39.70 40.24 40.11 39.75 39.76 40.08 40.71 41.98 43.06 43.88 42.77 42.32 42.86 42.08 41.79 42.14 42.35 42.50 42.70 42.90 43.18 43.35 43.39 43.58 43.63 43.67 43.83 43.67 43.68 43.96 44.36 45.03 45.35 45.71 46.07 46.59 46.94 47.30 47.58 47.57 47.90 48.20 48.56 48.98 48.61 48.53 48.16 47.94 47.78 47.62 47.44 47.09 47.18 47.43 47.40 47.46 47.40 47.42 47.58 47.90 47.86 48.07 48.26 48.60 48.84 49.11 49.13 49.02 49.12 49.14 49.43 50.07 50.43 50.49 50.05 49.65 49.16 48.92 49.06 49.13 49.28 49.36 49.44 49.78 50.08 50.27 50.37 50.50 50.73 50.97 51.35 51.36 51.26 51.31 51.20 51.07 50.79 50.73 50.67 50.66 51.21 51.37 51.70 52.22 52.55 52.82 52.93 52.81 52.61 52.46 52.56 52.45 51.99 51.78 50.32 50.67 52.10 52.70 53.09 53.49 53.91 54.28 54.70 55.03 55.45 55.73 56.11 56.36 56.75 57.09 57.59 57.89 58.08 58.23 58.15 58.28 58.66 58.90 58.98 59.01 58.99 58.80 58.76 58.87 58.92 58.97 58.84 58.30 57.86 57.55 57.17 56.61 55.66 55.21 55.05 54.26 54.48 54.70 55.37 56.09 56.11 56.29 56.96 57.67 58.07 58.31 58.41 58.59 58.63 58.82 59.09 59.28 59.38 59.71 60.07 60.46 60.69 60.88 61.19 61.67 61.94 62.31 63.02 63.77 64.55 65.03 65.16 65.30 65.39 65.33 65.24 65.23 65.21 65.41 65.58 65.68 65.74 65.66 65.60 65.47 65.34 65.12 64.93 64.55 63.49 61.71 61.38 61.65 61.73 61.28 62.51 63.73 62.75 61.86 61.39 61.26 61.03 60.85 61.14 61.23 61.62 61.60 61.35 61.22 61.29 61.33 61.25 61.12 60.82 60.97 61.34 61.57 61.65 61.68 61.76 62.05 62.23 62.52 62.65 62.82 63.00 63.01 63.13 63.23 63.39 63.38 63.40 63.30 63.23 63.39 63.69 63.54 63.48 63.55 63.72 63.95 63.84 63.59 63.40 62.92 62.47 62.32 62.17 61.99 62.17 62.36 62.40 62.62 62.48 62.38
34.59 34.76 34.56 34.63 34.65 34.75 34.93 35.20 35.30 35.45 35.58 35.51 35.59 35.69 35.70 35.78 35.88 35.94 35.99 35.88 35.90 36.13 36.10 35.97 36.01 36.01 35.89 35.83 35.74 35.47 35.41 35.24 35.02 34.89 34.69 34.62 34.64 34.39 34.14 34.00 33.96 33.94 34.06 33.87 33.88 33.94 33.93 33.91 33.70 33.39 33.26 33.13 33.29 33.27 33.14 33.08 32.99 32.64 31.69 31.44 30.93 29.38 31.09 32.47 32.24 30.70 27.51 27.55 24.62 23.21 21.67 19.96 20.53 21.14 21.95 23.14 24.64 25.40 24.83 23.01 20.95 19.12 17.77 16.86 16.67 17.73 22.03 29.91 33.53 34.10 34.22 34.29 34.47 34.61 34.47 34.47 34.49 34.45 34.39 34.33 34.20 34.06 33.30 32.60 33.46 34.13 34.13 32.58 31.46 33.43 34.07 33.78 34.08 34.37 34.62 34.99 35.46 35.62 35.92 36.13 36.38 36.73 36.97 37.47 37.54 37.67 37.80 38.02 38.34 39.16 39.73 39.81 39.54 39.43 39.95 40.55 40.78 42.17 42.41 42.72 42.53 42.03 42.57 42.95 42.03 42.14 42.42 42.55 42.82 42.95 43.15 43.38 43.66 44.00 43.90 43.86 43.92 43.75 43.79 44.00 44.43 44.82 45.19 45.56 45.96 46.50 47.07 47.45 47.72 47.95 48.21 48.55 48.90 49.07 49.10 48.74 48.53 48.37 48.11 47.89 47.62 47.26 47.38 47.53 47.59 47.70 47.73 47.75 47.73 47.98 48.08 48.07 48.05 48.45 48.72 49.03 49.56 49.42 49.26 49.29 49.71 50.28 50.41 50.26 50.08 49.72 49.22 49.30 49.39 49.41 49.42 49.52 49.67 49.74 50.00 50.19 50.57 50.86 50.89 51.03 51.22 51.42 51.62 51.65 51.51 51.29 51.00 50.79 50.96 51.00 51.57 51.91 51.87 52.25 52.57 52.82 53.03 52.92 52.86 52.85 52.88 52.69 52.38 51.79 50.54 50.31 52.03 53.04 53.40 53.74 54.12 54.39 54.88 55.26 55.69 55.97 56.29 56.66 56.97 57.36 57.77 58.01 58.28 58.44 58.45 58.60 58.80 59.07 59.24 59.39 59.43 59.29 59.18 59.31 59.33 59.25 58.70 58.22 57.78 57.30 56.87 56.23 55.91 55.93 55.68 54.72 54.50 54.98 55.22 55.27 55.60 56.05 56.33 57.21 57.87 58.15 58.28 58.39 58.34 58.49 58.78 58.95 59.17 59.81 60.07 60.37 60.46 60.69 61.18 61.50 61.97 62.44 63.09 63.90 64.64 65.39 65.74 65.57 65.47 65.41 65.32 65.25 65.31 65.42 65.61 65.78 65.76 65.73 65.62 65.42 65.09 64.65 64.20 63.97 63.68 62.59 62.12 62.35 62.85 62.17 63.49 64.29 63.23 62.05 61.62 61.59 61.18 61.07 61.32 61.45 61.84 61.80 61.66 61.59 61.53 61.57 61.44 61.24 61.15 61.17 61.32 61.61 61.89 61.87 61.83 62.20 62.47 62.66 62.91 63.19 63.37 63.37 63.39 63.42 63.49 63.58 63.55 63.44 63.51 63.47 63.78 63.82 63.91 64.02 64.17 64.02 63.85 63.73 63.48 63.09 62.81 62.86 62.82 62.41 62.31 62.60 62.64 62.87 62.58 62.58
34.80 34.76 34.84 34.78 34.46 34.78 35.06 35.37 35.45 35.49 35.54 35.59 35.60 35.64 35.67 35.79 35.98 36.00 35.97 35.92 35.89 35.97 36.01 36.00 36.01 35.99 35.88 35.85 35.87 35.73 35.54 35.38 35.32 35.08 34.90 34.68 34.52 34.41 34.20 33.99 33.95 34.00 34.02 33.90 33.90 33.95 33.90 33.79 33.74 33.61 33.49 33.41 33.71 33.76 33.45 33.35 33.13 32.78 32.60 32.65 32.35 30.33 30.77 32.48 32.10 30.26 28.35 29.83 27.45 24.80 23.14 22.41 23.20 21.64 20.42 20.82 21.33 21.73 24.18 25.23 23.60 21.86 20.12 18.69 17.40 16.61 16.60 19.87 30.55 34.06 34.16 34.12 34.32 34.47 34.68 34.57 34.56 34.50 34.47 34.31 34.33 34.36 33.94 33.62 33.54 34.02 34.27 33.94 32.00 32.21 33.72 34.30 33.89 33.84 34.24 34.64 35.30 35.64 35.86 36.09 36.29 36.62 36.83 36.95 37.13 37.65 37.38 37.62 37.87 38.55 39.00 39.07 39.13 40.65 42.48 41.97 41.85 42.61 41.31 41.74 42.23 42.71 42.28 42.82 42.56 42.27 42.32 42.60 42.72 42.94 43.22 43.38 43.75 44.11 44.22 43.97 43.92 43.92 44.04 44.14 44.30 44.56 44.91 45.20 45.64 46.38 46.87 47.17 47.40 47.81 48.30 48.59 48.88 49.08 49.33 49.24 48.93 48.59 48.29 47.94 47.77 47.59 47.64 47.72 48.03 48.63 49.23 50.45 50.82 50.50 48.60 48.31 48.16 48.42 48.71 49.64 51.96 50.71 49.62 49.50 49.80 50.41 50.57 50.33 50.09 49.58 49.36 49.43 49.53 49.62 49.71 49.61 49.87 49.83 50.03 50.16 50.52 50.94 51.14 51.18 51.20 51.36 51.65 51.89 51.82 51.62 51.44 51.27 51.23 51.40 51.71 52.21 52.23 52.26 52.57 52.86 53.16 53.26 53.23 53.14 53.14 52.98 52.73 51.81 50.85 50.24 51.24 52.80 53.41 53.80 54.07 54.46 54.88 55.16 55.56 55.97 56.30 56.73 57.24 57.61 57.92 58.14 58.53 58.68 58.77 58.89 59.07 59.16 59.39 59.65 59.77 59.83 59.70 59.71 59.58 59.24 58.61 58.13 57.65 57.28 56.85 56.31 56.42 56.36 55.79 55.12 54.37 55.20 55.60 55.50 55.60 56.02 55.81 56.85 57.45 57.79 57.96 57.94 57.91 58.11 58.48 58.61 59.00 59.60 60.02 60.04 60.10 60.67 61.15 61.47 61.96 62.47 62.96 63.79 64.74 65.50 65.70 65.38 65.32 65.40 65.36 65.37 65.38 65.50 65.57 65.69 65.78 65.79 65.58 65.23 64.97 64.95 64.74 64.33 63.99 63.17 63.34 63.09 63.61 63.22 64.21 64.64 63.87 62.45 61.95 61.85 61.38 61.38 61.41 61.70 62.19 62.09 62.02 61.84 61.80 61.78 61.61 61.25 61.20 61.49 61.61 61.72 62.00 62.00 62.02 62.39 62.57 62.85 63.15 63.46 63.60 63.66 63.71 63.75 63.86 63.96 63.93 64.05 63.91 63.74 64.21 64.40 64.57 64.44 64.25 64.19 63.94 63.86 63.63 63.36 63.30 63.42 63.30 62.85 62.64 62.80 62.94 63.09 62.74 62.79
34.96 34.89 34.80 34.49 34.53 34.89 35.16 35.35 35.48 35.61 35.68 35.74 35.70 35.72 35.71 35.87 35.85 35.88 35.87 35.93 35.92 35.91 36.04 35.95 35.86 35.96 35.90 35.92 36.00 36.01 35.70 35.48 35.35 35.21 35.06 34.79 34.70 34.58 34.30 33.99 34.01 34.12 34.00 33.89 34.01 34.15 34.04 33.86 33.96 33.97 33.70 33.51 33.95 34.04 33.82 33.64 33.44 33.05 32.89 32.81 31.73 29.17 30.09 32.46 32.58 31.97 30.25 29.14 29.15 27.41 24.83 24.03 25.68 25.49 23.96 23.42 22.90 22.04 21.60 25.69 25.95 24.76 22.81 20.63 19.00 17.49 16.56 16.56 24.37 32.54 33.18 33.16 34.10 34.34 34.49 34.66 34.58 34.53 34.57 34.55 34.52 34.46 34.34 34.06 33.70 33.86 34.17 34.32 33.81 32.50 32.03 33.92 33.17 33.82 33.78 33.61 34.98 35.36 35.59 35.97 36.24 36.45 36.54 36.79 37.00 37.17 37.28 37.52 37.63 38.03 38.50 38.72 38.77 39.83 40.67 44.66 43.52 42.03 42.25 41.34 41.03 41.91 42.46 43.07 43.04 42.51 42.18 42.56 42.69 42.95 43.24 43.43 43.77 43.93 44.15 44.02 43.89 43.97 44.00 44.24 44.42 44.67 44.90 45.25 45.63 46.11 46.46 46.75 47.09 47.42 47.78 48.05 48.53 48.81 49.09 49.34 48.95 48.60 48.39 48.14 48.04 47.95 47.83 47.98 48.26 48.52 48.83 49.84 50.33 50.36 48.74 48.56 49.07 49.49 49.20 50.14 52.06 50.49 49.42 49.43 49.76 51.08 51.74 51.26 50.00 49.57 49.58 49.57 49.66 49.69 49.96 50.03 50.10 50.18 50.24 50.37 50.51 50.73 51.26 51.48 51.57 51.63 51.77 51.98 52.00 51.97 51.94 51.97 51.63 51.81 51.98 52.44 52.64 52.54 52.77 53.11 53.44 53.61 53.62 53.52 53.35 53.17 52.83 52.05 51.15 50.53 51.04 52.19 52.80 53.39 53.84 54.21 54.75 55.17 55.59 55.93 56.25 56.61 57.15 57.51 57.94 58.29 58.67 58.92 58.96 59.02 59.30 59.48 59.60 59.82 60.12 60.16 60.12 60.02 59.57 59.01 58.55 58.17 57.76 57.36 57.14 56.94 56.79 56.31 55.60 54.96 54.60 55.43 55.88 55.63 55.51 55.67 56.19 56.88 57.21 57.48 57.55 57.55 57.63 57.76 58.17 58.50 58.85 59.26 59.64 59.59 59.78 60.44 60.83 61.27 61.83 62.39 62.93 63.76 64.68 65.22 65.34 65.05 65.16 65.40 65.45 65.46 65.51 65.49 65.53 65.63 65.73 65.77 65.56 65.30 65.20 65.37 65.40 65.17 64.98 64.74 64.61 63.97 63.95 64.04 64.56 64.66 64.14 63.01 62.48 62.04 61.66 61.64 61.59 61.96 62.32 62.28 62.25 62.08 62.01 61.85 61.70 61.50 61.23 61.58 61.89 62.11 62.11 62.22 62.27 62.47 62.76 63.04 63.32 63.64 63.82 63.93 63.95 64.00 64.21 64.32 64.24 64.35 64.18 64.15 64.54 64.64 64.57 64.53 64.38 64.32 64.10 64.00 63.75 63.68 63.67 63.63 63.70 63.61 63.47 63.23 63.28 63.19 62.95 63.02
35.06 35.01 34.77 34.41 34.65 34.79 35.16 35.39 35.60 35.71 35.77 35.84 35.83 35.88 35.84 36.02 35.96 35.87 35.93 35.97 35.94 35.92 36.07 35.98 36.01 36.04 35.94 35.89 35.90 35.95 35.70 35.64 35.45 35.38 35.18 35.10 34.99 34.78 34.39 34.18 34.05 34.13 34.13 34.09 34.17 34.15 34.09 34.04 34.11 34.03 33.77 33.70 34.04 34.16 34.05 33.94 33.71 33.39 33.22 32.63 30.79 29.71 31.13 32.89 33.14 32.19 30.49 29.94 31.18 29.63 27.31 24.92 25.92 26.91 26.08 24.72 23.92 23.30 21.73 24.14 26.75 26.58 25.37 23.18 20.50 18.76 17.01 16.50 17.57 24.54 29.82 32.05 33.90 34.35 34.43 34.66 34.73 34.73 34.72 34.65 34.53 34.54 34.56 34.21 34.09 33.79 34.09 34.57 34.58 33.22 31.30 32.46 33.44 34.94 34.82 34.02 34.46 35.20 35.57 35.92 36.27 36.28 36.28 36.55 36.91 37.09 37.41 37.71 37.96 38.13 38.40 38.70 39.10 38.90 39.18 41.21 43.49 41.28 41.19 40.46 40.33 40.93 42.86 43.68 42.81 42.45 42.00 42.41 42.67 42.91 43.07 43.23 43.47 43.70 43.96 44.03 43.91 43.95 44.13 44.40 44.65 44.93 45.31 45.56 45.64 45.93 46.32 46.64 46.99 47.24 47.45 47.70 48.25 48.60 48.72 49.06 49.15 48.76 48.59 48.35 48.27 48.26 48.06 48.17 48.43 48.49 48.43 48.64 48.68 48.63 48.58 48.73 49.46 51.40 51.63 51.14 50.58 49.82 49.22 49.32 49.89 51.96 53.45 52.83 50.05 49.73 49.87 49.80 49.68 49.85 50.12 50.16 50.20 50.53 50.65 50.91 50.89 50.68 51.23 51.60 51.91 51.98 52.04 52.23 52.27 52.35 52.54 52.39 51.93 52.11 52.31 52.52 52.92 52.82 53.04 53.36 53.78 54.04 54.03 53.88 53.66 53.42 52.95 52.08 51.40 50.60 51.23 52.83 53.13 53.41 53.96 54.26 54.79 55.34 55.77 56.28 56.63 56.94 57.40 57.73 58.19 58.48 58.82 59.03 59.19 59.15 59.36 59.71 59.91 60.13 60.40 60.46 60.41 60.18 59.74 59.12 58.60 58.20 57.86 57.57 57.52 57.26 56.72 56.12 55.21 55.23 55.12 55.62 55.75 55.39 55.47 55.36 56.02 56.91 57.24 57.20 57.10 57.26 57.21 57.57 57.86 58.01 58.43 58.92 59.18 59.33 59.74 59.98 60.44 61.03 61.64 62.24 62.85 63.62 64.30 64.68 64.76 64.80 65.11 65.31 65.49 65.59 65.50 65.54 65.56 65.55 65.67 65.71 65.71 65.40 65.38 65.62 65.80 65.62 65.59 65.50 65.50 64.84 64.23 64.63 64.83 64.63 64.20 63.81 63.25 62.39 61.89 61.80 61.87 62.24 62.47 62.40 62.36 62.32 62.22 62.05 61.90 61.70 61.30 61.59 62.04 62.44 62.43 62.44 62.43 62.73 63.00 63.34 63.53 63.82 64.07 64.29 64.47 64.33 64.25 64.41 64.58 64.69 64.50 64.52 64.76 64.64 64.58 64.64 64.55 64.53 64.38 64.18 63.82 64.01 64.03 64.01 64.17 64.05 63.62 63.45 63.54 63.27 63.18 63.17
35.18 35.07 34.84 34.32 34.73 34.81 35.18 35.48 35.69 35.86 36.02 35.92 36.00 36.13 36.01 36.10 36.22 36.23 36.33 36.16 36.23 36.06 36.07 36.16 36.14 36.04 35.99 35.93 35.88 35.95 35.89 35.77 35.60 35.51 35.41 35.26 35.14 34.96 34.63 34.48 34.35 34.22 34.28 34.47 34.41 34.32 34.31 34.27 34.27 34.19 33.90 33.91 34.20 34.30 34.22 34.00 33.85 33.56 33.22 32.48 31.62 30.63 32.49 33.49 33.42 32.25 30.88 30.18 31.74 30.90 28.05 26.02 25.51 27.00 26.86 25.28 24.41 23.92 22.55 23.24 25.62 27.39 26.97 25.57 23.04 20.08 17.99 16.64 16.50 17.43 24.39 31.61 34.42 34.41 34.50 34.54 34.86 34.85 34.86 34.83 34.79 34.66 34.55 34.36 34.30 33.80 33.97 34.51 34.59 33.16 33.01 33.89 33.77 34.64 35.01 34.42 33.84 34.99 35.49 35.70 35.95 36.02 36.10 36.43 36.87 37.19 37.39 37.77 37.90 38.02 38.15 38.45 39.37 39.87 39.37 40.28 42.02 41.37 40.83 40.30 40.25 40.49 41.50 41.99 42.04 41.85 41.83 42.18 42.61 42.80 42.88 43.00 43.31 43.72 44.01 44.23 44.09 44.03 44.07 44.27 44.59 44.98 45.32 45.50 45.72 45.92 46.11 46.45 46.85 47.07 47.23 47.68 48.13 48.20 48.19 48.62 49.42 49.01 48.84 48.65 48.55 48.51 48.34 48.47 48.62 48.72 48.74 49.12 49.22 49.08 49.00 49.05 49.31 51.40 52.22 51.96 51.91 50.68 49.34 49.13 50.03 51.57 52.08 50.76 49.91 49.91 50.03 49.94 49.88 50.01 50.25 50.15 50.32 50.72 51.00 51.20 50.94 50.79 51.48 51.84 52.13 52.13 52.22 52.37 52.57 52.75 52.90 52.79 52.30 52.65 52.93 52.69 53.10 53.23 53.40 53.64 54.08 54.35 54.39 54.33 54.11 53.61 53.16 52.56 51.58 50.46 51.06 52.93 53.57 53.86 54.07 54.45 54.88 55.34 55.79 56.31 56.62 56.97 57.53 58.00 58.30 58.70 59.08 59.35 59.60 59.40 59.37 59.79 60.08 60.39 60.48 60.64 60.60 60.43 59.96 59.44 58.83 58.49 58.18 58.10 57.63 57.09 56.42 55.71 55.58 56.16 55.50 54.81 55.43 56.40 56.47 55.71 55.56 56.30 56.79 56.73 56.73 56.71 56.72 56.92 57.13 57.47 57.98 58.45 58.80 59.31 59.38 59.58 60.07 60.73 61.57 62.21 62.91 63.56 64.06 64.26 64.35 64.86 65.26 65.45 65.61 65.70 65.61 65.58 65.55 65.60 65.65 65.74 65.78 65.52 65.53 65.77 65.92 65.94 66.08 66.01 65.72 64.99 64.15 64.90 65.02 64.69 64.56 64.53 64.00 62.88 62.34 61.93 62.12 62.42 62.70 62.88 62.71 62.59 62.32 62.32 62.12 61.95 61.63 62.03 62.06 62.43 62.71 62.75 62.66 62.88 63.18 63.61 63.91 64.19 64.38 64.53 64.71 64.72 64.90 65.00 64.93 64.90 64.92 65.01 64.79 64.71 64.69 64.81 64.80 64.69 64.59 64.49 64.32 64.86 64.96 64.30 64.10 63.80 63.67 63.71 63.65 63.44 63.40 63.38
35.26 35.13 34.93 34.64 34.89 35.13 35.26 35.46 35.70 35.93 36.16 36.21 36.28 36.32 36.27 36.14 36.27 36.38 36.47 36.39 36.33 36.15 36.22 36.25 36.20 36.14 36.08 36.05 35.99 36.00 35.88 35.86 35.78 35.63 35.48 35.31 35.14 34.93 34.81 34.67 34.54 34.43 34.28 34.67 34.64 34.49 34.42 34.40 34.36 34.21 34.00 34.10 34.34 34.31 34.31 34.08 34.02 33.60 33.24 32.90 32.66 31.45 32.23 33.62 34.14 33.60 32.20 29.99 31.11 31.19 27.50 24.30 22.58 23.78 26.53 25.39 24.53 23.80 22.45 26.55 27.26 26.87 27.77 27.72 25.98 22.86 19.59 17.43 16.53 16.55 18.91 25.62 34.53 35.43 34.44 34.52 34.89 35.06 34.97 34.85 34.86 34.85 34.79 34.69 34.40 34.21 34.16 34.58 34.77 33.80 33.03 34.14 34.58 34.76 34.81 34.51 33.75 34.30 34.94 35.33 35.81 36.17 36.44 36.54 36.83 37.07 37.16 37.53 37.76 37.85 37.87 38.62 40.32 40.25 39.89 40.03 41.06 40.52 40.16 40.43 40.34 40.15 40.75 41.52 41.94 42.13 41.61 42.13 42.57 42.75 42.90 43.06 43.20 43.59 43.88 44.18 44.07 43.93 43.95 44.19 44.43 44.91 45.34 45.42 45.67 45.94 46.17 46.31 46.85 46.95 47.24 47.57 47.89 47.83 47.69 47.87 48.57 49.05 48.51 48.50 48.34 48.27 48.46 48.54 48.71 48.94 49.04 49.37 49.45 49.36 49.32 49.33 49.51 51.11 52.57 53.15 52.53 50.27 49.43 49.33 49.98 50.18 50.08 49.99 50.20 50.19 50.15 50.13 50.12 50.21 50.32 50.16 50.39 50.68 51.29 51.32 51.27 51.13 51.38 51.92 52.23 52.27 52.31 52.43 52.65 52.84 52.99 52.88 52.84 53.12 53.22 52.95 53.22 53.57 53.86 54.11 54.46 54.70 54.67 54.62 54.44 53.95 53.41 52.83 51.49 50.80 52.14 52.94 53.66 54.16 54.42 54.53 54.84 55.33 55.76 56.32 56.72 57.14 57.45 58.04 58.40 58.93 59.32 59.62 59.75 59.65 59.61 59.82 60.23 60.54 60.69 60.76 60.73 60.63 60.23 59.68 59.12 58.75 58.29 58.05 57.56 57.00 56.26 55.60 56.22 56.60 56.40 56.12 56.29 56.92 56.77 56.13 55.60 56.29 56.64 56.63 56.71 56.61 56.74 56.90 57.26 57.44 57.65 58.16 58.60 58.76 59.08 59.63 60.30 60.75 61.49 62.30 62.99 63.54 63.62 63.84 64.37 64.99 65.46 65.64 65.81 65.86 65.81 65.68 65.59 65.63 65.77 65.85 65.73 65.62 65.71 65.89 66.06 66.10 66.26 66.12 65.59 64.83 64.63 65.15 65.25 65.15 65.05 64.95 64.16 63.01 62.73 62.09 62.48 62.86 63.12 63.19 63.00 62.71 62.42 62.37 62.14 61.82 61.94 62.41 62.49 62.44 62.75 62.91 63.01 63.08 63.39 63.92 64.41 64.67 64.65 64.75 64.96 64.96 65.13 65.17 65.10 65.24 65.54 64.96 64.94 64.94 64.92 65.06 65.12 65.02 64.84 64.74 64.61 65.19 65.23 64.40 64.22 63.92 63.80 63.86 63.79 63.74 63.65 63.70
35.39 35.25 35.11 34.94 34.98 35.28 35.35 35.48 35.65 35.87 36.11 36.28 36.38 36.50 36.34 36.30 36.43 36.39 36.52 36.46 36.40 36.39 36.35 36.31 36.34 36.33 36.27 36.24 35.99 36.10 36.06 35.97 35.94 35.79 35.64 35.51 35.25 34.97 35.00 34.86 34.69 34.59 34.30 34.58 34.76 34.61 34.51 34.54 34.47 34.31 34.22 34.24 34.34 34.25 34.21 34.20 34.21 33.89 33.34 33.00 32.90 32.40 32.61 33.44 34.41 33.54 30.77 28.28 27.72 28.01 24.07 22.90 23.43 22.62 24.27 24.61 23.89 22.88 25.10 30.99 31.22 29.49 29.32 29.87 29.72 29.02 22.97 18.74 16.77 16.57 17.07 19.18 27.25 35.13 35.23 34.99 34.93 35.33 35.11 35.00 35.00 35.15 35.06 34.95 34.69 34.49 34.32 34.60 34.76 34.47 33.68 32.81 34.17 35.20 35.06 34.93 35.05 34.37 34.65 35.15 35.81 36.14 36.34 36.40 36.70 36.97 37.19 37.35 37.56 37.73 38.12 38.01 38.72 38.98 38.94 39.36 39.36 39.29 39.50 40.19 40.62 40.02 40.06 40.71 41.86 41.74 41.76 41.94 42.47 42.62 42.67 42.75 42.94 43.27 43.48 43.78 43.77 43.88 43.93 44.22 44.33 44.82 45.30 45.54 45.72 46.15 46.45 46.64 46.98 47.00 47.15 47.27 47.43 47.35 47.37 47.54 47.90 48.66 48.54 48.36 48.19 48.13 48.43 48.57 48.71 48.86 49.09 49.26 49.36 49.50 49.45 49.52 49.54 49.67 50.17 51.22 50.94 49.80 49.84 50.01 49.91 49.95 50.11 50.32 50.49 50.37 50.27 50.19 50.27 50.34 50.54 50.37 50.71 50.72 51.39 51.65 51.68 51.47 51.27 51.59 52.06 52.16 52.21 52.64 52.75 52.94 53.04 53.11 53.02 53.28 53.53 53.36 53.15 53.49 54.11 54.44 54.82 55.04 55.17 55.07 54.65 54.19 53.32 52.32 50.99 51.61 53.35 53.51 53.81 54.39 54.71 54.81 55.04 55.52 55.92 56.49 56.95 57.36 57.71 58.12 58.59 59.00 59.43 59.73 59.90 59.91 59.88 59.99 60.25 60.54 60.79 60.94 60.94 60.60 60.19 59.63 59.34 58.96 58.39 57.90 57.36 56.87 56.42 55.94 56.15 57.02 57.31 57.15 56.91 57.09 56.96 56.34 55.69 56.11 56.88 57.09 57.19 57.18 57.18 57.42 58.07 57.98 57.69 57.75 58.02 58.60 59.17 59.84 60.43 60.74 61.35 62.11 62.77 63.12 63.09 63.64 64.20 64.69 65.35 65.73 65.86 65.93 65.90 65.75 65.74 65.73 65.83 65.78 65.64 65.59 65.67 65.89 66.08 66.25 66.34 66.27 65.88 65.27 64.95 65.54 65.59 65.35 64.99 64.72 63.94 62.99 62.52 61.64 62.67 63.13 63.45 63.30 63.11 62.90 62.67 62.48 62.14 61.80 62.32 62.74 62.89 62.49 62.61 63.08 63.34 63.42 63.55 64.04 64.60 64.95 65.17 65.15 65.22 65.36 65.38 65.44 65.55 65.68 65.40 65.13 65.28 65.45 65.51 65.41 65.35 65.28 65.08 64.84 64.73 64.65 64.61 64.41 64.21 64.06 64.06 63.88 63.83 63.83 63.68 63.52
35.55 35.49 35.30 34.93 34.95 35.24 35.44 35.50 35.70 36.01 36.16 36.23 36.42 36.53 36.57 36.55 36.43 36.43 36.50 36.50 36.50 36.43 36.38 36.37 36.45 36.65 36.62 36.30 36.22 36.33 36.37 36.16 36.11 35.95 35.78 35.70 35.38 35.13 35.17 34.97 34.88 34.85 34.56 34.47 34.71 34.76 34.72 34.65 34.54 34.38 34.35 34.43 34.42 34.45 34.40 34.41 34.26 34.06 33.42 33.06 32.88 32.90 32.98 34.32 34.31 32.50 31.09 28.45 23.68 23.75 23.88 25.45 25.28 23.86 22.97 22.81 21.94 23.33 29.03 33.50 33.44 32.00 32.59 32.67 33.22 34.07 28.30 20.93 17.55 16.92 17.00 17.11 19.75 28.91 35.35 35.50 34.90 35.13 35.54 35.18 35.06 35.00 35.10 35.09 34.90 34.77 34.68 34.71 34.82 34.80 34.38 33.53 33.39 34.94 35.11 35.24 35.39 35.06 34.63 34.52 35.37 35.97 36.38 36.66 36.98 37.15 37.20 37.09 37.50 37.97 38.15 38.05 38.45 38.74 39.38 39.14 38.90 38.95 39.13 39.48 39.76 39.91 40.06 40.28 40.56 40.84 41.27 41.94 42.08 42.21 42.18 42.20 42.54 42.80 42.93 43.16 43.47 43.77 43.88 44.18 44.33 44.77 45.89 46.60 46.32 46.80 47.15 47.06 47.06 47.04 47.08 47.09 46.95 46.94 47.03 47.22 47.74 48.44 48.30 48.00 48.00 48.05 48.36 48.51 48.67 48.78 49.06 49.19 49.16 49.28 49.37 49.42 49.51 49.74 49.79 49.60 49.67 49.88 50.62 50.43 49.93 50.08 50.39 50.45 50.58 50.64 50.54 50.55 50.68 50.77 50.92 51.06 51.11 50.96 51.34 51.73 51.92 51.79 51.55 51.66 51.96 52.24 52.36 52.65 52.84 53.14 53.25 53.37 53.31 53.53 53.87 53.76 53.67 53.58 54.04 54.53 54.99 55.34 55.47 55.34 54.77 54.36 53.45 51.97 50.79 51.75 53.58 53.93 53.93 54.32 54.74 55.11 55.30 55.83 56.19 56.64 57.02 57.46 57.82 58.28 58.58 58.83 59.25 59.68 60.00 60.09 60.15 60.31 60.41 60.63 60.85 60.96 61.04 60.74 60.31 59.86 59.50 59.14 58.71 58.08 57.57 57.31 56.97 56.35 56.15 57.15 57.60 57.55 57.39 57.40 57.20 56.52 55.85 56.08 57.21 57.61 57.67 57.75 57.67 57.65 58.10 58.35 58.40 58.22 57.82 58.45 59.18 59.60 60.16 60.79 61.23 61.99 62.42 62.61 62.91 63.43 63.97 64.53 65.29 65.75 65.80 65.79 65.94 65.85 65.77 65.82 65.90 65.79 65.76 65.71 65.73 65.84 66.15 66.34 66.41 66.45 66.16 65.57 65.22 65.64 65.74 65.42 64.93 64.44 64.23 63.77 62.93 62.61 62.99 63.45 63.64 63.50 63.33 63.16 62.86 62.54 62.17 61.88 62.59 63.07 63.00 62.75 62.89 63.29 63.68 63.87 64.12 64.10 64.67 65.01 65.28 65.44 65.59 65.72 65.66 65.83 66.05 65.78 65.55 65.46 65.58 65.70 65.80 65.55 65.57 65.53 65.33 64.97 64.62 64.50 64.47 64.39 64.44 64.36 64.23 64.02 63.92 64.05 64.02 63.68
35.63 35.45 35.31 35.13 35.08 35.35 35.55 35.71 35.80 36.04 36.16 36.29 36.42 36.54 36.67 36.59 36.62 36.61 36.58 36.58 36.49 36.33 36.34 36.55 36.78 36.89 36.64 36.48 36.47 36.48 36.41 36.33 36.21 36.08 35.92 35.78 35.54 35.31 35.24 35.01 34.93 34.92 34.70 34.45 34.76 34.81 34.78 34.71 34.65 34.57 34.57 34.67 34.68 34.73 34.74 34.66 34.53 34.40 33.81 33.72 34.16 34.03 34.11 35.19 34.95 33.28 31.31 26.96 23.64 25.09 27.03 27.38 26.73 28.98 28.66 26.04 23.36 23.24 27.62 32.38 31.54 31.36 32.12 33.08 33.91 34.59 32.97 25.58 19.17 17.07 17.00 17.00 17.30 22.04 31.15 34.37 34.71 34.96 35.16 35.69 35.24 35.21 35.20 35.15 35.00 34.85 34.91 34.88 34.96 35.01 34.64 34.05 33.20 34.56 35.14 35.39 35.53 35.67 35.51 35.15 35.62 35.70 36.09 36.51 36.78 36.47 36.52 36.89 37.46 37.84 37.89 37.71 37.90 38.45 39.11 39.03 39.04 38.79 38.84 39.14 39.44 39.91 40.09 40.28 40.48 40.58 40.88 41.84 41.99 41.86 41.88 42.05 42.42 42.62 42.93 43.08 43.43 43.67 43.95 44.20 44.28 44.73 45.56 47.38 48.90 48.18 47.89 47.95 47.20 46.91 47.00 46.80 46.51 46.73 46.88 47.17 47.55 48.20 48.13 47.91 47.95 48.08 48.32 48.33 48.52 48.68 48.95 48.99 49.06 49.14 49.19 49.35 49.55 49.85 49.90 49.65 49.60 50.14 50.56 50.51 50.24 50.37 50.61 50.73 50.79 50.81 50.97 51.15 51.22 51.24 51.18 51.49 51.64 51.43 51.31 51.71 51.98 51.97 51.78 51.93 52.10 52.37 52.56 52.88 52.99 53.27 53.39 53.49 53.47 53.69 53.99 54.13 54.24 53.92 54.06 54.51 55.11 55.48 55.61 55.52 55.06 54.21 53.03 51.68 50.76 51.75 53.41 54.08 54.35 54.65 54.98 55.30 55.44 55.90 56.30 56.59 56.82 57.16 57.53 57.95 58.20 58.56 59.04 59.42 59.75 60.06 60.31 60.54 60.68 60.71 61.00 61.22 61.21 61.09 60.60 60.03 59.71 59.34 58.88 58.43 58.02 57.66 57.19 56.43 56.30 57.16 57.71 57.91 57.67 57.52 57.24 56.82 56.08 55.98 56.69 57.18 57.61 57.99 58.08 57.89 58.24 58.56 58.61 58.68 58.52 58.51 58.94 59.46 60.20 60.71 61.09 61.84 62.14 62.37 63.04 63.55 64.08 64.71 65.25 65.64 65.78 65.84 65.94 65.95 65.88 65.95 65.93 65.96 65.87 65.78 65.80 65.95 66.20 66.47 66.55 66.55 66.28 65.84 65.63 65.70 65.65 65.36 65.06 64.67 64.63 64.23 62.74 63.08 63.43 63.88 63.97 63.84 63.73 63.49 63.37 62.82 62.29 62.24 62.99 63.37 63.41 63.36 63.56 63.80 63.82 64.04 64.40 64.61 64.82 65.22 65.44 65.74 65.93 66.06 66.22 66.39 66.40 66.10 65.69 65.77 65.87 65.90 65.98 65.87 65.80 65.67 65.56 64.94 64.71 64.71 64.76 64.53 64.63 64.53 64.34 64.20 64.08 64.26 64.23 63.93
35.62 35.32 35.52 35.44 35.19 35.40 35.53 35.70 35.83 36.05 36.25 36.35 36.51 36.67 36.72 36.66 36.62 36.61 36.67 36.64 36.72 36.61 36.57 36.71 36.68 36.73 36.75 36.67 36.52 36.45 36.49 36.40 36.38 36.24 36.09 35.87 35.68 35.43 35.31 35.10 34.95 34.99 34.96 34.83 34.92 34.94 34.90 34.89 34.83 34.76 34.96 34.76 34.63 34.75 34.90 34.79 34.61 34.48 34.15 33.83 34.15 32.63 32.65 35.66 35.97 34.87 31.62 27.47 23.62 24.78 27.82 29.29 27.79 30.03 31.38 28.24 24.36 24.36 28.26 28.76 27.27 28.05 30.18 32.25 32.92 33.11 33.32 30.24 23.10 17.63 17.00 17.00 17.01 18.31 24.65 30.21 32.38 33.91 34.94 35.27 35.18 35.28 35.10 35.05 35.10 35.14 35.02 35.00 35.23 35.16 35.06 34.77 33.86 34.51 35.26 35.66 35.91 36.13 35.75 35.42 35.97 36.03 36.06 36.17 36.49 36.39 36.41 37.08 37.24 37.51 37.37 37.39 37.88 38.45 38.77 38.87 40.06 39.45 39.04 39.23 39.38 39.69 39.88 40.15 40.27 40.58 40.76 41.23 42.14 41.86 41.89 42.11 42.47 42.92 43.39 43.45 43.67 43.89 44.08 44.17 44.25 44.59 45.04 46.97 49.27 50.42 49.86 49.05 47.42 46.42 46.51 46.43 46.34 46.52 46.75 47.07 47.42 47.87 47.92 47.86 47.80 48.03 48.23 48.30 48.40 48.63 48.98 49.06 49.15 49.18 49.11 49.27 49.55 49.85 49.96 50.06 50.56 51.31 50.74 50.66 50.78 50.65 50.72 51.10 51.24 51.39 51.41 51.54 51.57 51.63 51.52 51.70 51.84 51.78 51.60 51.66 51.91 52.15 52.20 52.17 52.44 52.57 52.73 52.96 53.25 53.44 53.65 53.84 53.81 53.93 54.06 54.31 54.45 54.31 54.35 54.63 55.14 55.62 55.67 55.63 54.99 53.90 52.96 51.74 50.93 51.97 53.04 53.84 54.38 54.72 55.09 55.28 55.30 55.64 55.99 56.31 56.47 56.82 57.27 57.62 57.97 58.51 58.83 59.21 59.58 59.97 60.37 60.53 60.70 60.71 60.99 61.17 61.24 61.30 60.91 60.47 60.11 59.54 59.07 58.49 58.00 57.73 57.32 56.70 56.46 57.30 57.87 57.98 57.77 57.53 57.24 56.74 56.11 56.36 56.44 56.42 57.25 57.92 58.19 58.11 58.33 58.60 58.75 59.00 58.92 58.73 59.12 59.75 60.27 60.55 60.95 61.45 62.02 62.56 63.11 63.40 64.10 64.75 65.13 65.41 65.72 65.90 65.94 66.01 66.01 65.97 65.94 66.00 66.00 65.89 65.79 66.05 66.18 66.45 66.57 66.49 66.36 66.16 65.87 65.81 65.40 64.94 64.81 64.57 64.38 63.71 62.89 63.19 63.75 64.27 64.31 64.04 63.87 63.83 64.10 63.60 62.79 63.09 63.63 63.88 64.20 63.61 63.85 64.21 64.22 64.23 64.49 64.67 64.88 65.28 65.53 65.92 66.20 66.47 66.54 66.59 66.62 66.44 66.07 66.14 66.21 66.17 66.12 66.05 65.71 65.52 65.39 65.28 65.16 64.91 64.81 64.72 64.82 64.68 64.50 64.35 64.32 64.41 64.36 64.08
35.38 35.46 35.69 35.67 35.41 35.59 35.69 35.66 35.81 36.03 36.32 36.44 36.51 36.75 36.74 36.72 36.71 36.72 36.77 36.78 36.78 36.70 36.63 36.87 36.68 36.70 36.76 36.75 36.65 36.61 36.53 36.48 36.50 36.38 36.20 36.01 35.73 35.55 35.40 35.29 35.14 35.02 35.23 35.13 35.12 35.19 35.13 35.06 34.90 34.77 34.97 34.81 34.71 34.68 34.88 34.79 34.73 34.49 34.63 35.12 35.64 33.91 34.84 35.82 36.12 35.09 32.13 28.03 25.16 23.81 27.76 30.37 28.47 30.31 31.20 30.72 26.03 25.53 27.46 26.70 27.56 28.16 28.45 31.15 32.48 32.25 32.23 32.11 29.59 20.52 17.10 17.13 17.33 17.42 19.44 26.41 30.63 33.42 34.99 35.07 35.13 35.33 35.28 35.22 35.31 35.21 35.17 35.18 35.22 35.18 35.16 35.10 34.46 34.42 35.19 35.68 35.95 36.10 35.82 35.62 36.03 36.22 36.39 36.64 36.77 36.92 36.97 37.14 37.26 37.31 37.40 37.83 38.22 38.42 38.62 38.83 39.53 39.26 39.40 40.19 40.92 40.21 39.88 40.11 40.31 40.55 40.74 40.96 41.79 42.36 42.05 42.32 42.63 43.08 43.58 43.89 44.06 44.11 44.24 44.27 44.30 44.42 44.92 47.11 50.65 50.70 49.15 47.59 46.57 46.24 46.11 46.10 46.20 46.42 46.68 46.86 47.15 47.77 47.71 47.59 47.63 47.81 47.91 48.11 48.38 48.73 49.11 49.28 49.25 49.28 49.37 49.44 49.61 49.94 50.22 50.76 51.28 51.02 50.93 50.71 51.70 51.23 50.68 51.39 51.63 51.70 51.72 51.73 51.64 51.82 51.96 52.05 52.14 52.07 51.91 51.74 52.02 52.28 52.38 52.36 52.61 52.74 52.90 53.20 53.43 53.72 53.94 54.09 54.04 54.22 54.26 54.38 54.57 54.57 54.67 54.85 55.37 55.75 55.74 55.54 54.84 54.57 54.10 52.48 51.03 51.51 52.31 53.08 54.19 54.52 54.82 54.95 55.23 55.72 56.03 56.30 56.44 56.82 57.26 57.61 57.93 58.29 58.63 59.08 59.43 59.80 60.27 60.51 60.52 60.42 60.50 60.93 61.25 61.20 61.05 60.78 60.32 59.96 59.40 58.76 58.26 57.83 57.50 57.05 56.57 57.35 57.90 57.97 58.03 57.76 57.56 57.08 56.45 55.97 56.56 56.40 56.86 57.50 57.91 58.21 58.42 58.69 58.80 59.00 59.12 59.04 59.38 59.90 60.13 60.46 61.09 61.63 62.07 62.44 62.80 63.21 63.81 64.31 64.89 65.29 65.60 65.86 65.92 65.98 65.97 65.96 65.97 66.12 66.05 65.90 65.94 66.07 66.21 66.39 66.57 66.55 66.36 66.14 65.90 65.66 65.32 64.99 64.91 64.75 64.72 64.52 63.20 63.29 63.90 64.62 64.52 64.17 64.05 63.84 63.54 63.23 63.48 63.94 64.42 64.59 64.65 64.50 64.83 64.64 64.73 64.67 64.87 65.02 65.15 65.29 65.49 66.13 66.50 66.62 66.73 66.89 66.89 66.77 66.45 66.38 66.46 66.38 66.19 66.08 65.92 65.86 65.75 65.51 65.27 65.19 65.10 64.92 65.01 64.90 64.95 64.83 64.88 64.71 64.56 64.25
35.59 35.73 35.78 35.86 35.88 35.88 35.88 35.66 36.02 36.13 36.32 36.49 36.64 36.75 36.83 36.82 36.82 36.78 36.87 36.91 36.86 36.83 36.83 36.89 36.68 36.81 36.81 36.92 36.87 36.74 36.64 36.52 36.41 36.39 36.15 35.99 35.90 35.72 35.62 35.55 35.52 35.08 35.23 35.24 35.07 35.20 35.21 35.08 34.99 34.93 34.98 34.98 34.93 34.86 34.87 34.77 34.70 34.48 34.91 37.26 37.33 34.81 34.59 33.71 33.57 34.12 32.78 30.84 28.13 25.15 24.85 28.41 29.94 31.84 32.01 30.83 27.10 24.52 25.68 26.65 28.32 29.30 28.88 29.10 31.00 31.58 31.99 32.45 32.32 26.18 17.65 17.09 17.37 17.22 17.41 22.66 28.50 32.13 34.40 35.07 35.24 35.45 35.58 35.31 35.28 35.33 35.35 35.33 35.40 35.42 35.39 35.24 34.66 34.09 34.82 35.39 35.86 36.06 35.99 36.03 36.15 36.22 36.43 36.85 36.93 37.07 37.16 37.34 37.52 37.67 37.57 38.04 38.32 38.39 38.60 38.83 39.04 39.24 39.37 39.90 40.60 40.83 40.20 40.20 40.47 40.64 40.84 41.02 41.56 42.50 42.42 42.58 42.83 43.17 43.73 44.21 44.35 44.76 45.04 44.78 44.40 44.30 44.74 46.10 46.44 45.80 45.62 45.57 45.79 45.86 45.81 45.91 46.07 46.17 46.34 46.67 47.02 47.59 47.46 47.37 47.49 47.63 47.77 48.06 48.26 48.52 49.05 49.59 49.56 49.56 49.53 49.55 49.91 50.23 50.53 51.34 50.95 51.48 51.44 50.93 51.60 51.80 50.82 51.10 51.45 51.64 51.83 51.91 51.81 51.90 52.23 52.36 52.48 52.40 52.18 51.94 52.12 52.46 52.53 52.51 52.74 52.91 53.05 53.36 53.54 53.75 54.09 54.27 54.41 54.59 54.58 54.42 54.69 54.71 55.02 55.14 55.57 55.80 55.96 55.70 55.47 55.35 54.77 53.45 51.95 51.90 51.60 52.77 53.75 53.87 54.13 54.76 55.30 55.84 56.17 56.35 56.48 56.94 57.29 57.56 57.85 58.19 58.60 58.92 59.36 59.79 60.09 60.11 60.00 59.94 60.10 60.41 60.77 60.69 60.66 60.60 60.30 60.06 59.56 58.98 58.59 57.93 57.55 57.21 56.79 57.41 57.85 58.19 58.19 57.90 57.64 57.38 57.08 56.73 56.87 56.80 56.76 56.74 57.09 57.88 58.43 58.62 58.70 58.86 59.18 59.28 59.43 59.73 59.95 60.35 60.90 61.49 61.71 61.93 62.42 63.02 63.61 64.13 64.60 65.04 65.44 65.68 65.90 65.94 65.97 65.99 66.02 66.23 66.08 66.08 65.98 66.00 66.20 66.33 66.53 66.51 66.29 66.09 65.86 65.60 65.34 65.36 65.34 65.13 65.09 65.14 63.64 63.44 64.31 64.84 64.64 64.38 64.25 63.88 63.60 63.96 64.24 64.37 64.69 64.79 64.94 64.90 65.12 65.18 65.08 65.16 65.41 65.63 65.58 65.73 66.09 66.31 66.57 66.78 67.03 67.12 67.19 67.39 67.00 66.74 66.62 66.43 66.37 66.48 66.35 66.16 65.89 65.75 65.66 65.55 65.40 65.42 65.30 65.22 65.23 65.42 65.40 65.19 64.88 64.66
35.97 35.83 35.83 35.84 35.88 35.87 35.78 35.61 36.03 36.31 36.47 36.73 36.81 36.80 36.92 36.86 36.95 37.00 37.04 36.97 37.01 36.93 36.88 36.98 36.79 36.94 37.01 36.80 36.81 36.77 36.68 36.54 36.44 36.47 36.24 36.18 35.98 35.78 35.62 35.61 35.63 35.18 35.20 35.31 35.10 35.18 35.22 35.20 35.15 35.10 35.08 35.08 35.06 35.10 34.92 34.81 34.64 34.49 34.66 35.00 33.71 33.18 30.55 27.78 27.98 30.71 32.05 30.08 27.94 26.78 24.21 27.32 30.51 32.30 31.90 29.55 27.39 26.67 29.84 30.35 30.66 31.01 30.79 28.78 29.46 31.19 32.04 32.66 32.84 29.88 20.13 17.04 17.00 17.00 18.32 23.41 27.36 30.17 32.95 34.90 35.33 35.45 35.61 35.65 35.45 35.42 35.43 35.61 35.70 35.59 35.54 35.35 34.85 34.18 35.03 35.52 35.89 35.92 36.03 36.32 36.37 36.36 36.66 37.02 37.03 37.02 37.09 37.31 37.68 37.70 37.75 38.29 38.38 38.56 38.67 38.78 38.91 39.18 39.23 39.46 39.87 40.49 40.40 40.45 40.53 40.75 41.06 41.20 41.40 41.96 42.82 42.82 43.40 43.34 43.80 44.25 44.43 44.57 44.46 44.29 44.08 44.08 44.42 44.79 44.94 45.05 45.28 45.61 45.84 46.22 46.31 46.97 46.73 46.50 46.44 46.79 47.08 47.39 47.47 47.45 47.61 47.65 47.87 48.10 48.28 48.61 49.36 49.54 49.69 49.68 49.79 49.87 50.19 50.62 50.99 51.02 51.05 51.59 52.02 51.24 51.33 51.64 51.07 51.15 51.36 51.65 52.08 52.22 52.12 52.09 52.37 52.48 52.56 52.55 52.38 52.32 52.22 52.58 52.76 52.80 52.92 53.19 53.40 53.42 53.75 53.96 54.23 54.53 54.76 54.86 54.74 54.73 54.90 55.00 55.22 55.56 55.80 55.99 56.24 56.13 55.95 55.43 54.65 53.82 53.31 52.82 51.96 52.35 52.93 53.21 54.01 54.73 55.17 55.58 55.94 56.17 56.42 56.89 57.25 57.51 57.57 57.82 58.14 58.66 59.27 59.46 59.51 59.45 59.42 59.48 59.67 60.04 60.15 60.13 60.19 60.23 59.97 59.79 59.54 59.12 58.60 58.16 57.77 57.25 56.98 57.27 57.91 58.31 58.23 58.13 57.97 57.72 57.46 57.04 57.00 57.22 57.16 56.86 56.76 57.49 57.99 58.23 58.62 58.92 59.22 59.41 59.54 59.71 59.97 60.25 60.77 61.29 61.28 61.49 62.09 62.74 63.30 63.78 64.29 64.98 65.50 65.67 65.88 65.92 65.92 65.95 65.99 66.10 66.11 66.12 66.12 66.11 66.19 66.38 66.51 66.32 66.21 66.07 65.90 65.80 65.63 65.61 65.76 65.54 65.48 65.56 64.68 63.68 64.56 65.01 64.77 64.52 64.22 63.80 63.93 64.44 64.87 65.01 65.04 65.16 65.40 65.47 65.56 65.80 65.64 65.76 65.93 66.17 66.25 66.51 66.44 66.42 66.85 67.16 67.27 67.29 67.49 67.73 67.53 67.03 66.86 66.86 66.91 67.01 66.91 66.67 66.24 66.18 66.03 65.81 65.95 66.05 65.81 65.66 65.48 65.30 65.31 65.26 65.03 64.82
36.03 35.83 35.88 35.89 35.84 35.88 35.89 35.78 36.07 36.31 36.46 36.68 36.83 36.91 36.98 36.90 37.13 37.18 37.21 37.33 37.35 36.94 36.89 37.07 36.94 36.90 36.86 36.74 36.85 36.80 36.78 36.71 36.46 36.35 36.27 36.22 36.04 35.82 35.65 35.66 35.58 35.29 35.37 35.34 35.22 35.28 35.25 35.33 35.27 35.15 35.17 35.03 34.99 35.03 34.85 34.97 34.72 34.62 34.74 34.62 33.96 31.89 28.07 27.09 27.02 26.26 27.62 26.79 25.87 24.61 26.05 29.09 30.62 32.50 30.97 30.12 30.04 27.92 30.98 32.67 32.79 32.75 32.67 30.29 29.21 30.78 31.99 32.76 32.99 31.25 25.30 17.43 17.00 17.17 20.66 24.89 26.51 28.45 31.71 33.86 35.26 35.48 35.70 35.97 35.82 35.44 35.43 35.56 35.58 35.52 35.58 35.42 34.98 34.56 35.47 35.73 35.90 36.01 36.20 36.29 36.31 36.37 36.62 36.92 37.07 37.06 37.15 37.34 37.74 37.81 38.05 38.19 38.45 38.62 38.70 38.75 38.73 39.04 39.22 39.54 39.71 39.97 40.24 40.52 40.83 41.03 41.27 41.43 41.40 41.85 42.71 43.30 44.30 43.40 43.80 44.45 44.48 44.47 43.98 43.86 43.97 44.12 44.33 44.56 45.09 46.50 46.65 47.02 47.08 47.33 48.10 48.30 47.86 46.97 46.73 47.05 47.34 47.47 47.55 47.62 47.73 47.86 48.06 48.21 48.47 48.75 49.55 49.56 49.79 49.91 50.07 50.78 50.86 51.20 51.40 51.01 51.11 51.51 52.66 52.06 51.50 51.60 51.44 51.46 51.59 51.77 51.99 52.32 52.41 52.54 52.57 52.59 52.68 52.71 52.59 52.64 52.58 52.81 52.99 52.94 53.10 53.48 53.80 53.89 54.06 54.27 54.48 54.75 54.94 55.08 55.01 54.98 55.16 55.30 55.19 55.54 55.93 56.24 56.50 56.51 56.10 55.34 54.84 54.47 54.11 53.46 52.79 51.64 52.31 52.98 53.67 54.70 55.07 55.40 55.76 55.98 56.25 56.63 56.94 57.28 57.18 57.32 57.79 58.35 58.65 58.83 58.91 58.95 59.07 59.31 59.37 59.50 59.70 59.71 59.92 59.87 59.65 59.49 59.40 59.03 58.40 58.10 57.72 57.35 57.20 57.37 57.80 58.31 58.34 58.33 58.24 58.00 57.63 57.41 57.51 57.52 57.56 57.28 56.79 57.19 57.99 58.62 58.87 59.04 59.21 59.50 59.82 59.94 59.93 60.22 60.74 61.17 61.16 61.78 62.28 62.61 63.12 63.63 64.14 64.84 65.35 65.71 65.80 65.91 65.89 65.92 65.84 65.84 65.97 66.05 66.19 66.21 66.25 66.44 66.56 66.45 66.24 66.05 65.98 65.92 66.05 65.97 66.03 65.89 65.73 64.98 63.72 63.94 64.77 65.24 65.19 64.89 64.44 64.23 64.72 64.87 65.43 65.52 65.51 65.71 66.08 66.22 66.14 66.41 66.30 66.50 66.59 66.84 66.90 66.87 66.88 67.18 67.36 67.54 67.59 67.69 68.04 68.08 67.78 67.35 67.22 67.39 67.64 67.72 67.65 67.53 66.83 66.51 66.39 66.26 66.21 66.12 66.03 65.98 65.79 65.56 65.47 65.25 65.38 65.27
36.23 36.10 36.06 36.11 35.93 35.84 36.09 35.96 36.13 36.36 36.44 36.63 36.66 36.81 36.91 37.21 37.23 37.30 37.68 39.27 39.09 37.27 37.00 37.06 37.08 37.16 37.21 37.05 36.93 36.83 36.93 36.77 36.62 36.49 36.41 36.43 36.17 35.99 35.82 35.62 35.64 35.60 35.59 35.48 35.46 35.39 35.41 35.38 35.41 35.22 35.29 35.25 35.19 35.15 35.04 35.05 34.82 34.77 34.73 34.33 33.79 31.73 27.82 26.76 26.34 25.81 26.22 25.03 24.59 27.26 32.18 33.14 32.87 32.12 30.64 31.15 30.80 28.52 31.26 31.68 32.53 33.37 33.77 32.65 30.13 31.62 32.20 32.64 32.86 31.20 28.02 19.03 17.01 17.16 19.64 22.69 25.26 27.22 29.85 32.35 34.75 35.62 35.96 35.88 35.83 35.61 35.52 35.60 35.57 35.64 35.79 35.59 35.33 34.64 35.22 35.43 35.78 35.95 36.11 36.34 36.42 36.47 36.50 36.69 36.72 36.89 37.25 37.35 37.59 38.02 37.99 38.08 38.31 38.56 38.78 38.98 39.09 39.14 39.24 39.37 39.59 39.68 40.00 40.56 41.08 41.39 41.76 42.03 41.65 41.70 42.18 43.19 43.19 43.22 44.02 44.98 44.35 44.11 43.75 43.83 43.92 44.21 44.52 44.66 45.18 46.43 46.48 46.74 46.85 47.06 47.15 47.17 47.25 47.51 48.19 48.81 49.18 48.27 47.52 47.64 47.86 48.13 48.18 48.29 48.49 48.72 49.36 49.77 49.71 51.13 51.06 51.61 51.13 50.97 51.19 51.18 51.33 51.42 52.15 52.71 51.95 51.65 51.67 51.89 51.84 52.17 52.30 52.51 52.74 52.95 52.89 52.80 52.91 52.85 52.89 52.88 52.82 52.99 53.18 53.27 53.38 53.74 54.19 54.28 54.39 54.49 54.76 55.00 55.19 55.39 55.22 55.32 55.51 55.65 55.59 55.73 56.11 56.42 56.77 56.67 56.40 55.86 55.45 55.05 54.44 53.81 53.26 51.92 51.68 52.41 53.07 54.29 54.79 55.13 55.48 55.94 56.20 56.38 56.66 56.88 56.75 56.94 57.57 57.90 57.98 58.26 58.36 58.57 58.88 59.01 58.97 59.04 59.19 59.35 59.63 59.56 59.28 59.02 58.93 58.71 58.24 57.93 57.71 57.68 57.58 57.52 57.71 58.25 58.52 58.54 58.47 58.26 57.98 57.71 57.88 57.84 57.97 57.86 57.14 57.17 57.74 58.52 58.74 59.02 59.31 59.68 59.97 60.07 60.08 60.32 60.64 60.76 60.98 61.64 62.02 62.44 63.12 63.57 64.11 64.76 65.21 65.37 65.71 65.95 65.95 65.85 65.67 65.73 65.84 65.97 66.08 66.25 66.25 66.47 66.62 66.45 66.17 66.03 66.03 66.13 66.33 66.26 66.29 66.14 65.69 64.70 64.11 64.28 64.85 65.48 65.66 65.39 65.23 64.98 65.38 65.50 65.70 66.06 66.00 66.25 66.40 66.50 66.70 67.05 67.02 67.23 67.30 67.43 67.55 67.61 67.68 68.04 68.07 67.92 67.90 68.07 68.62 68.47 68.00 67.61 67.54 67.79 68.52 68.58 68.68 68.91 68.17 67.25 66.97 66.54 66.37 66.31 66.32 66.10 65.89 65.83 65.65 65.46 65.67 65.43
36.17 36.35 36.53 36.28 36.00 35.85 36.16 36.02 36.19 36.35 36.45 36.50 36.75 36.91 37.16 37.99 38.28 38.08 38.12 38.47 39.33 38.38 37.48 37.34 37.40 37.39 37.30 37.15 37.05 37.07 37.12 36.89 36.80 36.64 36.74 36.61 36.32 36.15 35.97 35.64 35.53 35.70 35.70 35.60 35.52 35.42 35.48 35.44 35.45 35.48 35.45 35.38 35.41 35.28 35.18 35.18 35.00 34.92 34.36 33.16 32.30 31.26 29.72 27.09 25.40 26.37 28.54 28.15 28.35 30.81 33.64 34.01 33.82 33.27 31.85 31.22 30.18 27.73 29.22 30.60 32.64 33.77 33.96 32.92 30.56 31.59 33.19 33.63 33.63 31.20 27.69 23.08 17.25 17.00 17.16 18.66 23.60 26.58 28.10 30.49 33.56 35.53 35.97 35.94 36.03 35.90 35.66 35.78 35.87 35.96 35.85 35.58 35.19 34.74 35.23 35.58 36.04 36.11 36.20 36.32 36.46 36.53 36.54 36.64 36.74 36.97 37.22 37.44 37.97 38.01 37.99 38.14 38.58 38.97 39.20 39.24 39.22 39.31 39.35 39.40 39.64 39.72 40.00 40.57 41.82 42.62 42.30 42.23 42.35 42.13 42.14 42.98 43.25 42.90 43.41 43.86 43.50 43.33 43.63 44.01 44.13 44.32 44.58 45.19 49.02 51.59 51.98 52.99 51.03 46.75 46.78 47.11 47.26 47.62 48.04 48.17 48.12 47.77 47.56 47.74 47.92 48.18 48.32 48.50 48.77 48.93 49.45 49.94 49.80 51.41 51.38 51.65 50.80 50.69 50.78 51.21 51.43 51.45 51.88 52.71 52.64 52.17 52.11 52.13 51.96 52.33 52.56 52.69 52.93 53.12 53.27 53.10 53.01 53.13 53.23 53.20 53.26 53.19 53.33 53.51 53.67 53.99 54.40 54.67 54.85 54.88 54.96 55.08 55.28 55.47 55.47 55.62 55.83 55.93 55.90 55.88 56.13 56.50 56.84 56.93 56.66 56.20 55.76 55.51 55.08 54.31 53.27 52.06 51.91 52.87 53.51 53.50 53.95 54.82 55.27 55.69 55.93 55.97 56.22 56.30 56.33 56.77 57.29 57.34 57.52 57.85 58.16 58.43 58.64 58.61 58.62 58.65 58.82 59.13 59.41 59.44 59.20 58.91 58.63 58.29 57.90 57.94 58.15 58.20 58.01 57.73 57.82 58.20 58.59 58.67 58.60 58.42 58.11 58.08 58.36 58.47 58.44 58.29 57.87 57.31 57.48 58.03 58.19 58.53 59.13 59.56 59.80 59.98 60.23 60.29 60.29 60.65 61.01 61.34 61.77 62.40 63.17 63.73 64.22 64.70 65.01 65.19 65.59 65.82 65.73 65.58 65.36 65.43 65.61 65.84 66.00 66.24 66.31 66.43 66.62 66.33 66.13 66.07 66.04 66.16 66.40 66.54 66.39 66.17 65.84 64.96 64.41 64.25 64.96 65.75 66.20 66.19 65.99 66.14 66.22 66.29 66.47 66.81 66.54 66.64 66.95 66.97 67.19 67.57 67.72 67.98 67.86 68.13 68.50 68.57 68.57 68.88 68.84 68.44 68.21 68.27 68.67 68.66 68.24 67.82 67.59 68.15 69.26 69.84 70.18 70.69 70.79 69.13 67.56 66.96 66.68 66.55 66.57 66.16 66.11 66.05 65.80 65.69 65.92 65.55
36.06 36.15 36.58 36.40 36.08 35.96 36.09 36.30 36.29 36.25 36.42 36.51 36.79 37.36 38.04 38.94 39.13 38.92 38.41 38.60 38.94 38.68 37.67 37.49 37.62 37.38 37.39 37.31 37.25 37.33 37.17 37.09 36.98 36.79 36.79 36.73 36.59 36.31 36.06 35.85 35.59 35.70 35.74 35.62 35.59 35.51 35.59 35.57 35.51 35.57 35.58 35.47 35.46 35.41 35.34 35.42 35.23 35.01 34.62 34.05 33.65 33.18 31.32 29.08 26.34 26.04 27.36 29.45 30.90 32.52 33.86 34.32 34.33 34.08 33.02 31.72 30.72 29.06 29.73 32.02 32.57 33.88 33.94 32.42 30.79 31.19 32.75 33.61 33.77 32.46 31.29 29.44 19.52 17.00 17.00 17.10 19.31 24.81 27.68 29.61 33.05 35.59 36.05 35.94 35.94 35.90 35.91 35.91 36.04 36.03 35.88 35.71 35.48 34.99 34.92 35.31 35.85 36.18 36.27 36.37 36.43 36.59 36.56 36.65 36.81 37.04 37.35 37.80 37.94 37.85 38.02 38.30 38.70 39.11 39.22 39.22 39.30 39.46 39.48 39.57 39.76 39.93 40.28 40.94 42.54 43.73 42.58 42.17 42.24 42.18 42.14 42.63 43.44 42.99 43.38 43.02 43.07 43.39 43.65 43.95 44.17 44.26 44.56 46.36 53.61 54.16 53.21 52.45 50.00 47.09 47.01 47.28 47.57 47.68 47.75 47.78 47.65 47.56 47.61 47.69 47.94 48.19 48.47 48.61 48.79 49.03 49.34 49.72 50.09 51.21 50.77 50.68 50.49 50.49 50.63 50.94 51.22 51.39 51.85 52.39 52.56 52.45 52.50 52.48 52.61 52.83 53.08 52.98 53.00 53.10 53.53 53.51 53.29 53.41 53.52 53.61 53.55 53.41 53.48 53.62 53.82 54.23 54.65 55.03 55.33 55.38 55.35 55.30 55.45 55.71 55.77 55.90 56.08 56.19 56.17 56.07 56.32 56.67 57.00 57.17 57.03 56.72 56.32 56.14 55.93 55.28 53.86 52.74 52.41 52.59 53.98 53.88 53.85 54.12 54.78 55.16 55.32 55.59 55.89 55.69 55.91 56.54 56.80 56.83 57.17 57.60 57.94 58.24 58.38 58.32 58.26 58.34 58.57 58.96 59.24 59.26 59.10 58.87 58.53 58.33 58.19 58.21 58.66 58.78 58.30 57.96 58.14 58.37 58.66 58.80 58.70 58.55 58.40 58.44 58.89 59.03 58.94 58.84 58.39 57.76 57.67 57.93 58.07 58.12 58.40 58.80 59.22 59.76 60.31 60.41 60.09 60.66 61.26 61.55 61.90 62.39 63.30 63.86 64.25 64.56 64.61 64.94 65.34 65.53 65.47 65.21 65.16 65.42 65.60 65.84 66.07 66.24 66.39 66.96 67.44 66.55 66.31 66.22 66.24 66.30 66.55 66.53 66.46 66.33 66.13 65.35 64.82 65.01 65.91 66.64 67.05 67.01 67.01 67.24 67.35 67.38 67.50 67.62 67.44 67.21 67.58 67.73 68.13 68.33 68.34 68.47 68.77 69.16 69.71 69.99 69.65 69.53 69.22 68.73 68.45 68.51 68.59 68.55 68.35 68.14 67.76 68.08 69.39 71.40 72.52 73.10 73.10 71.27 67.91 67.35 67.15 66.77 66.35 66.02 66.18 66.06 65.96 66.05 66.03 65.65
36.21 36.16 36.25 36.40 36.26 36.11 36.30 36.88 36.26 36.31 36.35 36.50 37.00 38.49 38.44 39.14 39.39 39.13 38.73 38.59 39.16 38.74 37.79 37.59 37.66 37.46 37.38 37.33 37.32 37.30 37.17 37.14 37.06 36.84 36.81 36.73 36.65 36.46 36.15 36.16 35.93 35.89 36.00 35.91 35.90 35.76 35.60 35.67 35.84 35.66 35.68 35.66 35.62 35.64 35.62 35.50 35.24 35.16 34.93 34.66 34.44 34.01 32.94 32.39 29.16 27.10 26.54 28.36 30.97 33.11 34.09 34.50 34.55 34.45 33.84 32.92 31.52 29.29 28.80 32.07 33.43 33.87 33.84 32.72 31.21 31.16 31.77 32.60 33.53 34.22 33.65 32.86 24.35 17.03 17.00 17.00 17.12 20.75 26.50 28.49 30.96 34.34 35.75 36.02 36.02 35.95 35.99 36.00 36.07 36.15 36.03 36.08 35.85 35.47 35.19 35.30 35.72 36.01 36.21 36.45 36.57 36.73 36.67 36.74 36.87 37.01 37.37 37.62 37.58 37.80 38.04 38.42 38.65 39.01 39.18 39.29 39.46 39.59 39.67 39.61 39.98 40.35 40.36 40.60 41.51 44.02 43.86 42.50 42.30 42.05 42.45 43.16 43.48 43.17 42.61 42.62 42.97 43.44 43.71 43.84 44.16 44.36 44.63 45.64 47.85 47.12 46.98 46.97 46.94 46.75 47.12 47.54 47.89 48.04 47.96 47.81 47.62 47.58 47.54 47.53 47.85 48.24 48.52 48.62 48.68 48.95 49.16 49.72 50.38 51.81 50.61 49.96 50.05 50.38 50.59 50.73 50.99 51.35 51.95 52.35 52.44 52.64 52.74 52.73 52.95 53.07 53.36 53.38 53.23 53.30 53.75 53.79 53.60 53.75 53.85 53.94 53.87 53.73 53.54 53.77 54.00 54.41 54.84 55.24 55.53 55.62 55.72 55.74 55.76 55.90 55.99 56.19 56.34 56.46 56.42 56.25 56.33 56.67 57.17 57.41 57.38 57.00 56.70 56.55 55.73 54.90 53.87 53.40 52.30 52.50 53.90 54.49 54.50 53.77 53.81 54.06 54.17 54.97 55.30 55.41 55.84 56.23 56.50 56.69 56.85 57.38 57.73 57.84 58.04 58.04 57.89 58.08 58.39 58.81 59.02 59.19 59.03 58.78 58.60 58.80 58.82 58.51 58.74 59.06 58.71 58.19 58.31 58.47 58.74 58.84 58.80 58.70 58.68 58.77 59.14 59.26 59.01 58.90 58.71 58.27 57.87 58.36 58.92 58.84 58.58 58.61 58.83 59.63 60.20 60.29 59.84 60.23 61.17 61.63 61.98 62.39 63.02 63.57 64.07 64.20 64.26 64.69 64.99 65.26 65.25 64.97 65.08 65.40 65.55 65.96 66.18 66.31 66.42 66.96 67.06 66.36 66.44 66.40 66.39 66.52 66.68 66.67 66.72 66.58 65.97 65.20 65.61 66.44 67.07 67.09 67.45 67.93 68.05 68.29 68.36 68.23 68.31 68.27 68.24 68.25 68.40 68.55 68.71 68.73 68.89 69.22 69.81 70.38 70.88 71.22 70.58 69.92 69.45 69.09 68.81 68.66 68.74 68.62 68.50 68.33 68.16 68.12 68.80 70.71 73.67 75.11 72.80 69.31 67.61 67.47 67.18 66.86 66.73 66.54 66.45 66.36 66.28 66.51 66.41 66.08
36.27 36.35 36.23 36.20 36.42 36.62 36.92 36.76 36.36 36.62 36.90 37.47 37.70 36.95 37.32 39.19 39.17 38.68 37.75 37.94 39.63 39.45 37.84 37.62 37.71 37.45 37.43 37.49 37.40 37.32 37.19 37.14 37.09 36.90 36.79 36.76 36.49 36.27 36.12 36.03 36.02 36.01 36.10 36.22 36.04 35.94 35.81 35.88 35.90 35.82 35.76 35.88 36.02 35.70 35.65 35.48 35.30 35.31 35.21 34.85 34.67 34.46 34.07 33.79 30.78 28.50 27.77 27.20 29.70 32.30 34.21 34.66 34.63 34.57 33.69 32.68 31.83 31.23 29.22 29.95 30.91 32.59 33.86 33.26 31.78 31.48 31.55 31.80 32.21 33.48 34.76 34.66 29.98 18.09 17.00 17.00 17.05 18.56 24.33 26.84 28.52 31.42 34.36 35.78 36.05 36.00 36.04 36.05 36.10 36.34 36.18 36.16 36.02 35.90 35.71 35.35 35.47 35.73 36.10 36.36 36.66 36.80 36.78 36.78 36.94 37.04 37.39 37.47 37.51 37.88 38.21 38.43 38.61 39.00 39.18 39.33 39.47 39.54 39.53 39.53 39.95 40.42 40.47 40.63 40.94 42.71 44.25 43.95 42.74 42.51 42.81 43.61 43.17 43.23 42.82 42.65 42.94 43.29 43.53 43.76 44.27 44.52 44.75 45.01 45.22 45.38 45.74 46.07 46.47 46.66 47.14 47.66 48.12 48.30 48.10 47.94 47.67 47.68 47.63 47.65 47.85 48.31 48.45 48.49 48.49 48.66 48.88 49.23 49.84 51.05 49.78 49.41 49.60 49.83 50.12 50.37 50.68 51.27 51.78 52.12 52.50 52.75 52.83 52.94 53.17 53.34 53.51 53.62 53.54 53.65 53.87 54.10 53.97 54.02 54.07 54.12 54.12 53.84 53.59 53.85 54.09 54.40 54.65 54.96 55.34 55.63 55.99 56.19 56.12 56.23 56.33 56.54 56.64 56.64 56.74 56.46 56.64 56.98 57.28 57.60 57.60 57.35 57.22 56.73 55.71 54.97 54.38 53.47 52.56 53.04 53.70 54.38 54.73 54.54 54.26 54.07 53.90 53.89 54.41 55.22 55.77 55.95 56.26 56.46 56.68 57.29 57.37 57.47 57.65 57.65 57.60 57.99 58.42 58.77 59.00 59.06 58.99 58.90 58.97 59.14 59.16 58.95 58.85 59.10 58.66 58.41 58.45 58.70 58.91 59.03 58.96 58.88 58.93 59.00 59.36 59.36 59.21 59.06 58.94 58.46 57.97 58.36 59.06 59.49 59.44 59.30 59.05 59.16 59.52 59.66 59.40 59.90 60.76 61.54 62.04 62.51 62.86 63.39 63.81 63.72 64.00 64.33 64.42 64.73 64.86 64.99 65.18 65.44 65.64 65.86 66.13 66.29 66.38 66.46 66.35 66.46 66.63 66.62 66.67 66.88 66.89 66.84 66.57 66.46 66.07 65.96 66.48 67.26 67.76 67.74 67.80 68.50 68.68 68.66 68.85 69.04 69.19 69.10 69.28 69.82 69.33 69.01 69.19 69.60 69.85 70.02 70.88 71.45 71.77 71.62 70.83 70.02 69.56 69.25 68.94 68.85 68.79 68.65 68.66 68.40 68.40 68.22 68.55 69.13 70.17 70.83 69.21 67.76 67.39 67.50 67.40 67.06 66.84 66.84 66.69 66.76 66.62 66.74 66.55 66.53
36.58 36.61 36.50 36.45 36.38 37.05 37.07 36.85 36.59 36.51 37.18 38.48 36.75 36.02 38.64 38.77 38.67 38.25 38.17 38.74 38.72 38.02 37.61 37.66 37.72 37.53 37.50 37.51 37.41 37.29 37.18 37.11 37.18 37.04 36.91 36.80 36.42 36.29 36.22 36.17 36.21 36.19 36.21 36.26 36.21 36.13 36.05 35.92 35.93 35.93 35.94 35.98 36.08 35.85 35.77 35.58 35.56 35.47 35.48 35.22 34.97 34.65 34.23 33.84 32.32 30.30 28.59 27.32 28.94 32.50 34.31 34.65 34.62 34.49 34.17 34.00 32.98 31.24 31.27 30.63 29.38 31.19 33.57 33.80 33.06 32.62 32.30 32.21 31.59 31.41 32.99 34.73 34.07 20.40 17.03 17.17 17.38 17.98 21.19 24.38 26.02 28.85 32.33 34.74 35.85 36.12 36.08 36.13 36.23 36.47 36.27 36.19 36.20 36.26 35.98 35.64 35.41 35.63 35.98 36.33 36.65 36.91 36.92 36.89 37.05 37.15 37.09 37.49 37.58 37.88 38.29 38.41 38.63 38.87 38.97 39.20 39.44 39.54 39.48 39.52 39.75 40.27 40.42 40.50 40.75 41.72 44.14 44.42 42.94 42.04 42.06 42.43 42.68 43.26 43.21 43.06 43.11 43.34 43.61 43.81 44.31 44.51 44.78 45.04 45.18 45.49 45.79 46.00 46.43 46.88 47.19 47.69 48.03 48.31 48.27 47.97 47.68 47.56 47.58 47.70 47.81 48.14 48.24 48.31 48.27 48.40 48.68 48.96 49.28 49.72 49.24 49.21 49.24 49.26 49.61 49.95 50.44 51.12 51.57 52.00 52.37 52.69 52.92 53.11 53.34 53.54 53.70 53.90 53.91 53.96 54.08 54.29 54.28 54.19 54.23 54.22 54.11 53.91 53.79 54.02 54.29 54.57 54.72 54.82 55.14 55.53 56.08 56.45 56.49 56.60 56.66 56.85 56.95 57.01 56.98 56.77 57.02 57.23 57.57 57.84 57.91 57.70 57.42 56.87 55.84 55.00 54.69 53.58 52.74 53.49 54.13 54.50 54.74 54.90 54.76 54.90 54.81 54.61 54.47 54.86 55.34 55.49 55.81 55.96 56.35 56.83 56.89 57.16 57.29 57.36 57.72 58.19 58.47 58.60 58.78 58.82 58.80 58.92 59.02 59.19 59.25 59.18 59.05 58.99 58.68 58.73 58.79 58.95 59.12 59.30 59.17 59.13 59.34 59.26 59.47 59.44 59.41 59.38 59.11 58.48 58.30 58.64 58.81 59.24 59.82 59.94 59.69 59.09 59.18 59.46 59.35 59.87 60.80 61.31 61.95 62.42 62.40 62.92 63.15 63.32 63.70 64.02 64.42 64.94 65.02 65.20 65.42 65.57 65.75 65.98 66.24 66.40 66.53 66.63 66.67 66.81 66.93 66.96 67.17 67.11 66.14 66.38 66.91 67.00 66.53 66.67 67.38 67.74 68.19 68.30 68.28 69.23 69.30 69.26 69.66 70.04 70.30 70.25 71.05 71.17 70.00 70.09 70.63 71.23 71.54 71.43 71.73 72.36 72.21 71.89 71.11 70.00 69.52 69.10 69.07 69.07 68.95 68.91 68.89 68.52 68.63 68.53 68.58 68.76 68.86 68.67 68.25 67.88 67.73 67.85 67.93 67.51 67.47 67.42 67.26 67.24 67.07 66.88 66.79 67.07
36.80 36.79 36.72 36.64 36.64 36.50 36.70 37.18 37.14 36.91 37.72 37.94 38.06 39.22 38.51 38.68 38.78 38.43 37.91 38.08 37.68 37.35 37.31 37.42 37.62 37.65 37.51 37.32 37.18 37.21 37.11 36.90 36.95 37.02 36.88 36.73 36.47 36.43 36.51 36.55 36.36 36.39 36.35 36.29 36.34 36.18 36.04 36.02 35.97 36.00 36.20 36.46 35.99 35.88 35.77 35.56 35.45 35.59 35.58 35.31 34.97 34.68 34.29 33.92 32.99 31.27 29.13 28.25 28.59 31.71 33.89 34.59 34.69 34.68 34.71 34.60 33.29 31.27 33.35 32.37 29.38 30.17 32.80 34.07 34.26 34.15 33.73 33.36 32.34 31.21 31.10 32.42 33.14 20.98 17.35 17.48 17.50 17.50 17.84 18.64 19.39 24.32 29.48 32.21 34.27 36.04 36.35 36.34 36.30 36.45 36.39 36.34 36.35 36.31 36.23 35.94 35.61 35.60 35.97 36.37 36.72 36.92 36.92 36.95 37.43 37.41 37.48 37.79 37.89 38.19 38.51 38.46 38.62 38.71 38.84 39.14 39.33 39.54 39.46 39.53 39.87 40.23 40.33 40.64 41.36 42.44 43.33 43.37 43.21 41.86 41.81 41.92 42.22 43.37 43.95 43.52 43.35 43.58 43.63 43.84 44.24 44.46 44.68 45.01 45.25 45.53 45.77 46.24 46.48 46.82 47.12 47.55 47.92 48.07 47.89 47.51 47.36 47.27 47.36 47.45 47.73 47.87 47.94 48.00 48.12 48.28 48.48 48.70 48.75 49.03 49.13 48.96 48.86 48.88 49.45 49.84 50.32 50.95 51.29 51.66 52.07 52.36 52.83 53.15 53.39 53.62 53.83 54.15 54.28 54.24 54.29 54.43 54.47 54.50 54.44 54.01 54.19 54.06 53.89 54.15 54.51 54.80 55.03 55.18 55.21 55.39 55.94 56.46 56.69 56.86 56.98 57.12 57.24 57.27 57.20 57.11 57.21 57.37 57.64 57.90 58.11 58.04 57.47 56.59 55.71 54.97 54.62 53.65 52.74 53.38 54.30 54.71 54.78 54.91 54.84 54.88 55.02 55.07 55.09 55.01 55.44 55.65 55.85 55.94 56.15 56.38 56.57 56.90 57.22 57.48 57.90 58.09 58.20 58.19 58.36 58.34 58.30 58.63 58.77 59.03 59.15 59.25 59.10 58.95 58.85 58.93 58.95 59.04 59.39 59.55 59.62 59.57 59.58 59.39 59.60 59.71 59.71 59.62 59.22 58.57 58.81 59.28 59.06 58.89 59.77 60.37 60.35 60.02 60.06 60.78 60.24 59.66 60.03 60.36 60.95 61.62 62.01 62.88 63.42 63.96 64.41 64.59 64.79 65.08 65.21 65.32 65.53 65.67 65.89 66.14 66.29 66.50 66.66 66.84 66.99 67.11 67.16 67.13 67.29 67.17 67.10 67.36 67.47 67.39 67.12 67.29 68.13 68.08 68.66 68.89 68.97 69.85 70.23 70.36 71.45 71.58 71.65 71.89 73.43 73.21 71.29 71.16 71.72 72.31 72.49 72.67 72.68 72.91 73.04 73.61 72.19 70.08 69.66 69.37 69.31 69.34 69.25 69.13 69.02 68.78 68.88 68.72 68.71 68.77 68.61 68.41 68.26 68.22 68.00 68.09 68.27 68.05 67.96 67.99 67.76 67.50 67.18 66.99 66.96 67.18
36.92 36.82 36.80 36.68 36.69 36.62 36.65 37.05 36.97 37.79 39.13 38.99 38.29 37.30 37.46 38.56 38.36 37.88 37.35 37.42 37.38 37.45 37.41 37.50 37.58 37.60 37.38 37.26 37.18 37.10 37.02 36.83 36.74 36.80 36.72 36.51 36.50 36.62 36.54 36.38 36.43 36.47 36.56 36.60 36.53 36.29 36.30 36.31 36.20 36.04 36.15 36.33 36.21 36.06 35.95 35.70 35.56 35.72 35.75 35.47 35.14 34.79 34.54 33.84 33.11 32.27 30.70 28.83 27.84 31.19 34.12 34.84 34.85 34.78 34.65 34.45 33.09 32.12 33.73 33.12 30.66 30.82 30.69 33.76 34.77 34.86 34.66 34.15 33.32 32.43 30.76 31.54 33.55 25.28 17.77 17.52 17.50 17.50 17.50 17.50 17.50 19.18 25.42 29.55 32.80 35.73 36.40 36.37 36.36 36.48 36.49 36.52 36.45 36.47 36.47 36.19 36.06 35.87 35.88 36.10 36.47 36.69 36.79 37.20 37.48 37.42 37.61 37.98 38.03 38.02 38.17 38.45 38.47 38.53 38.74 38.99 39.07 39.32 39.49 39.80 40.48 40.41 40.36 40.58 41.04 41.22 41.61 41.81 42.34 41.90 41.76 41.83 42.14 43.52 44.32 44.27 44.86 44.43 43.94 43.91 44.24 44.32 44.55 44.93 45.20 45.42 45.61 46.00 46.26 46.88 47.12 47.42 47.65 47.79 47.54 47.16 47.08 47.01 46.87 47.22 47.55 47.67 47.82 47.83 47.83 48.02 48.24 48.38 48.48 48.87 48.79 48.59 48.86 48.85 49.47 49.94 50.29 50.71 51.05 51.37 51.81 52.43 52.96 53.21 53.59 53.96 54.23 54.50 54.57 54.57 54.69 54.66 54.57 54.40 54.21 54.01 54.02 54.06 54.16 54.27 54.67 54.95 55.14 55.40 55.53 55.53 55.66 56.20 56.74 57.02 57.24 57.35 57.37 57.54 57.53 57.43 57.52 57.70 57.84 57.97 58.03 57.84 57.15 56.47 55.90 55.45 54.80 54.29 53.77 53.02 53.66 54.28 54.36 54.62 54.77 54.88 55.10 55.38 55.34 55.33 55.70 56.04 56.26 56.41 56.66 56.74 56.84 57.12 57.43 57.54 57.65 57.51 57.61 57.65 57.63 57.90 58.15 58.51 58.64 58.76 58.93 59.19 59.34 59.26 59.11 59.23 59.25 59.16 59.49 59.84 59.94 59.94 59.91 59.63 59.76 60.08 60.13 59.87 59.23 58.62 59.20 59.72 59.47 59.07 59.36 60.15 60.55 60.71 60.78 61.20 60.98 59.93 60.21 61.02 61.87 62.24 62.49 63.15 63.94 64.57 64.81 64.74 64.78 64.80 64.98 65.19 65.45 65.70 65.95 66.20 66.42 66.53 66.83 67.06 67.21 67.10 66.97 67.38 67.99 68.09 67.93 67.88 67.78 67.85 67.84 67.78 67.88 68.55 69.30 69.70 70.18 70.84 71.52 72.04 73.77 73.78 73.28 72.92 74.00 74.42 72.80 73.18 72.85 72.59 73.28 73.61 73.79 74.23 74.75 74.32 71.56 69.95 69.80 69.70 69.53 69.66 69.51 69.37 69.25 69.17 69.04 68.94 69.04 68.92 68.83 68.74 68.64 68.54 68.38 68.46 68.62 68.48 68.19 68.21 67.90 67.57 67.43 67.23 67.09 67.46
37.13 37.12 36.95 36.89 36.72 36.69 36.68 36.77 36.96 38.06 39.04 38.16 37.18 37.12 37.13 38.03 37.79 37.29 37.14 37.17 37.37 37.47 37.48 37.55 37.51 37.58 37.34 37.12 37.08 37.03 36.96 36.86 36.79 36.70 36.62 36.55 36.61 36.69 36.57 36.38 36.60 36.71 36.82 36.63 36.60 36.41 36.34 36.35 36.27 36.19 36.32 36.53 36.46 36.50 36.04 35.82 35.72 35.84 35.78 35.63 35.41 35.10 34.41 34.10 34.14 33.60 31.86 28.52 27.16 30.34 33.78 34.80 34.95 34.94 34.78 34.32 33.54 33.78 34.00 33.50 32.04 32.93 31.34 33.18 34.56 34.84 34.83 34.64 33.68 32.22 30.18 30.80 30.52 26.36 23.44 19.52 17.74 17.51 17.50 17.50 17.50 17.62 19.98 25.07 28.90 32.18 36.03 36.25 36.34 36.20 36.06 36.44 36.56 36.62 36.58 36.50 36.43 36.18 35.86 36.12 36.22 36.49 36.98 37.33 37.41 37.37 37.41 37.88 38.08 38.09 38.32 38.47 38.46 38.42 38.58 38.66 38.83 39.16 39.67 40.10 40.30 40.23 40.39 40.42 40.77 40.91 41.31 41.23 41.45 41.54 41.50 41.77 42.01 42.88 43.66 44.87 45.29 44.86 43.96 43.87 44.13 44.39 44.62 44.96 44.97 45.21 45.45 45.81 46.18 46.60 46.73 46.93 47.31 47.42 47.25 46.91 46.88 46.76 46.58 46.94 47.30 47.47 47.55 47.58 47.80 47.99 48.07 48.30 48.43 48.44 48.31 48.28 48.76 48.90 49.41 49.91 50.34 50.39 50.96 51.55 52.04 52.60 53.02 53.25 53.61 54.00 54.22 54.45 54.56 54.56 54.67 54.68 54.36 54.04 53.92 53.71 53.80 53.98 54.26 54.48 54.73 55.10 55.43 55.76 55.92 55.96 55.97 56.13 56.63 57.07 57.26 57.33 57.56 57.82 57.88 57.82 57.78 57.93 58.00 58.00 57.96 57.52 56.90 56.52 56.06 55.63 55.14 54.77 54.54 53.97 53.17 54.01 54.22 53.99 54.66 55.17 55.37 55.46 55.08 55.02 55.65 56.11 56.41 56.59 56.87 56.94 56.98 57.08 56.94 56.93 57.06 57.04 57.27 57.58 57.74 58.02 58.29 58.54 58.64 58.80 58.94 59.21 59.49 59.52 59.42 59.48 59.52 59.47 59.60 60.08 60.30 60.34 60.30 60.12 60.11 60.34 60.18 59.69 59.38 58.77 59.28 60.07 60.15 59.66 59.40 59.90 60.34 60.67 61.00 61.41 61.36 60.87 61.06 61.66 62.60 63.03 63.09 63.44 64.08 64.50 64.42 64.42 64.51 64.61 64.85 65.09 65.36 65.62 65.89 66.14 66.39 66.63 67.16 67.20 66.87 66.98 67.62 68.14 68.62 68.67 68.73 68.75 68.25 68.48 69.05 69.59 69.03 69.27 70.07 70.74 71.82 72.72 73.20 74.00 75.03 74.78 74.48 73.53 74.10 74.96 75.05 75.45 75.48 74.36 74.55 74.44 74.14 74.70 74.05 71.66 70.08 69.93 69.85 69.91 69.69 69.94 69.94 69.63 69.60 69.45 69.37 69.16 69.14 69.14 69.14 69.08 68.96 68.74 68.70 68.74 68.78 68.62 68.39 68.53 68.48 68.27 68.04 67.81 67.49 68.00
37.33 37.24 36.98 36.85 36.74 36.65 36.58 37.01 37.29 37.28 37.22 37.40 37.39 37.14 37.16 37.27 37.17 37.10 37.16 37.20 37.35 37.38 37.41 37.46 37.54 37.75 37.34 37.14 37.10 37.06 36.99 36.91 36.79 36.68 36.73 36.77 36.74 36.73 36.76 36.69 36.83 36.77 36.73 36.64 36.60 36.57 36.37 36.49 36.44 36.32 36.80 36.61 36.43 36.25 36.17 36.03 35.83 36.01 36.00 35.63 35.51 35.14 34.85 34.79 34.42 33.29 31.61 29.19 27.15 29.60 32.87 34.82 35.20 35.10 34.90 34.81 34.56 34.32 33.84 32.81 32.64 33.08 31.77 33.19 34.37 35.00 35.03 34.94 34.62 34.08 30.92 27.43 26.50 28.36 33.21 28.52 22.86 18.82 17.57 17.50 17.50 17.50 17.50 18.90 23.20 27.57 33.43 34.13 34.91 35.29 35.06 36.29 36.66 36.80 36.70 36.70 36.28 36.24 36.12 36.37 36.39 36.57 37.15 37.15 37.38 37.31 37.27 37.70 38.05 38.23 38.37 38.37 38.35 38.44 38.70 38.72 38.88 39.28 39.69 39.76 40.51 40.55 40.45 40.50 40.76 40.95 41.22 41.55 41.37 41.41 41.55 41.70 41.90 42.46 44.76 46.79 45.22 44.55 43.88 43.77 44.05 44.55 44.66 45.00 44.99 45.33 45.57 45.86 46.17 46.35 46.40 46.56 46.91 47.10 46.90 46.85 46.81 46.70 46.64 46.71 47.15 47.33 47.34 47.40 47.58 47.89 48.15 48.23 48.46 48.22 48.06 48.22 48.70 48.98 49.34 49.80 49.93 50.46 51.08 51.66 52.05 52.22 52.52 53.05 53.44 53.72 53.97 54.28 54.47 54.42 54.44 54.34 54.02 53.78 53.58 53.48 53.72 54.13 54.37 54.58 54.66 55.05 55.47 55.79 56.14 56.29 56.30 56.25 56.48 56.79 57.06 57.27 57.60 57.83 58.10 58.13 57.99 58.05 58.11 57.98 57.70 57.31 56.94 56.59 56.00 55.47 55.00 54.64 54.79 54.73 53.50 53.27 53.82 53.86 53.80 55.03 55.71 55.65 54.87 54.85 55.09 55.20 55.48 56.10 56.51 56.31 56.31 56.16 56.23 56.89 57.21 57.30 57.65 58.01 58.06 58.29 58.61 58.83 58.77 59.00 59.18 59.34 59.52 59.65 59.65 59.80 59.77 59.77 59.74 60.23 60.61 60.64 60.62 60.49 60.47 60.36 60.10 59.69 59.48 58.97 59.19 60.14 60.46 60.42 60.09 59.97 60.16 60.30 60.73 61.68 61.83 61.37 61.17 61.70 62.91 63.57 63.52 63.38 63.52 63.75 63.72 64.17 64.57 64.70 65.06 65.44 65.60 65.72 66.07 66.28 66.26 66.32 66.63 67.01 67.58 67.94 68.24 68.48 68.86 69.00 69.12 69.26 69.06 69.83 68.41 67.46 68.47 69.78 70.77 72.07 73.87 74.83 75.75 75.95 75.83 75.65 75.01 74.45 75.40 76.46 77.21 76.84 75.06 73.57 73.00 72.30 71.74 71.63 70.96 70.44 70.24 70.03 70.03 70.02 69.93 70.11 70.22 69.87 69.83 69.68 69.59 69.44 69.34 69.40 69.36 69.37 69.26 68.99 69.10 69.00 68.99 68.94 68.96 68.92 69.03 69.21 69.25 68.85 68.20 68.49
37.45 37.43 37.23 36.78 36.58 36.69 36.84 36.99 37.25 37.38 37.39 37.38 37.65 37.63 37.26 37.16 37.24 37.16 37.16 37.18 37.21 37.35 37.40 37.44 37.50 37.62 37.57 37.32 37.16 37.12 37.12 37.15 37.08 36.92 36.83 36.89 36.81 36.66 36.74 36.85 36.95 36.81 36.77 36.71 36.74 36.63 36.48 36.56 36.45 36.49 36.48 36.52 36.48 36.41 36.36 36.24 35.97 36.11 35.98 35.59 35.58 35.55 35.09 34.76 34.23 32.20 31.87 31.24 27.81 29.25 32.37 34.68 35.34 35.25 34.93 34.90 34.79 34.58 33.46 33.42 34.14 33.84 32.10 33.76 34.77 35.50 35.53 34.97 34.89 34.34 32.27 28.59 30.45 34.18 34.94 33.16 31.85 27.47 20.67 17.77 17.50 17.50 17.50 17.50 18.44 22.54 26.97 28.20 31.60 33.60 34.28 36.21 36.77 36.90 36.85 36.83 36.87 36.67 36.49 36.65 36.71 36.96 36.77 36.80 37.05 37.24 37.36 37.58 37.78 37.91 37.97 38.03 38.29 38.52 38.52 38.78 39.33 39.59 39.55 39.56 39.85 40.55 40.67 40.95 40.85 41.60 41.95 41.67 41.33 41.38 41.51 41.69 41.93 42.27 47.10 49.01 45.00 43.93 43.70 43.75 43.99 44.40 44.67 45.14 45.10 45.42 45.67 45.82 46.04 46.03 46.15 46.44 46.66 46.68 46.51 46.80 46.81 46.69 46.42 46.56 47.00 47.21 47.07 47.05 47.34 47.76 47.96 48.20 48.40 48.31 48.35 48.23 48.58 48.90 49.23 49.67 49.86 50.28 50.90 51.36 51.65 51.78 52.32 52.85 53.16 53.60 53.80 54.07 54.13 54.05 54.08 53.96 53.66 53.47 53.23 53.33 53.72 54.19 54.44 54.76 54.88 55.14 55.56 55.88 56.21 56.49 56.63 56.74 56.78 56.76 56.96 57.19 57.53 57.88 58.28 58.36 58.34 58.25 58.19 57.85 57.22 56.96 56.74 56.26 55.65 54.94 54.36 54.11 54.41 54.42 53.84 53.63 54.25 54.58 54.27 53.98 54.21 54.29 54.46 54.89 54.90 55.18 55.46 55.42 55.56 55.63 55.93 56.21 56.72 57.19 57.47 57.59 57.95 58.32 58.36 58.56 58.85 59.08 59.12 59.11 59.39 59.58 59.73 59.91 60.01 60.03 60.07 60.09 60.06 60.31 60.72 61.00 61.07 60.91 60.66 60.60 60.60 60.27 59.78 59.55 59.52 60.09 60.53 60.92 61.00 60.88 60.88 60.79 60.77 61.88 62.31 61.81 61.25 61.70 63.09 63.71 63.26 63.23 63.52 63.61 63.85 64.19 64.65 64.98 65.29 65.77 66.10 66.13 66.26 66.27 66.23 66.54 67.07 67.43 67.69 68.23 68.64 68.88 69.00 69.13 69.27 69.75 70.27 69.58 67.10 66.58 67.81 70.52 71.48 72.82 74.69 75.57 76.64 76.63 76.17 76.10 75.80 75.90 77.07 77.87 77.03 74.46 72.66 71.87 71.50 71.13 70.90 70.83 70.72 70.67 70.45 70.45 70.36 70.33 70.32 70.36 70.65 70.46 70.18 69.92 69.76 69.69 69.72 69.90 69.75 69.73 69.61 69.34 69.48 69.32 69.37 69.33 69.50 69.42 69.57 69.97 70.16 69.65 69.14 68.97
37.50 37.38 37.19 36.92 36.78 36.91 36.96 36.93 37.27 37.57 37.56 37.52 37.51 37.62 37.71 37.42 37.48 37.33 37.30 37.20 37.27 37.47 37.39 37.39 37.44 37.57 37.72 37.65 37.46 37.32 37.21 37.30 37.30 37.15 36.94 36.87 36.83 36.86 36.86 36.82 36.96 36.95 37.03 36.85 36.87 36.72 36.56 36.61 36.50 36.46 36.51 36.63 36.63 36.49 36.41 36.37 36.25 36.24 36.09 35.74 35.58 35.48 34.84 34.12 33.37 33.34 33.50 31.83 27.71 29.15 32.08 34.56 35.35 35.35 34.95 34.95 34.86 34.71 33.70 34.00 34.59 34.12 32.74 34.00 34.89 35.33 35.37 35.01 34.83 34.46 34.14 31.71 29.21 30.24 33.51 35.46 34.78 32.64 29.49 22.45 17.79 17.50 17.50 17.50 17.66 18.46 21.69 25.06 28.22 31.40 35.32 36.57 36.71 36.89 36.81 36.92 37.06 36.83 36.76 36.78 36.94 36.76 36.58 36.70 36.86 37.11 37.24 37.34 37.46 37.61 37.85 38.07 38.16 38.17 38.34 38.66 39.18 39.46 39.58 39.59 39.61 40.42 40.92 41.03 40.89 41.52 41.39 41.23 41.28 41.42 41.40 41.59 41.77 41.94 43.56 44.18 43.66 44.05 43.88 43.79 43.93 44.26 44.45 44.82 44.83 45.26 45.69 46.02 46.06 45.92 46.01 46.36 46.55 46.25 45.96 46.53 46.88 46.71 46.36 46.45 46.66 46.88 46.77 46.96 47.53 47.63 47.73 48.31 48.23 47.78 47.84 48.03 48.40 48.57 49.14 49.50 49.75 50.07 50.50 50.88 51.17 51.49 52.02 52.38 52.65 53.29 53.64 53.64 53.57 53.62 53.72 53.60 53.30 53.13 53.19 53.36 53.61 54.07 54.42 54.82 54.98 55.21 55.60 56.07 56.39 56.70 56.81 57.03 57.17 56.99 56.98 57.15 57.57 58.00 58.45 58.60 58.65 58.48 58.22 57.73 57.01 56.48 56.20 55.85 55.39 54.75 54.24 54.19 54.48 54.38 54.19 54.32 54.56 54.79 54.98 54.75 54.19 54.38 55.23 55.82 55.43 55.67 56.00 55.65 55.64 56.13 56.60 56.91 57.28 57.47 57.73 57.96 58.18 58.59 58.78 58.86 59.07 59.38 59.56 59.51 59.69 59.87 59.95 60.18 60.26 60.27 60.39 60.34 60.55 60.51 60.94 61.28 61.50 61.54 61.23 61.20 60.95 61.25 61.13 60.90 60.91 61.37 61.52 61.92 61.94 61.74 61.77 61.50 60.88 61.82 62.66 62.50 61.96 61.87 62.36 62.67 62.67 63.41 63.90 63.95 64.32 64.61 64.97 65.13 65.28 65.67 66.12 66.16 66.51 66.95 67.24 67.52 67.63 68.03 68.27 68.59 68.95 69.33 69.47 69.57 69.60 70.35 70.73 70.46 69.95 68.22 67.75 70.25 71.67 72.70 74.06 75.25 76.16 76.34 75.79 77.37 77.09 77.35 77.56 76.08 73.86 72.43 71.88 71.49 71.26 71.21 71.37 71.21 71.11 70.94 70.75 70.76 70.60 70.52 70.40 70.54 70.99 70.79 70.55 70.26 70.14 70.11 70.02 70.19 70.14 70.17 69.95 69.83 69.91 70.15 70.06 69.71 69.67 69.91 70.21 70.29 70.50 69.92 69.52 69.29
37.59 37.36 37.21 37.06 36.82 36.93 36.96 37.13 37.29 37.44 37.53 37.67 37.63 37.56 37.63 37.58 37.62 37.42 37.28 37.29 37.46 37.54 37.44 37.45 37.61 37.77 37.83 38.04 37.80 37.58 37.44 37.41 37.43 37.31 37.11 36.96 37.02 36.98 37.01 36.94 36.92 37.05 37.20 36.96 36.88 36.74 36.69 36.71 36.67 36.58 36.61 36.79 36.61 36.49 36.60 36.50 36.42 36.39 36.27 35.95 35.59 35.21 34.83 34.30 33.62 34.13 33.94 30.83 27.62 29.45 32.27 34.42 35.33 35.47 35.17 34.99 35.07 35.01 34.24 34.28 34.90 34.58 33.44 33.97 34.91 35.26 35.36 35.27 35.09 35.04 34.89 32.80 29.60 28.92 33.14 35.78 35.79 35.33 34.69 31.39 22.47 18.15 17.52 17.50 17.50 17.62 20.23 23.36 25.71 28.97 34.10 36.30 36.93 37.17 36.99 37.14 37.18 37.06 37.01 37.08 37.21 36.92 36.79 36.87 36.94 37.09 37.22 37.39 37.52 37.70 37.81 37.93 38.02 38.04 38.09 38.26 38.94 39.30 39.39 39.54 39.59 39.88 40.03 40.35 40.47 40.47 40.32 40.65 41.07 41.35 41.53 41.41 41.68 41.85 42.33 42.67 43.23 44.05 44.53 43.89 43.96 44.36 44.56 44.62 44.73 45.25 45.88 46.39 46.59 46.02 45.74 46.09 46.37 45.98 45.68 46.47 47.00 46.49 46.18 46.43 46.65 46.82 47.25 47.41 47.58 47.58 47.72 48.07 47.94 47.67 47.29 47.16 47.98 48.42 48.98 49.31 49.56 49.85 50.18 50.51 50.80 51.19 51.60 51.83 52.33 52.83 53.04 52.98 52.95 53.18 53.21 53.16 52.93 52.82 53.15 53.44 53.75 54.14 54.40 54.75 54.99 55.16 55.74 56.22 56.52 56.84 57.07 57.29 57.40 57.31 57.28 57.37 57.71 58.25 58.81 58.88 58.81 58.49 57.96 57.43 56.80 56.28 55.79 55.49 55.25 54.80 54.33 54.61 54.96 54.82 54.28 54.62 55.00 55.16 55.33 55.32 54.58 54.67 55.52 55.96 55.57 56.19 56.45 56.44 56.51 56.71 56.90 57.30 57.71 57.91 58.23 58.51 58.59 58.97 59.25 59.43 59.56 59.62 59.89 59.99 60.18 60.24 60.22 60.40 60.56 60.54 60.76 60.81 60.99 61.08 61.42 61.75 61.88 61.79 61.81 61.84 61.59 62.16 62.12 62.11 62.26 62.07 62.15 62.57 62.91 62.42 62.33 62.00 61.07 62.06 63.04 63.15 63.15 62.42 62.16 62.58 62.90 63.36 63.83 64.05 64.61 64.90 65.24 65.58 65.51 65.99 66.36 66.55 66.75 67.26 67.74 68.05 68.07 68.46 68.86 69.20 69.50 69.98 70.07 69.98 70.32 70.90 70.78 70.94 71.12 70.39 68.54 69.06 71.28 72.43 73.98 75.37 75.84 75.31 74.69 76.34 76.78 76.00 74.74 73.33 72.49 71.96 71.73 71.65 71.41 71.54 71.58 71.50 71.34 71.33 71.14 71.02 70.76 70.65 70.50 70.85 71.35 71.18 71.04 70.80 70.47 70.39 70.35 70.56 70.56 70.48 70.25 70.35 70.35 70.80 70.73 70.36 70.18 70.51 70.77 70.67 70.75 70.28 69.92 69.69
37.59 37.42 37.31 37.09 36.96 37.00 37.19 37.35 37.43 37.46 37.52 37.59 37.78 37.72 37.85 37.78 37.71 37.41 37.39 37.38 37.46 37.56 37.63 37.77 37.84 37.93 38.05 38.34 38.34 37.88 37.65 37.49 37.47 37.33 37.05 37.16 37.30 37.18 37.11 37.08 37.13 37.20 37.20 37.06 37.03 36.94 36.89 36.92 36.76 36.64 36.65 36.86 36.66 36.56 36.62 36.49 36.43 36.41 36.35 36.08 35.80 35.51 35.08 34.68 34.18 34.17 33.60 29.45 28.41 30.59 32.96 34.60 35.31 35.50 35.44 35.27 35.33 35.22 34.71 34.72 35.31 34.94 34.20 34.15 35.13 35.52 35.53 35.54 35.43 35.33 35.33 33.63 29.72 29.46 33.04 35.37 35.94 36.18 37.13 37.32 34.20 27.65 19.83 17.57 17.50 17.59 19.53 20.89 22.75 26.16 30.54 32.56 35.86 37.19 37.44 37.64 37.79 37.83 37.42 37.29 37.05 37.12 36.96 37.10 37.18 37.34 37.46 37.45 37.60 37.73 37.79 37.95 37.93 37.86 38.00 38.19 38.61 38.92 39.14 39.23 39.48 39.72 39.94 40.08 40.42 40.29 40.24 40.56 40.91 41.30 41.61 41.66 41.80 42.05 42.30 42.60 42.90 44.29 45.13 43.86 43.97 44.33 44.65 45.69 45.37 45.75 46.27 46.59 46.23 45.30 45.14 45.47 45.74 45.27 45.73 46.39 46.34 45.94 45.89 46.65 47.23 47.13 47.40 48.48 48.91 48.39 47.77 47.81 47.86 47.50 46.99 47.03 47.58 48.22 48.50 48.82 49.17 49.66 49.94 50.20 50.55 50.86 51.15 51.53 51.96 52.32 52.54 52.36 52.56 52.84 52.81 52.62 52.50 52.77 53.05 53.42 53.86 54.12 54.50 54.88 55.21 55.37 55.55 56.02 56.39 56.75 57.07 57.40 57.62 57.69 57.59 57.80 58.06 58.56 59.04 58.99 58.86 58.45 57.94 57.26 56.77 56.36 55.90 55.55 55.26 54.85 54.36 54.71 55.00 54.74 54.52 55.02 55.47 55.65 55.57 55.35 54.79 55.00 55.91 56.24 56.01 56.29 56.84 56.97 57.04 57.25 57.38 57.66 58.03 58.44 58.64 58.85 59.00 59.31 59.65 59.87 60.14 59.97 60.12 60.32 60.71 60.71 60.59 60.80 61.09 61.03 61.13 61.35 61.48 61.74 61.84 62.23 62.29 62.19 62.23 62.17 61.95 62.24 62.49 62.56 62.76 62.58 62.45 62.68 62.94 62.87 62.67 62.12 61.15 62.08 63.08 63.47 63.64 63.39 62.84 63.27 63.37 63.48 63.35 63.69 64.56 65.07 65.51 65.89 65.90 66.23 66.52 66.88 67.14 67.80 68.40 68.70 68.68 68.99 69.51 69.80 70.13 70.63 70.76 70.78 70.98 70.94 71.11 71.50 71.89 71.82 69.67 68.91 70.91 72.77 74.43 75.74 74.49 71.97 72.28 73.65 73.84 73.48 73.25 72.88 72.33 71.98 72.11 72.03 71.86 72.25 72.29 71.82 71.54 71.56 71.44 71.24 71.07 70.99 70.88 71.17 71.57 71.64 71.53 71.16 70.83 70.96 70.75 71.02 71.05 70.70 70.59 70.71 70.78 71.11 71.33 71.14 70.85 71.02 71.24 71.00 70.85 70.64 70.34 70.13
37.50 37.36 37.31 37.24 37.19 37.10 37.28 37.41 37.43 37.52 37.64 37.66 37.82 37.86 37.81 37.71 37.65 37.73 37.61 37.42 37.55 37.63 37.69 37.81 37.83 37.89 38.21 38.51 38.82 38.29 37.81 37.60 37.48 37.31 37.11 37.36 37.40 37.27 37.16 37.23 37.32 37.35 37.26 37.21 37.06 37.14 37.04 36.99 36.79 36.72 36.70 36.78 36.72 36.74 36.69 36.56 36.56 36.53 36.38 36.02 35.91 35.58 35.25 34.96 34.65 34.01 33.02 28.69 28.60 30.50 33.06 34.39 35.21 35.48 35.57 35.59 35.50 35.43 35.19 35.12 35.36 35.67 34.86 34.60 35.21 35.52 35.52 35.70 35.56 35.49 35.46 34.42 32.22 29.66 31.40 33.92 35.26 36.66 38.46 39.40 39.28 35.65 27.07 19.63 17.53 17.55 18.01 18.08 19.33 20.93 22.19 27.48 32.96 36.88 37.49 37.64 38.29 38.29 37.69 37.37 37.39 37.41 37.26 37.44 37.54 37.49 37.54 37.56 37.67 37.77 37.84 37.84 37.80 37.92 38.10 38.25 38.59 38.71 39.00 39.13 39.31 39.59 39.98 39.93 40.11 40.07 40.41 40.75 40.90 41.40 41.67 41.87 42.06 42.34 42.37 42.38 42.80 43.69 44.90 44.14 44.10 44.23 44.72 46.14 45.70 45.81 45.56 45.56 45.19 44.71 44.89 44.98 45.07 44.87 45.26 45.63 45.64 45.47 45.49 46.32 46.68 47.14 47.75 49.91 51.26 50.51 48.38 47.58 47.49 46.98 46.88 47.52 47.83 47.86 48.24 48.50 48.89 49.39 49.59 50.00 50.35 50.41 50.77 51.17 51.42 51.80 51.95 51.86 52.25 52.39 52.28 52.20 52.46 52.91 53.19 53.62 53.93 54.26 54.57 54.86 55.42 55.82 55.84 56.15 56.40 56.71 57.15 57.41 57.77 58.04 58.08 58.12 58.26 58.66 58.92 58.73 58.47 58.14 57.84 57.16 56.73 56.34 55.95 55.73 55.57 54.95 54.55 55.13 55.10 54.93 55.22 55.61 55.86 56.08 55.93 55.69 55.32 55.23 55.83 56.19 56.37 56.34 56.89 57.34 57.38 57.70 57.94 58.20 58.55 59.02 59.07 59.12 59.36 59.61 59.95 60.29 60.44 60.33 60.46 60.74 60.99 61.18 61.19 61.33 61.45 61.54 61.46 61.59 61.64 62.04 62.18 62.42 62.74 62.58 62.49 62.48 62.25 62.60 62.83 62.84 63.06 63.00 62.91 63.05 63.34 63.46 63.15 62.46 61.31 61.96 62.96 63.65 63.85 63.61 63.01 63.12 63.53 63.89 63.63 63.73 64.22 64.74 65.30 65.86 66.12 66.61 67.03 67.40 67.82 68.34 68.95 69.26 69.39 69.86 70.19 70.31 70.65 71.03 71.42 71.54 71.32 71.34 71.65 72.10 72.39 72.22 71.34 70.49 70.84 72.72 73.81 73.11 70.98 70.47 70.99 72.98 73.20 73.02 72.73 72.47 72.31 72.33 72.44 72.46 72.28 72.73 73.00 72.08 71.76 71.83 71.73 71.56 71.47 71.27 71.26 71.52 71.94 72.12 71.96 71.78 71.85 71.82 71.54 71.62 71.55 71.12 71.03 71.22 71.29 71.45 71.76 71.80 71.56 71.39 71.63 71.46 71.37 71.08 70.76 70.59
37.39 37.27 37.32 37.37 37.25 37.17 37.37 37.50 37.52 37.65 37.79 37.83 37.94 37.95 37.73 37.74 37.70 37.73 37.81 37.76 37.62 37.69 37.79 37.86 37.94 37.94 38.26 38.52 38.87 38.57 37.98 37.75 37.59 37.34 37.37 37.61 37.46 37.32 37.32 37.36 37.35 37.40 37.37 37.36 37.24 37.20 37.08 36.94 36.81 36.65 36.83 36.97 36.89 36.84 36.70 36.70 36.63 36.54 36.40 36.14 35.97 35.67 35.34 35.17 34.81 34.20 32.53 28.92 28.28 29.34 32.33 34.07 35.09 35.57 35.61 35.67 35.78 35.66 35.49 35.27 35.29 35.85 35.11 34.91 35.27 35.38 35.59 35.68 35.48 35.38 35.12 34.97 34.91 32.63 30.10 31.95 34.53 36.47 38.01 38.56 37.55 33.57 28.31 25.44 19.81 17.84 18.00 18.00 18.00 18.00 18.63 24.17 29.61 34.93 36.54 37.27 37.54 37.68 38.24 38.46 37.86 37.96 37.52 37.45 37.60 37.57 37.54 37.62 37.68 37.83 37.95 37.93 37.88 37.92 38.13 38.20 38.61 38.76 38.90 38.89 39.03 39.34 39.42 39.65 40.10 40.47 40.78 41.08 41.35 41.70 41.85 41.91 42.18 42.46 42.44 42.52 43.11 43.76 44.62 44.16 44.24 44.14 44.18 43.82 44.87 45.81 44.60 44.43 44.56 44.38 44.52 44.52 44.60 44.76 44.86 44.92 45.11 45.18 44.98 45.41 45.98 46.58 47.75 50.17 51.79 51.57 49.39 47.92 47.22 46.63 46.87 47.71 48.17 48.13 48.52 48.85 48.84 49.10 49.33 49.58 49.83 49.88 50.40 50.68 50.96 51.30 51.47 51.58 51.86 51.93 51.81 52.07 52.55 53.12 53.53 53.94 54.21 54.55 54.80 55.01 55.47 55.89 56.20 56.41 56.71 56.90 57.29 57.67 58.01 58.21 58.33 58.21 58.14 58.23 58.27 58.17 58.00 57.85 57.47 56.91 56.44 56.14 55.82 55.74 55.54 55.15 55.38 55.98 56.28 56.39 56.37 56.45 56.64 56.75 56.42 56.20 56.12 56.02 55.97 56.35 56.93 57.04 57.00 57.56 57.87 58.21 58.35 58.62 58.85 59.27 59.40 59.44 59.79 60.14 60.21 60.51 60.74 60.76 60.92 61.04 61.37 61.46 61.46 61.64 61.69 61.85 61.93 61.98 61.96 62.21 62.58 62.76 62.97 63.08 62.73 62.74 62.56 63.02 63.15 63.27 63.42 63.39 63.53 63.65 63.73 63.93 63.63 62.88 61.58 61.05 62.24 63.36 63.74 63.50 63.08 63.10 63.50 63.90 63.96 63.86 64.45 65.21 65.61 66.29 66.70 67.19 67.81 68.27 68.63 68.83 69.36 69.88 70.11 70.57 71.38 71.42 71.68 72.11 72.00 71.90 71.49 71.73 72.04 72.31 72.72 72.82 73.05 73.34 71.96 70.98 71.52 69.65 69.53 70.06 70.23 71.81 73.11 72.91 72.88 72.61 72.56 72.62 72.70 72.86 72.86 72.82 72.62 72.19 72.15 72.18 72.17 71.91 71.88 71.82 71.82 72.13 72.52 72.47 72.22 72.23 72.43 72.48 72.30 72.16 72.08 71.61 71.51 71.70 71.86 71.99 72.27 72.49 72.38 72.03 71.93 72.04 72.17 71.70 71.29 71.21
37.51 37.55 37.51 37.44 37.44 37.36 37.26 37.46 37.55 37.69 37.85 37.90 38.00 38.00 37.81 37.77 37.79 37.77 37.75 37.83 37.80 37.78 37.87 37.95 37.97 38.26 38.31 38.53 38.97 38.78 38.14 37.85 37.61 37.45 37.55 37.66 37.55 37.43 37.46 37.42 37.40 37.40 37.38 37.38 37.35 37.24 37.03 36.90 36.93 36.76 37.01 37.12 36.97 36.89 36.80 36.88 36.72 36.54 36.43 36.22 36.10 35.90 35.58 35.39 35.04 34.65 32.72 30.94 27.99 26.69 30.25 33.83 35.08 35.49 35.63 35.81 35.88 35.78 35.58 35.33 35.33 35.50 35.06 34.78 35.19 35.42 35.66 35.84 35.58 35.25 35.22 35.66 35.91 34.82 31.23 30.54 34.51 35.84 36.37 36.70 35.69 32.60 31.24 31.97 26.16 20.00 18.00 18.00 18.00 18.00 18.69 22.08 25.14 30.36 33.59 34.57 36.61 37.26 38.14 38.48 37.78 37.87 37.68 37.52 37.58 37.66 37.65 37.65 37.82 37.96 38.01 37.88 37.93 37.88 38.05 38.11 38.63 38.96 38.90 38.79 38.97 39.23 39.37 39.73 40.14 40.69 40.83 41.19 41.58 41.97 42.27 42.31 42.24 42.30 42.54 42.93 42.88 43.36 43.71 44.16 44.51 44.72 43.88 43.29 43.37 44.31 43.58 43.49 44.10 43.73 44.04 44.21 44.15 44.43 44.93 44.69 44.69 44.65 44.21 44.66 45.32 45.97 47.54 49.10 50.17 50.38 49.71 48.41 47.12 46.51 47.05 47.85 48.13 48.13 48.57 48.84 48.87 49.02 49.23 49.47 49.67 49.99 50.19 50.46 50.66 50.91 51.18 51.33 51.47 51.57 51.88 52.26 52.63 53.21 53.74 54.12 54.35 54.71 55.08 55.36 55.64 56.07 56.41 56.59 56.80 56.97 57.23 57.53 57.78 57.88 58.02 58.01 57.96 57.80 57.81 57.60 57.55 57.58 57.43 56.96 56.40 56.26 56.10 56.05 55.74 55.73 56.26 56.80 57.09 57.34 57.28 57.23 57.33 57.16 57.00 56.91 57.27 57.49 56.80 57.49 58.01 57.81 57.36 57.74 58.25 58.58 58.66 58.87 58.90 59.28 59.68 59.89 60.47 60.72 60.54 60.69 61.01 61.17 61.33 61.38 61.68 61.81 61.73 61.95 61.99 62.28 62.40 62.31 62.38 62.37 62.89 63.27 63.42 63.41 63.19 63.13 63.03 63.29 63.64 63.88 63.90 64.02 64.08 64.14 64.11 64.24 63.86 63.16 62.52 62.02 62.08 62.99 63.58 63.84 63.84 64.56 64.25 64.41 64.50 64.54 65.25 65.90 66.26 66.72 67.22 67.59 68.03 68.57 68.98 69.39 70.02 70.62 71.17 71.54 72.37 72.76 72.97 72.91 72.30 72.37 72.14 72.40 72.60 72.65 73.06 73.78 74.75 73.54 70.14 68.88 71.52 71.54 70.19 70.06 70.71 71.69 73.09 72.82 72.89 72.91 72.80 72.78 72.87 73.06 73.40 73.14 72.72 72.56 72.54 72.65 72.65 72.23 72.24 72.27 72.21 72.43 73.11 73.02 72.74 72.89 73.07 73.18 73.05 72.70 72.40 72.13 72.06 72.29 72.40 72.62 72.81 72.94 72.80 72.69 72.53 72.54 72.80 72.38 71.92 71.63
37.66 37.64 37.55 37.48 37.49 37.53 37.29 37.43 37.66 37.81 37.88 38.06 38.04 38.10 37.93 37.85 37.82 37.83 37.82 37.83 37.90 37.96 37.92 38.00 37.97 38.38 38.33 38.38 38.69 38.76 38.22 37.86 37.59 37.44 37.69 37.65 37.61 37.57 37.51 37.46 37.47 37.43 37.38 37.38 37.41 37.35 37.13 36.91 36.97 37.05 37.11 37.19 37.06 36.97 36.94 37.02 36.88 36.72 36.51 36.25 36.18 36.04 35.74 35.54 35.19 34.66 33.42 33.18 30.82 27.00 27.49 30.70 34.19 35.31 35.55 35.82 35.82 35.81 35.68 35.41 35.49 35.41 35.01 34.83 35.25 35.60 35.85 35.95 35.84 35.68 35.78 36.06 36.12 35.72 33.90 30.64 32.80 35.09 35.59 36.33 35.48 34.37 34.97 33.36 31.57 25.35 19.96 18.12 18.00 18.00 18.87 21.00 22.43 23.69 27.48 31.76 34.85 37.38 39.23 39.44 38.04 37.80 37.75 37.49 37.53 37.62 37.61 37.63 38.03 38.15 38.06 37.93 37.85 37.71 37.84 37.92 38.36 38.72 38.71 38.76 38.93 39.07 39.35 39.74 39.90 40.54 40.91 41.26 41.73 42.40 42.73 42.70 42.23 42.06 42.31 42.97 42.59 43.09 43.39 43.52 44.03 44.07 43.86 43.39 42.51 41.96 42.02 43.02 43.02 42.81 43.36 43.72 43.77 44.05 45.22 44.92 44.53 43.77 43.80 44.62 45.34 45.39 46.73 47.53 47.72 47.66 47.18 46.15 46.10 46.36 47.29 47.71 47.91 48.26 48.61 48.59 48.47 48.79 49.12 49.38 49.78 50.07 50.26 50.51 50.58 50.84 50.93 51.07 51.25 51.50 51.81 52.29 52.71 53.13 53.63 54.06 54.38 54.66 55.03 55.40 55.86 56.19 56.39 56.55 56.71 56.70 56.85 57.16 57.45 57.59 57.70 57.59 57.59 57.46 57.34 57.28 57.34 57.30 57.25 57.01 56.63 56.47 56.48 56.53 56.33 56.42 56.64 57.23 57.27 57.44 57.63 57.53 57.41 57.19 57.30 57.32 58.04 58.22 57.64 58.37 58.75 58.48 57.86 57.87 58.27 58.77 59.02 59.08 59.24 59.74 60.17 60.25 60.68 60.90 60.82 61.04 61.17 61.58 61.81 61.69 62.00 62.13 62.11 62.34 62.33 62.68 62.87 62.70 62.89 62.86 63.08 63.61 63.79 63.65 63.47 63.43 63.45 63.55 63.98 64.42 64.34 64.43 64.50 64.68 64.70 66.21 66.06 64.35 63.37 63.31 62.88 62.82 63.06 64.38 64.58 64.85 64.74 65.13 65.29 65.54 65.90 66.27 66.79 67.24 67.66 68.08 68.54 69.13 69.63 70.16 70.77 71.40 72.32 72.66 72.82 73.28 73.50 73.24 72.70 72.80 73.17 73.24 73.21 73.13 73.27 72.86 73.33 71.52 69.68 68.98 71.27 73.26 70.98 71.06 72.70 73.33 73.07 72.87 72.94 73.00 73.15 73.21 73.20 73.33 73.60 73.42 73.20 72.97 72.91 72.99 72.82 72.60 72.42 72.69 72.74 72.85 73.60 73.45 73.53 73.61 73.67 73.60 73.58 72.84 73.12 73.11 72.92 72.86 72.83 73.16 73.34 73.54 73.65 73.39 73.09 73.15 73.44 72.90 72.46 72.10
37.74 37.78 37.67 37.58 37.43 37.58 37.50 37.59 37.79 37.99 38.12 38.11 38.12 38.10 37.95 37.91 37.89 37.85 37.82 38.01 38.00 37.99 38.01 37.96 38.06 38.19 38.18 38.26 38.33 38.54 38.41 37.99 37.77 37.71 37.80 37.72 37.70 37.64 37.53 37.51 37.54 37.50 37.49 37.50 37.48 37.43 37.20 37.06 36.96 36.93 37.12 37.33 37.21 37.17 37.11 37.07 36.99 36.73 36.48 36.45 36.30 36.16 35.89 35.54 35.23 34.67 33.95 33.63 32.35 30.02 29.79 28.46 31.55 34.97 35.45 35.68 35.74 35.78 35.72 35.69 35.63 35.59 35.47 35.02 35.22 35.63 35.92 36.06 36.05 36.10 36.08 36.06 36.00 35.77 35.13 32.97 31.22 32.37 34.10 35.72 36.19 36.25 36.22 34.75 34.17 31.66 27.38 21.37 18.15 18.00 18.05 18.82 20.78 21.51 23.68 28.36 31.03 36.17 38.51 39.87 39.43 38.12 37.68 37.48 37.62 37.68 37.64 37.60 38.11 38.17 38.06 37.97 37.82 37.93 37.95 38.04 38.32 38.50 38.57 38.73 38.76 38.89 39.07 39.54 39.67 40.27 40.68 41.00 41.67 42.48 42.82 42.59 42.17 42.22 42.28 42.50 42.24 42.96 42.74 42.81 43.28 43.52 43.57 43.04 41.48 41.09 42.55 44.01 42.49 42.73 43.24 43.24 43.51 43.75 44.26 44.37 43.88 43.53 44.91 45.27 44.70 45.88 46.64 46.11 45.93 46.41 45.36 44.96 45.27 45.93 46.84 47.56 48.08 48.34 47.55 47.30 48.07 48.68 49.14 49.57 49.89 50.20 50.44 50.50 50.68 50.89 51.01 51.12 51.40 51.76 52.04 52.22 52.59 53.07 53.46 53.88 54.17 54.38 54.55 54.94 55.53 55.60 55.80 56.11 56.18 56.13 56.43 56.78 57.11 57.26 57.33 57.24 57.16 57.10 57.02 56.97 57.12 57.07 57.16 57.06 56.96 56.68 56.74 56.86 56.85 56.38 56.04 56.87 56.80 56.98 57.29 57.34 57.32 57.09 57.00 57.33 58.02 58.24 58.08 58.59 58.94 58.66 58.18 57.95 58.30 58.85 59.33 59.40 59.67 60.24 60.58 60.71 60.94 61.16 61.11 61.45 61.62 61.88 62.02 62.02 62.26 62.46 62.49 62.66 62.67 62.89 63.17 63.12 63.21 63.30 63.36 63.69 63.97 63.88 63.82 63.80 64.10 63.95 64.06 64.46 64.58 64.84 65.16 65.16 64.94 66.36 66.48 64.58 64.33 64.53 64.30 64.13 63.49 64.99 65.13 65.23 65.40 65.82 66.17 66.50 66.78 67.00 67.51 68.05 68.42 68.82 69.37 69.92 70.55 71.20 71.88 72.48 73.08 73.53 73.86 73.95 73.88 73.64 73.35 73.41 73.70 74.01 73.87 73.77 73.06 71.68 72.04 70.96 69.58 69.44 70.40 71.29 71.46 72.06 73.18 73.88 73.55 73.22 73.11 73.26 73.36 73.57 73.59 73.66 73.67 73.67 73.73 73.42 73.36 73.37 73.21 73.01 72.87 73.26 73.51 73.69 74.03 73.86 74.22 74.34 74.28 74.23 73.96 73.61 73.89 73.98 74.12 73.81 73.56 73.78 74.20 74.29 74.28 74.04 73.88 73.83 73.98 73.46 73.12 72.76
37.91 37.90 37.71 37.65 37.57 37.67 37.76 37.73 37.91 38.04 38.29 38.28 38.29 38.22 38.06 37.98 38.01 38.01 37.90 38.18 38.22 38.00 37.98 38.08 38.21 38.17 38.30 38.58 38.23 38.34 38.26 37.96 37.72 37.85 37.95 37.86 37.81 37.77 37.64 37.62 37.65 37.68 37.64 37.58 37.54 37.47 37.39 37.30 37.09 36.93 37.14 37.36 37.19 37.18 37.23 37.13 36.97 36.72 36.64 36.58 36.36 36.12 35.89 35.48 35.17 34.65 33.65 32.75 31.44 31.04 31.81 29.69 29.08 33.76 34.97 35.47 35.69 35.69 35.84 35.92 36.05 35.88 35.59 35.33 35.50 35.80 35.98 36.04 36.10 36.18 36.24 36.15 35.90 35.76 35.55 35.26 34.08 30.85 31.90 34.43 36.19 36.54 36.51 35.84 35.80 34.51 31.81 27.24 19.30 18.00 18.00 18.08 19.42 20.74 21.30 20.81 21.56 28.03 34.03 37.94 40.85 39.35 37.95 37.89 37.89 37.78 37.73 37.74 37.99 38.00 37.99 38.00 38.11 38.34 38.35 38.39 38.55 38.74 38.77 38.79 38.81 38.98 38.95 39.32 39.60 40.05 40.37 40.69 41.30 41.94 42.16 42.24 42.53 43.11 42.30 41.84 41.51 42.29 42.56 42.81 43.30 43.01 42.88 42.75 40.52 41.04 42.13 43.21 42.47 42.70 43.09 43.17 43.39 43.65 43.92 43.28 42.85 43.68 44.95 45.17 45.04 45.62 45.68 44.77 44.78 45.83 44.44 44.23 44.62 45.82 46.69 46.92 47.40 45.78 45.22 47.85 49.33 49.45 49.51 49.71 50.01 50.20 50.41 50.47 50.63 50.84 50.99 51.12 51.38 51.68 52.06 52.25 52.55 52.90 53.15 53.51 53.71 53.75 53.92 54.34 54.75 54.85 55.20 55.52 55.62 55.79 56.06 56.26 56.56 56.77 56.89 56.79 56.85 56.73 56.79 56.81 57.02 57.05 57.12 57.06 57.10 56.99 56.86 57.01 56.77 56.08 55.91 56.17 56.15 56.76 57.41 57.62 57.76 57.83 57.85 57.83 58.14 58.34 58.47 58.68 59.03 58.89 58.51 58.27 58.78 59.36 59.56 59.68 59.88 60.22 60.72 60.93 61.18 61.53 61.59 61.59 61.92 62.23 62.30 62.26 62.64 62.72 62.93 63.04 63.05 63.33 63.43 63.46 63.44 63.53 63.59 63.97 64.36 64.42 64.31 64.11 64.24 64.37 64.56 64.63 64.84 65.21 65.57 65.65 65.48 66.49 66.98 65.08 64.96 65.54 65.52 65.37 63.89 64.88 65.62 66.06 66.32 66.62 66.95 67.30 67.75 68.10 68.52 69.04 69.73 70.09 70.45 70.71 71.35 72.26 72.95 73.53 74.12 74.15 74.55 74.84 74.65 74.23 73.83 73.90 74.09 74.49 74.53 74.12 72.01 70.95 71.37 71.48 70.26 71.13 71.80 72.16 72.60 73.20 73.57 74.07 73.85 73.37 73.32 73.46 73.68 73.82 73.81 73.79 73.79 73.96 74.12 74.08 73.88 73.75 73.77 73.59 73.50 73.69 74.10 74.32 74.62 74.80 74.92 75.12 74.97 74.73 74.40 74.39 74.56 74.67 74.68 74.63 74.56 74.77 75.24 75.30 75.44 75.29 74.91 74.50 74.50 74.21 74.01 73.66
38.05 37.99 37.71 37.72 37.68 37.70 37.77 37.83 37.92 37.97 38.26 38.34 38.32 38.08 38.05 38.05 38.12 38.12 38.10 38.21 38.34 38.21 38.17 38.12 38.12 38.26 38.64 39.51 38.48 38.24 38.02 37.76 37.71 37.91 38.00 38.14 38.00 37.94 37.73 37.72 37.78 37.78 37.75 37.62 37.56 37.55 37.48 37.36 37.17 37.07 37.08 37.24 37.22 37.27 37.36 37.32 37.11 36.81 36.73 36.57 36.43 36.07 35.43 34.80 34.26 33.11 32.30 31.37 30.90 32.52 33.56 31.76 28.78 32.66 34.76 35.31 35.60 35.80 35.88 35.94 35.94 35.88 35.71 35.60 35.93 36.23 36.15 36.09 36.10 36.30 36.36 36.26 36.00 35.92 35.82 35.76 35.18 31.32 30.10 32.29 35.89 36.80 36.86 36.80 36.29 35.28 34.79 31.36 20.94 18.00 18.05 18.15 18.30 19.87 19.34 18.52 18.54 19.33 21.50 30.93 37.87 37.65 37.38 38.09 37.94 37.92 37.77 37.66 37.90 38.06 38.06 38.09 38.25 38.40 38.36 38.51 38.71 38.82 38.88 38.97 39.19 39.27 39.10 39.30 39.68 39.93 40.10 40.50 40.82 41.40 41.43 41.54 42.26 42.71 42.47 41.79 40.73 41.38 41.67 42.00 42.13 41.71 41.67 42.13 40.77 41.39 42.12 42.57 42.78 42.89 43.20 43.06 43.31 43.46 43.05 42.37 42.84 43.91 44.65 44.81 45.43 45.61 45.08 44.22 43.77 44.96 44.62 44.20 45.24 46.17 45.45 45.79 46.27 45.31 46.24 48.46 49.78 50.20 50.02 49.96 50.14 50.07 50.19 50.33 50.53 50.65 50.68 50.92 51.13 51.58 51.85 51.91 52.12 52.41 52.72 52.98 53.10 53.27 53.53 53.80 54.13 54.41 54.69 54.87 55.08 55.45 55.61 55.88 56.16 56.44 56.42 56.38 56.33 56.43 56.59 56.69 56.85 56.99 57.07 57.08 57.17 57.06 56.97 57.13 56.84 56.27 56.51 56.39 56.77 58.12 58.50 58.31 58.05 58.10 58.31 58.47 58.47 58.72 58.94 58.92 59.17 59.42 59.06 58.98 59.14 59.43 59.71 59.89 60.08 60.43 60.74 61.09 61.45 61.68 61.83 62.05 62.17 62.52 62.73 62.61 63.10 63.35 63.44 63.43 63.51 63.77 63.80 64.08 64.00 63.60 63.61 64.14 64.50 64.77 64.68 64.46 64.58 64.71 64.91 65.06 65.11 65.44 66.09 66.21 66.11 66.67 67.11 65.79 65.71 66.09 66.17 65.97 64.65 65.85 66.45 66.88 67.38 67.85 67.96 68.34 68.91 69.42 69.72 70.15 70.31 70.97 71.85 71.98 72.18 72.75 73.57 74.16 74.75 74.85 75.07 75.68 75.53 75.04 74.55 74.55 74.64 74.94 75.22 74.81 72.13 70.84 70.99 72.24 71.16 72.63 73.74 74.10 74.18 74.07 74.12 74.02 74.08 73.71 73.61 73.79 73.93 73.99 74.18 74.15 74.14 74.41 74.55 74.60 74.34 74.22 74.34 74.32 74.56 74.62 74.70 75.25 75.41 75.72 75.66 75.72 75.80 75.29 74.79 74.85 75.21 75.42 75.34 75.42 75.38 75.54 76.15 76.47 76.98 76.62 75.94 75.44 75.10 75.35 75.27 74.78
38.22 38.08 37.97 37.80 37.85 37.97 37.80 37.77 37.89 38.12 38.26 38.38 38.39 38.16 38.09 38.17 38.18 38.20 38.20 38.27 38.38 38.37 38.29 38.24 38.24 38.23 38.49 38.77 38.53 38.28 38.05 37.96 37.98 38.12 38.36 38.41 38.32 38.04 37.77 37.81 37.84 37.78 37.75 37.67 37.54 37.58 37.43 37.36 37.35 37.31 37.17 37.30 37.38 37.41 37.51 37.38 37.18 36.90 36.70 36.53 36.32 35.41 34.19 33.62 33.75 33.83 33.93 33.01 32.33 33.17 34.38 32.88 28.18 31.05 33.54 34.74 35.36 35.44 35.63 35.75 35.86 35.88 35.90 35.84 36.01 36.18 36.12 36.20 36.27 36.55 36.56 36.47 36.40 36.27 36.27 36.12 35.77 33.58 30.98 31.76 35.14 36.56 36.87 37.02 36.61 36.09 36.17 33.82 27.01 19.84 19.87 21.40 18.66 18.89 18.70 18.50 18.50 18.51 18.64 22.46 29.12 30.35 33.88 36.99 37.78 37.85 37.80 37.84 38.05 38.10 38.02 38.12 38.31 38.52 38.49 38.51 38.67 38.72 38.72 38.92 39.16 39.23 39.23 39.35 39.77 39.89 40.02 40.31 40.58 40.59 40.70 40.90 41.23 41.30 41.65 41.17 40.14 39.78 39.81 40.97 40.17 39.97 40.83 42.88 42.76 42.24 43.16 43.46 42.96 42.98 43.38 43.32 43.49 42.99 41.95 42.19 43.10 43.94 44.44 44.29 45.15 44.87 44.74 44.20 42.79 43.37 45.10 46.07 46.49 45.82 45.19 45.03 45.32 45.60 45.64 47.24 49.28 50.30 50.48 50.25 49.96 49.62 49.79 50.03 50.14 50.25 50.37 50.77 50.92 51.20 51.45 51.84 52.20 52.38 52.59 52.80 53.02 53.35 53.78 54.23 54.28 54.55 54.90 55.34 55.49 55.58 55.53 55.65 55.73 56.03 56.18 56.27 56.51 56.65 56.77 56.83 56.86 56.89 57.04 57.08 57.12 57.21 57.53 57.72 57.57 57.59 57.99 57.99 58.59 57.25 56.62 56.62 56.81 57.57 58.10 58.44 58.51 58.89 59.36 59.59 59.72 59.72 59.23 59.24 59.45 59.50 59.73 60.06 60.30 60.68 60.92 61.25 61.66 61.95 62.13 62.43 62.59 62.82 63.03 63.21 63.48 63.87 64.06 63.96 63.96 64.12 64.38 64.52 64.44 64.25 64.18 64.28 64.72 64.91 64.92 65.01 65.02 65.17 65.42 65.71 65.67 66.10 66.70 66.67 66.56 66.86 67.56 66.92 66.48 66.15 66.20 65.59 65.09 65.75 66.83 67.67 68.52 69.16 69.25 69.48 70.02 70.39 70.50 70.99 70.60 70.60 71.06 71.31 71.25 71.85 73.88 75.03 75.59 75.75 75.70 76.39 76.37 75.88 75.24 75.28 75.27 75.54 76.15 75.14 72.03 70.91 71.11 72.45 71.97 72.49 73.61 74.03 73.94 73.80 73.98 74.07 74.11 73.88 73.98 74.22 74.27 74.18 74.43 74.68 74.88 74.93 74.92 74.90 74.98 74.73 74.83 75.34 76.10 75.77 75.45 75.91 75.77 76.13 76.30 76.30 76.47 75.88 75.26 75.35 76.00 76.29 76.29 76.43 76.53 76.79 77.07 77.39 77.78 77.63 77.06 76.42 76.08 76.26 75.99 75.81
38.26 38.13 37.99 37.80 38.08 37.94 37.82 37.98 38.09 38.26 38.42 38.42 38.45 38.29 38.30 38.29 38.24 38.29 38.36 38.42 38.42 38.56 38.44 38.38 38.42 38.34 38.41 38.70 38.96 38.75 38.16 38.14 38.34 38.36 38.45 38.54 38.58 38.32 38.04 38.09 38.01 37.98 37.88 37.75 37.65 37.60 37.49 37.48 37.45 37.46 37.22 37.35 37.46 37.56 37.58 37.39 37.22 36.82 36.54 36.46 35.96 34.21 33.98 35.25 35.40 35.11 34.63 34.43 33.41 33.30 34.75 33.46 28.79 29.19 33.36 34.49 35.19 34.79 35.35 35.75 35.87 35.93 35.97 35.92 35.91 36.00 36.21 36.41 36.41 36.58 36.41 36.49 36.54 36.47 36.44 36.34 36.49 35.56 33.06 31.84 33.71 35.74 36.90 36.82 36.48 35.42 36.02 35.56 33.63 26.64 26.26 27.00 22.18 18.66 18.84 18.70 18.50 18.50 18.50 18.64 20.01 21.24 26.87 34.94 37.81 38.03 37.89 37.97 38.17 38.23 38.25 38.24 38.30 38.39 38.42 38.52 38.58 38.61 38.67 38.88 38.88 39.14 39.30 39.42 39.76 39.91 39.91 40.13 40.23 40.59 40.58 40.37 40.52 40.36 40.19 39.98 39.30 38.56 38.50 39.55 40.20 40.63 41.40 42.83 42.88 42.55 43.26 43.78 43.30 43.31 43.47 43.05 42.58 41.73 40.94 41.89 42.32 43.04 44.60 45.20 44.66 43.89 44.00 43.53 43.47 44.48 44.95 44.79 44.89 45.12 45.10 44.99 45.33 45.44 45.18 45.99 47.98 49.26 49.95 50.07 49.72 48.45 47.39 48.61 49.30 50.00 50.36 50.74 51.08 51.42 51.73 52.16 52.42 52.54 52.83 53.04 53.33 53.57 54.02 54.42 54.60 54.84 55.24 55.91 56.15 55.95 55.88 55.75 55.85 56.05 56.12 56.30 56.73 57.08 57.06 56.95 57.06 57.05 57.13 57.16 57.25 57.61 58.09 58.52 59.04 59.57 59.72 59.44 59.52 56.74 56.51 56.69 57.27 57.91 58.22 58.65 58.79 58.83 59.25 59.73 59.93 59.89 59.45 59.35 59.59 59.81 59.97 60.21 60.43 60.78 61.01 61.28 61.71 62.21 62.47 62.78 63.18 63.29 63.40 63.44 64.02 64.55 64.50 64.23 64.52 64.69 64.83 64.96 64.93 64.81 64.81 64.51 64.85 65.07 65.25 65.43 65.39 65.78 66.10 66.66 66.81 67.21 67.36 67.34 67.50 67.69 68.45 68.14 67.49 67.27 67.44 66.60 66.27 65.32 65.92 68.01 69.07 69.88 69.98 70.27 71.00 70.94 69.92 69.83 69.51 69.46 69.69 69.93 70.03 70.40 71.57 73.06 73.80 74.07 74.48 75.21 76.57 76.49 75.97 76.23 76.42 76.74 76.91 75.22 72.10 71.30 71.99 72.80 72.94 72.33 73.03 73.63 73.78 73.81 74.10 74.14 74.24 74.12 74.18 74.33 74.35 74.52 74.83 75.01 75.15 75.16 75.26 75.28 75.11 75.16 75.28 75.84 77.52 77.60 76.57 76.34 76.30 76.60 76.89 76.87 76.87 76.48 75.98 76.19 77.10 77.71 77.94 77.87 77.60 77.80 78.00 78.15 78.54 78.52 78.06 77.25 77.07 77.19 76.67 76.30
38.31 38.21 37.83 37.83 38.28 38.12 38.06 38.17 38.13 38.19 38.52 38.61 38.47 38.40 38.33 38.28 38.29 38.38 38.50 38.58 38.57 38.70 38.63 38.59 38.63 38.49 38.48 38.53 38.70 38.87 38.51 38.24 38.34 38.41 38.51 38.56 38.52 38.45 38.30 38.15 37.98 37.95 37.98 37.90 37.79 37.65 37.58 37.54 37.53 37.52 37.39 37.51 37.63 37.60 37.53 37.54 37.50 36.87 36.45 36.21 35.43 34.32 35.74 36.08 35.90 35.39 35.08 35.05 33.73 33.80 35.27 34.00 31.70 28.62 31.64 34.80 34.48 34.02 35.45 35.84 35.98 36.03 36.13 36.03 36.05 36.15 36.23 36.48 36.54 36.47 36.48 36.85 36.88 36.65 36.59 36.53 36.69 36.14 35.04 32.68 34.10 35.24 37.05 36.75 35.73 34.42 34.50 34.57 31.91 29.41 31.14 31.02 25.77 20.04 18.82 18.55 18.50 18.50 18.50 18.62 18.87 18.84 22.60 33.00 37.70 38.37 38.44 38.12 38.32 38.41 38.37 38.44 38.57 38.34 38.38 38.63 38.63 38.73 38.80 38.84 38.73 39.02 39.13 39.21 39.42 39.84 39.92 39.96 40.39 41.43 41.52 39.52 39.72 38.98 39.02 38.49 38.37 38.13 38.16 39.63 41.12 41.61 42.30 42.77 42.78 42.51 42.66 42.71 43.08 43.15 43.18 42.08 41.24 40.23 39.92 40.37 40.59 41.95 43.48 45.77 46.06 43.39 43.09 42.27 43.29 44.96 44.96 44.04 44.14 44.30 44.44 44.60 45.41 46.11 45.50 45.48 46.42 47.88 48.72 49.06 49.00 47.93 48.05 49.36 50.05 50.47 50.78 51.06 51.49 51.70 51.74 52.10 52.31 52.54 52.83 53.06 53.49 53.91 54.29 54.70 54.90 54.94 55.43 55.90 56.22 56.28 56.20 55.93 55.90 55.98 56.14 56.30 56.70 56.83 57.02 57.05 57.29 57.30 57.37 57.53 57.58 57.94 58.54 59.01 59.51 60.18 60.02 59.73 59.81 57.26 56.68 57.07 57.68 57.90 58.41 58.78 58.89 58.77 59.01 59.49 59.65 59.72 59.65 59.59 59.66 59.83 59.97 60.13 60.38 60.88 61.22 61.54 61.84 62.18 62.75 63.01 63.41 63.62 63.85 64.01 64.57 64.90 65.10 65.17 65.06 64.98 65.56 65.89 65.76 65.15 65.27 65.03 64.94 65.22 65.55 65.85 66.03 66.40 66.94 67.39 67.83 68.15 68.20 68.05 68.45 68.77 69.03 68.89 68.61 68.96 69.36 68.39 67.49 65.76 65.19 66.93 68.68 68.94 68.75 68.99 69.28 69.15 68.78 68.87 68.96 68.89 69.09 69.48 69.69 69.91 70.38 71.01 71.59 71.92 72.31 72.92 74.07 74.57 76.21 77.21 77.26 77.21 76.63 74.88 73.03 72.39 72.40 73.08 73.51 73.28 73.42 73.61 73.90 73.87 74.22 74.32 74.60 74.63 74.66 74.68 74.73 74.75 75.11 75.32 75.43 75.46 75.72 75.68 75.41 75.75 76.05 76.24 77.18 77.99 77.43 77.20 76.92 77.10 77.48 77.24 77.35 77.32 77.02 77.34 78.18 78.62 79.03 78.77 78.41 78.68 79.03 79.18 79.41 79.52 79.13 78.28 78.42 78.64 77.47 76.46
38.43 38.18 38.27 38.28 38.33 38.17 38.02 38.08 38.21 38.41 38.52 38.66 38.65 38.57 38.43 38.47 38.50 38.63 38.70 38.62 38.83 38.82 38.95 38.86 38.79 38.69 38.62 38.62 38.86 38.87 38.91 38.77 38.48 38.49 38.53 38.56 38.45 38.53 38.40 38.21 38.02 38.00 38.11 38.03 37.94 37.80 37.69 37.65 37.68 37.65 37.65 37.54 37.69 37.67 37.55 37.52 37.45 36.98 36.57 35.69 34.48 35.68 36.50 36.26 35.92 35.51 35.26 35.28 34.45 34.55 35.38 35.08 33.60 29.50 28.12 32.43 34.04 35.15 35.58 35.90 36.08 36.07 36.12 36.13 36.29 36.16 36.18 36.53 36.62 36.59 36.75 37.05 37.20 36.90 36.68 36.70 36.56 36.50 35.76 33.64 34.59 35.06 36.92 36.80 36.44 36.04 35.28 32.66 32.22 31.82 33.47 34.79 31.61 23.61 19.28 18.50 18.50 18.57 18.80 19.36 19.44 19.85 22.30 29.03 36.34 38.10 37.87 38.02 38.50 39.34 39.42 39.24 38.87 38.46 38.59 38.81 38.80 38.77 38.81 38.85 38.75 38.86 39.10 38.99 39.36 39.65 40.57 41.90 40.56 39.90 41.11 38.54 36.60 36.87 38.54 38.16 38.20 38.13 38.35 40.44 41.93 42.70 42.75 42.65 42.49 42.22 42.24 42.54 42.92 42.64 42.54 42.12 41.32 39.53 39.78 39.80 40.98 41.44 42.04 43.53 44.01 42.33 41.92 42.22 43.57 44.43 44.64 44.74 45.13 44.44 44.19 44.74 45.65 46.73 46.69 45.50 45.77 46.44 47.13 47.52 47.65 47.69 49.37 50.13 50.37 50.68 50.83 50.84 51.21 51.49 51.55 52.06 52.21 52.53 53.14 53.61 53.94 54.17 54.30 54.65 54.69 54.63 55.41 56.04 56.41 56.82 56.70 56.07 55.82 55.95 56.13 56.45 56.82 57.12 57.51 57.81 58.00 57.98 58.11 58.07 57.93 58.10 58.31 58.44 58.50 58.70 58.93 57.83 57.03 57.15 56.97 57.07 57.25 57.86 58.55 58.68 59.01 58.97 59.10 59.52 59.60 59.79 59.90 59.97 59.95 60.01 60.22 60.35 60.61 60.94 61.36 61.79 62.16 62.43 63.04 63.35 63.59 63.95 64.45 64.64 64.70 65.54 65.80 65.80 65.65 65.51 65.93 66.04 66.11 65.62 65.77 65.73 65.47 65.46 65.84 66.26 66.54 66.93 67.52 67.87 68.67 69.21 69.50 68.89 68.87 69.32 69.40 69.49 69.66 70.02 69.78 68.08 67.09 66.63 66.55 66.48 68.44 67.55 67.67 67.99 68.14 68.12 68.20 68.43 68.56 68.51 68.68 69.19 69.43 69.76 70.09 70.45 70.93 71.20 71.65 72.08 72.44 72.94 74.03 74.81 74.47 74.45 74.22 73.58 73.22 73.14 73.08 73.11 73.37 73.55 73.65 73.86 73.91 73.96 74.24 74.49 74.74 75.18 75.35 75.47 75.82 76.08 76.09 75.96 75.88 75.96 76.15 76.15 76.03 76.05 76.42 76.63 77.03 78.46 78.45 78.23 77.84 78.12 78.22 77.88 78.26 78.44 78.00 77.95 78.53 79.29 79.80 79.66 79.48 79.54 79.84 80.03 80.34 80.80 80.34 79.94 80.06 79.64 77.95 76.98
38.54 38.39 38.45 38.55 38.31 38.21 38.18 38.31 38.28 38.47 38.61 38.78 38.84 38.67 38.63 38.69 38.60 38.72 38.76 38.87 38.90 38.91 39.10 39.07 38.87 38.75 38.64 38.68 38.85 38.80 38.85 38.88 38.82 38.64 38.53 38.48 38.36 38.51 38.62 38.39 38.28 38.24 38.13 38.15 37.95 37.86 37.80 37.76 37.61 37.61 37.67 37.59 37.71 37.63 37.46 37.39 37.36 37.08 36.46 35.03 34.71 36.09 36.67 36.52 36.09 35.76 35.55 35.43 35.08 35.24 35.62 35.36 34.36 31.59 27.69 31.09 34.71 35.27 35.89 36.05 36.27 36.20 36.19 36.35 36.50 36.38 36.41 36.52 36.74 36.76 36.80 37.02 36.98 36.79 36.72 36.68 36.46 36.24 35.15 34.77 35.13 35.03 36.68 36.89 36.71 36.09 34.91 33.28 34.86 33.51 33.77 37.25 35.84 30.86 25.53 19.88 18.68 18.96 19.49 19.51 19.10 19.56 21.11 23.62 31.97 36.15 37.79 38.28 38.92 39.59 39.79 39.76 39.24 38.67 38.65 38.90 38.88 38.84 38.88 39.04 38.98 38.95 39.29 39.26 39.28 39.58 40.31 42.62 41.59 38.59 38.96 36.05 33.96 36.15 38.93 38.33 38.87 39.34 39.42 40.59 42.29 42.18 42.11 41.33 41.41 41.95 41.85 41.90 42.08 41.95 41.61 40.86 40.44 39.92 40.75 40.99 40.93 41.19 41.28 41.95 42.27 41.65 42.36 43.94 44.82 44.57 45.36 46.34 46.38 45.57 45.13 45.46 46.16 47.22 47.96 46.49 45.75 46.15 46.73 46.65 46.78 47.64 48.92 49.22 49.58 50.42 50.88 50.92 51.23 51.86 52.16 52.29 52.42 52.79 53.21 53.80 53.98 53.95 53.94 54.17 54.13 54.71 56.04 56.32 56.13 56.45 56.24 55.54 55.65 56.22 56.48 57.01 57.38 57.96 57.87 57.94 57.89 57.68 57.56 57.39 57.22 57.30 57.30 57.44 57.82 58.18 56.50 56.18 56.88 57.08 57.04 57.19 57.46 58.33 58.57 58.79 59.07 59.21 59.42 59.70 59.71 59.90 60.06 60.22 60.13 60.34 60.61 60.57 60.67 60.96 61.64 61.98 62.35 62.75 63.30 63.78 64.09 64.46 64.76 64.72 65.58 66.00 66.27 66.39 66.56 66.36 66.31 66.43 66.55 66.43 66.54 66.51 66.33 66.26 66.50 66.97 67.46 67.76 67.92 68.71 70.25 70.77 70.46 69.56 69.34 69.61 69.91 70.17 70.73 70.70 69.46 67.61 66.83 66.55 66.24 66.14 67.56 67.09 67.40 67.64 67.80 67.87 67.90 68.20 68.43 68.34 68.36 68.60 68.97 69.40 69.78 70.16 70.16 70.92 71.86 72.16 72.37 72.35 71.98 72.24 72.37 72.64 73.08 73.12 73.04 73.03 73.16 73.43 73.55 73.72 73.86 74.13 74.25 74.43 74.47 74.58 74.87 75.09 75.02 75.00 75.47 75.84 75.94 76.32 76.50 76.56 76.81 76.71 76.56 76.67 76.86 77.41 77.66 78.97 79.82 79.02 79.05 79.35 78.93 78.71 79.21 79.33 78.91 78.81 79.07 79.81 80.50 80.55 80.43 80.46 80.71 80.87 81.02 81.58 81.36 81.31 81.22 80.16 78.37 78.56
38.59 38.57 38.56 38.52 38.41 38.37 38.37 38.45 38.54 38.59 38.70 38.91 39.01 38.93 38.73 38.75 38.63 38.78 38.90 38.95 39.10 39.16 39.18 39.15 39.03 38.81 38.82 38.89 38.95 38.94 38.94 38.89 38.91 38.97 38.71 38.48 38.39 38.41 38.61 38.67 38.51 38.39 38.39 38.24 38.12 38.07 37.88 37.75 37.75 37.73 37.79 37.82 37.83 37.78 37.56 37.49 37.55 37.17 36.32 35.10 36.16 36.76 36.79 36.69 36.38 36.02 35.62 35.46 35.37 35.37 35.65 35.26 33.93 32.36 29.44 28.58 32.69 34.54 35.35 36.09 36.47 36.36 36.32 36.43 36.59 36.51 36.57 36.55 36.87 36.95 36.89 36.92 36.84 36.86 36.76 36.67 36.34 35.07 35.37 36.02 35.90 35.37 36.54 36.75 36.01 35.00 35.11 35.70 36.06 33.84 32.40 37.25 37.04 36.40 35.64 27.64 21.18 19.15 19.08 19.19 21.13 22.89 23.54 25.56 31.55 36.51 38.48 39.15 39.07 39.24 39.48 39.93 39.45 38.73 38.75 38.84 38.83 38.85 38.92 39.13 39.36 39.53 40.10 39.81 38.96 38.71 39.31 39.15 37.83 35.96 35.44 33.96 33.70 36.13 37.89 38.25 39.49 40.06 40.61 41.03 41.32 41.03 41.31 40.31 40.54 41.11 41.04 41.54 42.10 41.86 41.01 40.18 39.71 40.34 41.72 42.15 41.49 41.49 42.64 43.21 43.54 43.56 43.38 43.70 44.68 45.77 46.66 46.84 46.98 47.09 46.91 46.85 47.23 47.54 47.88 47.24 46.60 46.99 48.03 48.04 47.20 46.83 47.31 47.87 48.39 49.53 50.08 50.62 51.22 52.08 52.76 52.33 52.46 52.52 52.61 52.68 52.84 53.02 53.03 53.16 53.16 54.04 54.82 54.95 54.89 54.98 54.88 54.45 54.87 55.40 55.30 55.58 56.10 56.76 56.69 56.55 56.60 56.62 56.80 56.81 56.86 56.82 57.02 57.33 57.58 58.65 57.81 57.20 57.28 57.39 57.49 57.49 58.06 58.49 58.75 58.97 59.22 59.35 59.55 59.79 59.82 60.03 60.20 60.41 60.46 60.77 61.08 61.14 61.09 61.25 61.82 62.08 62.45 63.00 63.58 64.14 64.70 64.78 64.66 65.51 66.17 66.61 67.00 66.97 67.21 67.52 67.39 67.45 67.13 67.44 67.63 67.04 67.11 67.43 67.42 67.99 68.52 68.62 68.60 69.25 70.71 71.15 70.53 70.14 70.24 70.39 70.50 70.98 71.43 71.10 69.94 67.53 67.05 66.77 66.44 66.28 66.49 67.02 67.26 67.46 67.62 67.73 67.75 67.97 68.11 68.06 68.21 68.31 68.63 69.03 69.49 69.76 69.75 70.61 71.97 72.21 71.91 71.59 71.36 71.55 71.70 71.94 72.39 72.72 72.78 72.64 72.71 72.97 73.29 73.69 73.92 74.19 74.68 74.74 74.94 75.13 75.28 75.54 75.42 75.22 75.52 76.19 76.27 76.42 76.51 76.76 76.80 76.76 76.83 77.32 77.71 77.85 78.35 79.56 80.58 80.17 80.68 80.83 80.00 79.55 79.81 79.90 80.01 80.27 79.92 80.31 80.84 80.86 81.01 81.38 81.81 81.85 82.08 82.38 82.24 82.30 81.82 80.34 80.00 80.07
38.66 38.81 38.76 38.62 38.37 38.36 38.57 38.61 38.75 38.96 39.09 39.04 39.08 39.21 38.98 38.97 39.26 39.23 39.13 39.04 39.20 39.18 39.19 39.24 39.07 38.96 38.94 38.98 39.02 38.96 38.97 38.89 38.79 38.76 38.89 38.86 38.46 38.36 38.42 38.69 38.64 38.66 38.58 38.36 38.21 38.09 37.85 37.95 38.02 37.95 37.92 37.92 37.97 37.90 37.75 37.60 37.42 37.10 36.75 36.70 36.86 37.05 37.30 37.14 36.79 36.30 35.94 35.81 35.60 35.59 35.80 35.54 34.83 33.51 30.51 29.04 33.81 35.76 35.94 36.22 36.37 36.32 36.43 36.55 36.60 36.68 36.70 36.66 36.86 36.95 36.96 36.92 36.93 37.05 36.89 36.87 36.03 35.07 36.34 36.36 35.80 35.74 36.60 36.30 34.89 36.08 37.13 37.19 37.26 34.64 32.43 34.20 36.46 37.92 38.21 33.04 23.19 19.08 19.03 19.94 23.02 24.02 24.44 28.13 33.13 35.63 37.89 39.43 38.84 38.85 40.32 39.85 39.87 39.07 38.87 38.85 38.77 38.73 38.67 38.76 38.97 40.54 41.35 39.96 37.71 36.28 35.51 34.47 34.31 34.37 33.62 33.50 33.50 34.21 35.21 34.99 35.32 35.05 37.18 38.68 39.28 40.77 40.65 39.36 39.43 39.91 40.73 41.89 42.58 42.32 41.56 39.63 39.97 40.64 41.92 42.42 42.43 43.88 45.27 45.41 45.37 45.89 45.48 44.52 44.64 46.59 47.10 47.46 47.73 47.68 47.53 47.60 47.87 47.96 48.11 48.05 47.43 47.59 48.70 48.68 48.38 46.95 46.90 47.25 47.65 47.97 48.28 49.40 50.09 50.76 51.18 51.13 51.37 51.59 51.82 51.49 51.44 51.93 52.09 52.12 52.28 52.70 53.49 54.08 54.34 54.04 53.71 53.96 54.26 54.42 54.59 54.93 54.79 55.22 55.55 55.67 55.97 56.12 56.41 56.66 56.95 56.88 57.28 57.76 57.52 58.36 58.33 58.04 58.02 57.76 57.84 58.04 58.63 58.63 58.82 59.02 59.34 59.59 59.85 60.04 60.06 60.09 60.25 60.54 60.68 61.10 61.37 61.57 61.57 61.69 61.92 62.28 62.90 63.54 64.01 64.52 65.04 64.95 65.50 65.90 66.21 66.71 67.24 67.48 67.70 68.32 68.45 68.30 67.90 68.46 68.41 67.75 67.93 67.82 67.50 67.91 68.42 69.17 69.52 70.01 70.88 71.17 70.80 71.68 71.67 71.35 71.14 70.74 70.16 69.38 68.47 67.39 67.28 67.17 66.76 66.60 66.65 67.13 67.34 67.43 67.53 67.61 67.78 67.79 67.82 67.90 68.01 68.16 68.38 68.78 69.25 69.52 69.37 69.90 70.85 70.69 70.52 70.58 70.79 71.07 71.34 71.62 71.81 72.09 72.39 72.38 72.51 72.82 73.22 73.87 74.07 74.38 74.73 74.81 75.10 75.48 75.58 75.85 75.81 75.69 76.06 76.57 76.91 76.98 76.98 77.03 77.07 77.29 77.49 77.52 77.94 78.44 79.08 80.11 81.15 81.28 81.80 81.59 80.98 80.37 80.22 80.21 80.57 81.09 80.67 81.20 81.75 81.46 81.74 82.22 82.92 83.13 83.30 83.50 83.26 82.75 82.09 81.70 81.88 81.26
38.87 39.02 39.17 38.91 38.63 38.78 38.91 39.08 39.34 39.40 39.32 38.96 39.13 39.41 39.31 39.33 39.45 39.41 39.18 39.10 39.27 39.30 39.22 39.21 39.11 39.03 38.97 38.97 39.09 39.10 39.01 38.88 38.97 38.78 38.78 38.89 38.74 38.55 38.41 38.49 38.73 38.65 38.61 38.56 38.44 38.17 38.07 38.09 38.25 38.41 38.12 37.97 37.97 37.84 37.52 37.27 37.05 37.04 37.15 36.85 37.02 37.09 38.18 37.99 37.13 36.70 36.31 35.85 35.74 35.83 35.80 35.67 35.07 33.10 29.18 29.56 34.18 35.90 36.25 36.46 36.43 36.38 36.54 36.72 36.77 36.88 36.82 36.77 36.77 37.03 36.93 36.89 36.92 36.85 36.83 36.90 36.31 35.15 36.36 36.52 35.86 36.00 36.63 37.04 36.99 37.04 37.46 37.80 37.40 34.77 33.45 33.33 34.46 37.62 38.30 36.74 29.88 21.73 19.22 21.22 23.86 24.00 24.75 26.89 29.27 31.95 32.72 34.65 36.22 37.28 39.17 39.56 39.71 39.04 38.89 38.51 38.41 38.58 38.34 38.39 38.67 39.77 40.59 39.22 36.08 34.08 32.77 34.62 35.66 34.51 33.67 33.57 33.57 33.78 33.77 33.61 33.54 33.94 35.97 36.90 38.73 41.11 39.82 38.01 38.12 39.26 41.00 41.96 42.35 42.39 41.27 39.05 40.06 40.63 41.80 41.99 42.74 44.41 45.82 46.54 47.01 46.72 46.55 45.87 45.08 46.24 46.60 47.11 47.26 47.36 47.67 47.89 48.19 48.43 48.49 48.33 47.81 47.96 49.05 49.32 49.07 48.27 48.28 48.40 48.50 48.34 48.20 48.21 48.97 49.88 50.01 50.00 50.25 50.57 50.66 51.17 51.29 51.21 51.76 52.42 53.20 52.91 52.78 53.22 53.64 53.84 54.20 54.51 54.72 54.59 54.74 55.28 55.19 55.12 55.73 56.09 56.39 56.69 56.96 57.03 57.15 57.18 57.29 57.50 57.83 58.26 58.33 58.52 58.72 58.75 58.64 58.83 58.79 58.86 59.02 59.19 59.43 59.70 60.16 60.32 60.54 60.50 60.46 60.76 60.77 61.16 61.66 61.97 61.93 61.90 62.25 62.75 63.44 64.18 64.45 64.30 64.66 65.60 66.05 66.39 66.68 67.05 67.49 67.90 68.20 68.75 69.54 69.26 68.90 69.22 69.09 68.93 68.67 68.16 67.78 67.70 68.20 68.90 69.87 70.93 71.40 70.15 69.81 72.84 73.91 72.69 71.25 69.40 68.80 68.58 68.15 67.63 67.45 67.33 67.14 67.00 66.88 67.28 68.18 67.66 67.50 67.61 67.88 67.81 67.90 68.09 68.07 68.12 68.35 68.47 69.05 69.33 69.17 69.35 69.57 69.69 69.89 70.22 70.52 70.95 71.23 71.46 71.59 71.91 72.36 72.42 72.57 72.83 73.24 73.90 74.33 74.55 74.82 75.04 75.26 75.70 75.65 75.93 76.06 76.11 76.48 77.01 77.49 77.60 77.56 77.57 77.54 77.84 77.73 78.14 78.59 79.68 80.29 80.59 81.48 82.63 83.11 82.62 81.94 81.14 80.82 80.71 80.87 81.62 81.44 82.60 83.32 82.56 82.72 83.02 83.86 84.40 84.65 84.84 84.22 83.06 82.43 82.89 83.03 82.88
39.28 39.30 39.47 39.45 39.23 39.12 39.11 39.36 39.59 39.64 39.43 39.14 39.39 39.48 39.60 39.67 39.61 39.49 39.29 39.14 39.33 39.35 39.28 39.24 39.23 39.06 38.97 38.97 39.06 39.03 39.05 39.15 39.39 39.32 39.05 38.92 38.95 38.88 38.59 38.55 38.68 38.76 38.70 38.51 38.33 38.15 38.21 38.14 38.16 38.33 38.17 38.03 37.91 37.50 37.39 37.25 37.25 37.29 37.00 36.98 36.90 37.10 38.56 38.51 37.30 36.59 36.22 36.06 36.00 35.95 35.47 34.83 33.78 30.86 27.97 30.48 33.83 35.76 36.24 36.57 36.66 36.68 36.93 37.03 37.07 37.12 36.95 36.85 36.73 36.71 36.95 37.17 37.22 37.01 36.99 37.11 36.70 35.40 36.29 36.64 36.27 36.40 36.83 37.53 38.34 37.75 37.66 37.40 35.65 32.72 33.73 34.85 34.17 36.06 37.00 37.49 36.71 29.52 21.96 23.44 24.00 24.04 26.76 29.82 29.48 29.46 27.74 25.94 30.82 35.13 37.46 39.13 39.18 38.70 37.92 35.87 36.98 38.10 37.85 39.05 39.19 37.80 37.45 36.80 34.04 34.33 39.56 39.82 38.45 35.77 35.26 36.05 35.82 37.18 35.69 34.45 33.84 34.73 37.11 36.54 37.74 40.85 42.17 38.34 37.80 38.69 39.95 40.25 41.26 41.58 40.04 38.36 38.64 39.42 41.45 41.55 43.20 44.94 46.83 47.36 47.96 47.48 46.78 46.83 46.29 46.15 46.77 46.91 47.07 47.58 47.68 47.80 48.25 48.54 48.70 48.55 48.23 48.10 48.73 49.11 49.85 49.85 49.60 49.46 49.25 49.51 49.66 49.04 48.76 49.48 49.32 49.56 50.24 50.34 50.54 51.73 52.32 51.95 52.75 52.60 53.68 53.79 53.51 53.51 53.78 54.18 54.69 54.85 55.23 55.43 55.66 56.30 56.41 55.76 56.39 56.93 57.05 57.39 57.58 57.58 57.59 57.62 57.72 57.74 58.12 58.63 58.62 59.16 59.17 59.15 59.06 59.07 59.12 59.22 59.32 59.40 59.54 59.85 60.55 60.72 61.00 60.94 60.96 61.32 61.18 61.38 61.67 62.26 62.28 62.34 62.71 63.12 63.71 64.48 64.81 64.60 65.45 66.05 66.48 66.79 67.21 67.56 68.05 68.40 68.60 68.91 69.89 70.06 69.88 70.14 69.98 69.70 69.25 68.51 68.18 68.07 68.46 68.80 69.34 70.50 71.55 69.82 70.84 74.53 76.60 74.87 72.41 69.78 68.84 68.56 68.00 67.69 67.42 67.23 67.08 67.00 67.07 67.11 68.27 67.61 67.35 67.70 67.97 67.95 68.00 68.04 68.10 68.20 68.37 68.41 68.90 69.16 69.18 69.20 69.37 69.52 69.68 69.92 70.43 70.84 71.09 71.43 71.83 71.96 72.33 72.62 72.90 73.07 73.45 74.07 74.51 74.80 75.14 75.40 75.51 76.00 75.97 76.09 76.39 76.35 76.61 77.13 77.33 77.66 77.95 78.20 78.21 78.32 78.40 79.06 80.25 81.09 81.07 81.23 82.20 83.56 84.49 83.97 82.87 81.97 81.67 81.41 81.16 81.79 81.80 82.65 83.52 83.86 84.14 84.39 85.07 85.62 85.87 85.89 84.95 83.86 83.36 83.85 84.38 84.23
39.92 39.76 39.69 39.96 39.91 39.58 39.39 39.52 39.62 39.68 39.57 39.42 39.61 39.77 39.79 39.85 39.81 39.57 39.34 39.41 39.44 39.39 39.34 39.26 39.32 39.18 39.06 39.02 39.11 39.25 39.25 39.32 39.48 39.63 39.42 39.23 38.91 38.92 39.02 38.74 38.60 38.77 38.74 38.59 38.29 38.12 38.22 38.25 38.23 38.12 38.05 37.93 37.68 37.42 37.33 37.48 37.57 36.99 37.04 37.29 37.10 37.24 38.09 37.82 37.42 36.64 36.36 36.34 36.09 35.60 33.99 32.08 31.83 29.45 28.44 32.28 33.82 35.54 36.38 36.80 36.73 36.88 36.93 36.91 37.04 37.19 37.08 36.89 36.96 36.84 37.14 37.40 37.51 37.41 37.12 36.93 36.67 35.69 36.39 36.93 36.74 36.88 37.04 37.56 38.66 38.21 37.63 37.04 35.97 33.78 34.29 35.90 35.58 34.46 36.11 37.38 37.81 35.99 26.67 24.27 24.27 24.58 28.44 30.94 30.93 30.74 30.35 28.97 29.15 33.29 35.27 37.30 38.03 36.22 33.63 31.79 33.62 34.44 34.63 37.39 38.49 35.36 33.49 34.82 36.31 38.74 43.02 40.39 39.62 39.57 39.62 39.37 38.52 40.32 39.42 39.41 37.13 37.45 38.36 37.73 37.60 39.43 39.61 38.05 38.59 39.44 39.59 40.36 40.78 40.39 38.73 39.07 38.68 39.35 41.03 41.49 42.50 45.08 46.77 47.75 48.17 47.90 47.71 47.60 47.46 47.05 47.46 47.88 47.74 48.22 48.29 48.32 48.31 48.56 48.99 49.02 48.97 48.90 49.10 49.05 49.70 50.26 50.19 50.31 49.66 50.37 50.69 50.67 50.23 49.81 49.61 49.89 50.27 51.25 51.82 52.43 53.20 53.21 53.74 53.93 54.27 54.33 54.57 54.73 54.85 55.11 55.41 55.50 55.79 56.17 56.56 56.86 57.08 56.64 57.02 57.67 57.52 57.76 58.00 58.01 58.10 58.05 58.15 57.99 58.24 59.16 59.09 59.07 59.38 59.48 59.45 59.41 59.50 59.64 59.74 59.78 59.89 60.22 60.78 61.15 61.50 61.54 61.49 61.80 61.74 61.84 61.91 62.40 62.70 62.80 63.22 63.55 64.11 64.70 64.76 65.45 65.99 66.42 66.83 67.26 67.86 68.15 68.37 68.82 69.13 69.43 70.22 70.58 70.85 71.16 70.77 70.10 69.29 68.91 68.60 68.46 68.52 68.77 69.13 70.04 71.21 69.56 71.22 73.98 76.06 75.96 74.43 70.74 69.19 68.56 68.06 67.51 67.15 66.95 66.84 66.79 66.84 66.88 67.67 67.75 67.30 67.65 67.86 67.96 67.91 68.02 68.15 68.42 68.83 69.00 69.20 69.27 69.41 69.61 69.68 69.80 69.81 69.91 70.45 70.77 71.05 71.32 71.59 71.75 72.14 72.65 72.95 73.26 73.65 74.09 74.85 75.34 75.47 75.55 75.76 76.00 76.21 76.37 76.63 76.69 76.89 77.14 77.56 77.77 78.10 78.69 78.94 78.90 79.32 79.79 80.87 81.83 81.75 81.93 82.88 84.15 85.00 84.65 83.13 82.81 82.74 82.27 81.79 82.08 82.40 83.08 83.98 84.59 85.20 85.87 86.53 86.84 86.94 86.86 85.97 85.07 84.54 84.50 85.28 85.39
40.44 40.19 40.14 40.32 40.45 40.11 39.89 39.77 39.82 39.86 39.77 39.64 39.65 39.92 39.89 39.90 39.89 39.90 39.74 39.54 39.48 39.38 39.37 39.27 39.33 39.25 38.97 39.08 39.27 39.30 39.32 39.36 39.44 39.52 39.46 39.25 39.03 38.95 39.07 39.08 38.92 38.76 38.79 38.61 38.34 38.25 38.29 38.32 38.23 38.14 38.11 37.96 38.01 37.78 37.76 37.69 37.69 37.32 37.35 37.46 37.42 37.35 37.35 37.30 37.12 36.84 36.51 36.35 36.21 35.91 35.26 33.03 33.21 30.89 29.49 32.75 34.55 35.61 36.29 36.71 36.81 36.84 36.94 37.08 37.26 37.38 37.33 37.01 37.02 36.97 37.04 37.25 37.32 37.32 37.17 36.89 36.83 35.85 36.47 37.23 37.20 37.23 37.05 37.31 38.28 38.17 37.84 37.74 36.90 34.44 34.50 35.75 36.65 35.59 36.38 37.75 38.27 37.42 28.90 24.57 24.50 25.01 29.38 31.40 32.23 31.58 31.26 31.05 29.84 30.18 33.09 36.32 35.20 31.39 30.63 31.13 30.64 30.68 30.31 31.86 34.98 33.70 35.78 37.86 39.23 39.30 39.29 38.95 39.07 39.84 39.96 39.66 39.18 40.40 40.81 41.02 39.63 39.62 40.86 40.80 40.22 40.09 38.96 38.22 37.54 37.98 38.53 38.88 38.72 39.13 40.84 41.14 40.14 39.89 40.77 41.24 41.72 43.22 45.07 47.14 48.29 48.88 49.26 48.62 48.51 48.06 47.86 48.10 48.25 48.58 48.57 48.88 48.94 48.79 49.29 49.53 49.45 49.49 49.63 49.53 50.05 50.46 50.33 50.74 50.25 50.56 50.75 51.09 50.99 51.01 50.81 51.05 50.95 51.48 52.22 52.88 53.86 54.33 54.48 54.68 54.78 54.75 55.04 55.31 55.52 55.57 55.89 56.00 56.04 56.45 57.12 57.22 57.43 57.50 57.52 57.82 57.66 57.98 58.33 58.32 58.40 58.30 58.45 58.34 58.62 59.00 59.14 59.28 59.39 59.66 59.80 59.90 60.15 60.34 60.36 60.37 60.36 60.60 61.02 61.54 61.93 62.05 62.04 62.18 62.33 62.54 62.81 62.82 63.03 63.35 63.74 64.11 64.58 64.86 64.97 65.99 66.42 66.93 67.22 67.48 68.14 68.68 68.80 69.26 69.72 70.10 70.83 71.27 71.54 71.81 71.47 70.41 69.37 68.95 68.73 68.32 68.60 68.92 69.44 69.94 70.89 70.41 72.04 73.87 76.14 77.00 76.00 72.91 69.72 68.48 68.07 67.53 67.01 66.88 66.81 66.67 66.70 66.80 67.10 67.83 67.23 67.51 67.85 67.86 67.88 68.05 68.30 68.62 68.91 69.09 69.12 69.25 69.46 69.90 70.12 70.22 70.32 70.48 70.38 70.66 71.04 71.29 71.44 71.70 72.05 72.60 72.92 73.26 73.72 74.35 75.05 75.48 75.76 76.13 76.26 76.37 76.70 76.88 76.87 76.95 77.14 77.38 77.94 78.25 78.54 79.03 79.36 79.44 79.72 80.25 81.14 81.64 82.14 82.79 83.37 84.59 85.65 85.60 84.19 84.17 83.55 83.12 82.83 82.74 83.00 83.48 83.75 84.53 85.03 85.67 86.99 87.25 87.09 86.51 86.13 86.13 85.86 85.37 85.91 86.33
40.66 40.64 40.67 40.80 40.99 40.63 40.30 40.19 40.06 39.92 39.80 39.80 39.81 39.89 39.86 40.02 40.04 40.03 39.96 39.66 39.58 39.47 39.49 39.45 39.34 39.33 39.18 39.27 39.33 39.43 39.45 39.41 39.46 39.47 39.51 39.32 39.32 39.24 39.16 39.03 39.00 38.88 38.69 38.63 38.64 38.55 38.45 38.45 38.35 38.22 38.18 38.11 38.05 37.96 37.79 37.80 37.90 37.46 37.61 37.99 38.16 37.49 37.35 37.29 37.12 36.82 36.55 36.24 36.09 36.05 35.57 33.73 33.68 31.91 30.05 32.17 34.13 35.29 36.24 36.92 36.92 37.10 37.33 37.31 37.34 37.34 37.40 37.25 37.28 37.30 37.19 37.44 37.35 37.31 37.06 36.96 36.68 35.82 36.10 37.37 37.59 37.43 37.17 37.24 37.91 37.98 38.09 37.93 37.38 36.52 36.38 35.40 36.77 36.95 37.21 38.07 38.28 38.16 33.03 25.20 24.56 24.97 28.89 31.41 32.20 32.88 33.52 32.28 31.05 30.17 32.01 35.88 32.98 30.35 29.91 29.50 29.74 30.35 26.15 26.85 31.44 33.06 35.35 37.03 39.25 39.57 39.71 39.55 39.35 40.15 40.20 40.29 40.23 40.60 41.00 41.12 40.42 39.82 41.33 41.90 41.49 41.68 41.39 41.06 39.57 39.05 38.02 38.78 39.33 40.50 43.09 43.76 42.64 40.89 41.44 41.07 41.56 42.52 44.25 46.29 47.87 49.02 50.32 49.94 49.67 49.00 48.42 48.25 48.62 48.74 48.89 49.20 49.28 49.24 49.65 49.94 49.98 50.00 50.28 50.40 50.32 50.37 50.41 50.73 50.66 51.04 51.23 51.26 51.28 51.54 51.72 52.09 52.35 52.46 52.66 52.83 53.80 54.58 54.83 54.95 55.04 55.35 55.68 55.76 55.95 56.09 56.52 56.57 56.41 56.52 57.06 57.62 57.89 57.83 57.83 58.09 57.86 58.21 58.80 58.66 58.57 58.58 58.69 58.60 58.87 59.13 59.36 59.80 59.73 60.01 60.20 60.61 60.88 60.87 60.86 60.97 61.10 61.37 61.70 62.05 62.46 62.52 62.85 63.26 63.35 63.80 63.92 63.66 63.46 63.61 64.08 64.55 64.87 65.17 65.51 66.40 66.95 67.48 67.85 68.17 68.75 69.18 69.43 69.82 70.33 70.57 71.34 72.06 72.20 72.27 71.86 70.86 69.91 69.33 69.00 68.67 68.98 69.54 70.17 70.93 71.27 71.96 72.70 74.40 76.47 77.78 78.48 76.13 70.25 68.24 67.93 67.56 66.99 66.86 66.84 66.71 66.61 66.59 66.77 67.31 66.93 67.23 67.64 67.64 67.91 68.15 68.31 68.48 68.62 68.77 68.87 69.09 69.30 69.69 70.21 70.35 70.45 70.63 70.77 70.88 70.94 71.38 71.62 71.98 72.25 72.77 73.09 73.51 74.15 75.02 75.64 75.96 76.25 76.39 76.60 76.75 77.22 77.39 77.41 77.39 77.61 78.03 78.57 78.78 79.06 79.42 79.58 79.69 80.07 81.59 81.84 81.78 82.48 83.41 83.88 84.92 85.95 85.90 84.91 85.30 84.87 84.83 84.42 83.57 83.22 82.70 82.43 82.89 83.42 84.08 85.07 85.15 85.36 85.33 85.78 87.03 87.13 86.60 86.78 87.23
40.94 41.15 41.15 41.24 41.27 40.84 40.37 40.30 40.19 40.03 39.97 39.94 39.97 39.98 40.02 40.10 40.03 40.06 39.91 39.86 39.78 39.62 39.53 39.70 39.58 39.46 39.35 39.41 39.56 39.58 39.63 39.55 39.56 39.63 39.59 39.42 39.40 39.30 39.20 39.08 38.86 38.86 38.92 38.79 38.72 38.69 38.61 38.59 38.52 38.33 38.24 38.17 37.93 37.85 37.86 37.87 37.78 37.49 37.63 38.04 37.87 37.48 37.39 37.37 37.21 36.97 36.61 36.35 36.44 36.29 35.67 34.18 33.62 33.08 30.30 31.39 33.93 35.31 36.08 36.34 36.59 37.05 37.20 37.19 37.24 37.30 37.32 37.38 37.34 37.49 37.84 37.83 37.55 37.27 37.10 37.03 36.82 36.61 36.79 37.32 37.55 37.28 37.35 37.60 37.51 37.93 38.14 38.06 37.85 37.49 37.56 36.76 36.54 37.31 37.39 38.01 38.28 38.27 34.73 26.83 24.93 25.28 28.89 30.99 31.88 33.23 35.27 35.24 33.17 32.53 30.62 32.21 31.39 27.98 28.14 32.33 33.78 32.65 25.06 25.27 33.29 34.59 29.68 31.10 38.42 39.47 39.76 39.45 39.51 39.91 40.25 40.54 40.64 40.92 41.24 41.36 41.27 41.27 42.27 42.27 42.23 42.01 41.78 41.68 41.54 41.01 39.52 39.37 40.37 42.12 43.55 44.59 43.34 41.54 41.70 41.76 41.56 42.88 44.29 46.59 48.25 49.38 50.17 49.97 49.97 49.84 49.15 49.03 49.28 49.25 49.45 49.64 49.69 49.74 49.92 50.24 50.43 50.39 50.69 50.92 50.53 50.59 50.75 50.95 51.23 51.38 51.50 51.59 51.71 51.93 52.24 52.52 52.86 52.94 53.07 53.40 54.11 54.64 55.00 55.16 55.48 55.80 56.10 56.25 56.54 56.42 56.95 56.99 56.69 56.91 57.12 57.67 58.12 58.14 58.06 58.31 58.18 58.58 59.26 59.07 58.82 58.86 58.84 58.87 59.19 59.45 59.75 59.98 59.86 60.31 60.64 61.23 61.57 61.55 61.50 61.79 61.99 62.25 62.64 63.05 62.97 62.99 63.89 64.26 63.73 64.25 64.53 64.25 63.99 64.07 64.46 64.85 65.24 65.37 65.97 66.87 67.57 68.16 68.41 68.76 69.26 69.70 70.11 70.34 70.88 71.24 71.64 72.60 72.57 72.72 72.59 72.08 71.24 70.05 69.72 69.60 69.98 70.66 71.37 72.24 72.69 72.78 73.18 75.20 77.46 78.99 80.44 76.97 70.16 68.00 67.65 67.51 66.95 66.94 66.91 66.72 66.50 66.47 66.70 67.14 67.00 67.22 67.58 67.66 67.97 68.08 68.19 68.26 68.58 68.90 68.94 69.12 69.28 69.55 70.00 70.14 70.33 70.63 70.86 70.92 71.03 71.58 71.61 71.85 72.32 72.97 73.56 74.18 75.84 76.81 77.42 77.09 76.99 76.95 77.01 77.12 77.63 77.78 77.99 78.05 78.30 78.68 79.29 79.41 79.63 79.74 79.88 80.25 80.67 82.20 82.33 82.34 82.98 84.06 84.93 85.58 86.46 86.44 86.21 86.43 85.93 86.20 84.97 83.24 82.80 82.61 82.03 82.00 82.27 82.53 82.97 83.21 83.84 85.63 86.80 87.23 87.01 86.62 87.62 87.85
41.16 41.52 41.61 41.47 41.39 40.92 40.47 40.33 40.29 40.19 40.10 40.17 40.17 40.08 40.06 40.16 40.17 40.09 39.89 39.99 39.95 39.66 39.76 39.94 39.92 39.70 39.65 39.76 39.82 39.76 39.84 39.71 39.55 39.53 39.50 39.38 39.39 39.28 39.19 39.15 38.94 38.75 38.84 39.11 39.06 38.72 38.68 38.72 38.63 38.41 38.17 38.16 38.23 37.81 37.82 37.38 37.74 38.23 38.14 38.00 37.57 37.54 37.39 37.32 37.34 37.05 36.68 36.60 36.62 36.35 35.71 34.53 34.80 35.27 32.20 30.76 33.84 35.26 35.97 36.26 36.61 36.92 37.20 37.24 37.36 37.40 37.41 37.35 37.73 38.01 37.88 37.63 37.59 37.56 37.36 37.02 36.97 36.87 37.10 37.30 37.63 37.61 37.88 37.67 37.74 38.01 38.09 38.18 38.10 37.74 37.67 37.61 37.28 37.37 37.58 37.81 38.14 38.41 36.25 28.61 25.00 25.29 28.78 30.86 31.53 32.94 35.49 37.24 35.83 35.30 33.70 30.24 31.59 31.23 33.58 37.29 38.35 38.13 31.10 27.86 31.76 35.41 31.77 32.09 38.17 38.72 38.46 38.93 39.44 39.83 40.24 40.49 40.70 40.86 41.16 41.39 41.44 42.15 43.60 42.68 42.19 42.42 41.97 41.67 41.88 41.76 41.57 40.64 41.01 42.70 44.24 44.37 43.54 41.81 40.68 41.96 43.02 45.16 46.15 46.51 47.85 48.21 48.75 49.90 50.79 50.32 49.15 49.56 49.57 49.76 50.18 50.27 50.20 50.29 50.35 50.67 50.83 50.85 51.31 51.57 51.07 51.14 51.23 51.48 51.79 51.77 51.83 52.00 52.29 52.32 52.41 52.79 53.26 53.43 53.56 53.99 54.52 54.77 55.09 55.54 55.79 56.17 56.68 56.87 56.96 57.12 57.15 57.24 57.20 57.49 57.55 57.75 58.43 58.74 58.61 58.72 58.71 59.01 59.50 59.46 59.14 59.27 59.30 59.34 59.67 59.87 60.17 60.16 60.24 60.48 60.79 61.41 62.18 62.34 62.36 62.63 62.92 63.23 63.53 63.47 63.20 63.24 64.20 64.28 63.92 64.36 64.57 64.60 64.49 64.48 64.66 64.80 65.21 65.37 65.99 66.95 67.64 68.43 68.91 69.34 69.63 69.93 70.44 70.86 71.09 71.71 72.17 73.33 73.21 73.50 73.51 73.23 72.90 71.14 70.47 70.28 70.54 71.06 71.76 73.20 75.55 74.42 74.37 73.86 77.35 80.56 81.72 77.12 69.61 67.69 67.40 67.43 67.00 66.98 66.81 66.56 66.43 66.46 66.64 66.99 67.17 67.26 67.35 67.47 67.83 68.02 68.10 68.22 68.60 69.06 69.16 69.34 69.42 69.55 69.79 70.01 70.26 70.76 71.03 71.17 71.18 71.39 71.79 71.84 72.37 73.10 73.78 75.09 77.03 77.75 78.21 78.29 78.00 77.73 77.77 77.64 78.02 78.31 78.60 78.50 78.80 79.28 79.88 79.94 80.07 80.14 80.40 80.82 81.54 82.90 82.72 83.10 83.65 84.39 85.45 86.08 86.98 87.37 87.27 87.34 87.05 87.23 85.66 83.54 82.81 82.44 81.51 81.55 81.78 81.82 81.71 82.10 83.01 85.82 86.85 86.01 84.51 84.36 86.31 86.71
41.40 41.67 41.70 41.56 41.44 41.02 40.65 40.50 40.49 40.41 40.40 40.43 40.36 40.26 40.23 40.26 40.31 40.21 40.20 40.13 40.04 39.82 39.93 39.99 39.95 39.83 39.80 39.87 39.81 39.89 39.92 39.84 39.59 39.54 39.44 39.34 39.33 39.24 39.11 39.12 39.01 38.78 38.76 38.87 39.17 39.02 38.92 38.79 38.62 38.41 38.19 38.27 38.19 37.93 38.26 37.85 37.85 37.90 38.02 38.16 37.91 37.88 37.72 37.55 37.43 37.09 36.85 36.75 36.53 35.81 34.80 35.22 36.73 35.99 32.84 30.44 32.26 35.07 36.28 36.64 36.86 37.17 37.39 37.31 37.32 37.38 37.42 37.46 37.53 37.63 37.56 37.62 37.65 37.84 37.52 36.66 36.94 37.20 37.49 37.34 37.61 38.15 38.09 37.90 37.94 38.18 38.28 38.28 38.19 37.97 37.99 37.95 37.85 37.56 37.85 37.96 38.14 38.67 37.41 29.18 25.07 25.26 28.33 30.51 31.17 32.29 35.26 37.56 37.44 36.97 36.56 32.10 32.16 35.69 36.49 38.12 38.93 39.10 38.36 37.23 34.69 33.98 33.89 34.23 36.31 37.23 38.30 39.45 39.53 39.84 40.31 40.70 40.87 40.93 41.21 41.48 41.51 42.65 43.20 42.66 42.25 42.14 42.44 42.16 42.30 42.20 42.18 42.05 42.24 43.10 43.88 43.75 42.90 41.77 40.95 43.22 44.83 45.90 46.52 46.21 46.52 47.57 49.68 50.82 51.09 50.27 49.52 49.83 50.23 50.45 50.77 50.92 50.78 50.86 50.84 51.04 51.52 51.76 51.96 52.23 51.86 51.83 51.84 52.11 52.38 52.24 52.22 52.45 52.62 52.61 52.80 52.97 53.32 53.79 54.14 54.35 54.84 55.05 55.41 55.58 55.98 56.34 57.01 57.39 57.34 57.59 57.44 57.57 57.62 57.87 58.16 58.21 58.77 59.19 59.07 59.23 59.12 59.29 59.54 59.74 59.42 59.59 59.70 60.01 60.35 60.52 60.76 60.68 60.71 60.71 60.80 61.15 62.01 62.59 63.27 63.47 63.85 64.08 64.15 63.81 63.67 63.71 64.27 64.50 64.48 64.73 64.93 64.91 64.92 64.61 64.68 64.74 65.22 65.73 66.30 66.84 67.48 68.08 68.80 69.75 69.98 70.40 70.92 71.45 71.79 72.45 72.79 73.61 73.76 73.91 74.10 74.18 73.41 71.69 70.60 70.31 70.74 71.61 73.28 74.77 78.15 76.74 76.64 75.44 76.60 80.87 81.82 74.62 68.84 67.57 67.17 67.09 66.98 67.01 66.90 66.50 66.41 66.40 66.70 66.91 67.17 67.44 67.58 67.66 67.84 68.15 68.32 68.50 68.83 69.13 69.45 69.85 69.84 69.64 69.79 70.03 70.20 70.63 71.07 71.33 71.37 71.60 71.85 72.36 72.91 73.63 74.90 76.16 76.97 78.22 79.15 79.40 78.99 78.58 79.12 79.02 79.28 79.86 80.52 79.40 79.27 79.61 80.05 80.41 80.55 80.80 81.18 81.36 81.70 82.73 83.12 83.78 84.55 85.19 85.81 86.49 87.38 88.06 88.10 88.33 88.29 88.34 86.63 84.04 82.69 81.93 81.03 80.79 81.04 81.29 81.21 81.36 82.07 83.73 84.14 83.93 82.45 81.73 82.92 84.14
41.53 41.67 41.71 41.74 41.60 41.21 41.03 40.80 40.66 40.60 40.64 40.62 40.42 40.40 40.41 40.44 40.44 40.41 40.39 40.26 40.10 40.07 40.09 40.11 40.09 39.93 39.86 39.91 39.93 40.03 39.95 39.92 39.76 39.66 39.48 39.43 39.24 39.30 39.26 39.15 39.06 38.80 38.75 38.70 38.95 39.09 39.17 38.97 38.66 38.57 38.53 38.62 38.45 38.30 38.53 38.64 38.62 37.92 37.76 37.77 37.82 37.79 37.85 38.02 37.82 37.40 37.02 36.70 35.65 34.83 35.86 36.25 36.65 35.64 33.11 30.78 31.38 34.57 36.05 36.48 36.75 37.06 37.16 37.28 37.36 37.39 37.45 37.49 37.61 37.59 37.75 37.88 38.15 38.14 37.89 37.16 36.94 37.30 37.61 37.69 37.99 38.29 38.00 37.92 37.84 38.21 38.40 38.26 38.36 38.31 38.30 38.19 38.15 38.01 38.01 38.09 37.72 38.00 37.00 29.16 25.45 25.44 27.45 29.82 30.27 31.81 34.93 37.29 38.18 38.20 37.80 34.64 30.63 34.67 37.29 38.41 38.98 39.17 39.26 38.71 37.66 36.61 36.32 37.26 37.93 37.13 37.09 36.98 38.51 39.42 40.23 41.27 40.92 40.93 41.20 41.48 41.56 42.69 42.78 42.64 41.82 41.61 42.00 41.99 42.18 42.47 42.56 42.31 41.72 41.80 43.21 43.47 42.83 42.59 42.72 44.00 44.74 45.71 46.75 46.02 44.92 46.04 49.88 51.24 51.20 50.62 50.47 50.52 50.95 51.07 51.27 51.78 51.80 51.76 51.83 52.17 52.32 52.27 52.54 52.80 52.66 52.51 52.40 52.52 52.56 52.58 52.61 52.82 52.86 52.99 53.37 53.49 53.47 53.99 54.43 54.78 55.12 55.40 55.79 56.13 56.27 56.44 57.12 57.85 57.98 58.09 57.95 58.09 58.09 58.38 58.64 58.70 59.08 59.26 59.30 59.77 59.78 59.82 59.92 60.04 59.92 60.17 59.90 60.63 61.16 61.22 61.28 61.30 61.02 61.00 61.05 61.27 61.67 62.08 62.95 63.39 63.93 64.20 64.55 64.61 64.48 64.53 64.79 65.03 64.93 64.99 65.36 65.42 65.13 64.61 64.52 64.42 64.76 64.92 65.99 66.88 67.94 68.54 69.15 70.06 70.33 70.86 71.49 71.88 72.42 73.19 73.03 73.49 73.88 74.25 74.59 74.82 73.87 72.21 70.99 70.72 71.07 72.15 74.53 76.38 77.54 77.54 78.00 78.79 76.93 76.02 76.88 71.18 68.00 67.28 66.95 66.95 66.83 66.69 66.48 66.12 66.14 66.10 66.54 66.86 67.06 67.46 67.64 67.83 68.01 68.28 68.60 68.89 68.97 69.04 69.37 69.68 69.78 69.76 69.84 70.11 70.40 70.65 71.15 71.46 71.71 71.91 72.23 72.70 73.53 75.58 77.32 77.62 78.04 78.70 79.67 80.30 79.88 79.89 80.63 80.83 80.94 81.58 82.47 80.63 79.50 79.91 80.29 80.90 81.14 81.23 81.55 81.77 82.03 82.52 83.28 84.17 85.26 86.16 86.92 87.51 87.88 88.26 88.89 89.12 89.27 89.32 87.58 84.46 82.83 81.85 81.03 80.60 80.26 80.39 80.84 80.99 80.84 80.96 81.38 81.56 81.19 80.92 80.92 81.39
41.57 41.79 41.83 41.84 41.73 41.52 41.20 41.07 40.90 40.80 40.81 40.75 40.63 40.65 40.64 40.68 40.74 40.69 40.69 40.54 40.35 40.29 40.27 40.05 40.18 40.14 39.96 40.02 40.10 40.08 40.07 40.00 39.87 39.65 39.43 39.39 39.40 39.38 39.34 39.23 39.08 39.01 38.91 38.91 38.97 38.90 39.07 39.19 38.84 39.15 39.53 39.30 39.51 39.22 38.82 38.58 38.36 38.02 37.83 37.77 37.84 37.82 37.72 37.57 37.55 37.56 36.86 35.90 35.35 36.19 36.62 36.40 36.28 35.43 34.19 32.26 32.51 33.85 35.09 36.10 36.61 37.03 37.12 37.45 37.60 37.64 37.65 37.76 37.82 37.90 38.18 38.13 38.08 37.91 37.87 37.54 37.21 37.45 37.69 38.05 38.32 38.10 38.10 38.14 38.03 38.39 38.53 38.24 38.37 38.48 38.46 38.47 38.47 38.37 38.07 37.98 37.38 36.25 34.82 28.92 25.56 25.50 27.18 27.16 22.85 25.88 33.00 36.84 38.58 38.82 38.50 35.85 31.61 30.93 34.54 38.08 39.04 39.21 39.32 39.23 38.76 37.52 37.40 38.74 39.49 38.89 36.46 36.20 36.95 38.23 39.47 40.27 40.59 40.70 41.00 41.63 42.00 42.58 42.29 42.49 42.12 42.20 42.28 41.90 41.99 42.48 42.72 42.51 41.94 41.38 41.91 42.40 42.71 43.21 43.79 44.48 45.19 46.03 46.25 45.22 45.00 46.02 49.58 51.11 51.64 51.07 50.84 51.00 51.33 51.69 51.84 52.13 52.74 52.51 52.36 52.31 52.39 52.56 52.83 52.78 53.21 53.31 53.19 53.06 52.92 53.00 53.15 53.40 53.45 53.52 53.79 54.01 53.93 54.26 54.48 55.00 55.54 55.86 56.21 56.64 56.82 56.83 57.10 58.02 58.46 58.58 58.55 58.55 58.69 58.78 59.14 59.27 59.50 59.63 59.74 59.99 60.11 60.20 60.30 60.49 60.49 60.86 60.90 61.20 61.53 61.66 61.61 61.89 61.64 61.57 61.51 61.63 61.85 62.20 62.63 63.23 63.74 64.15 64.67 65.05 65.17 65.08 65.36 65.89 65.79 65.77 66.26 66.28 65.16 64.56 64.32 64.13 64.70 64.51 65.72 67.40 68.44 69.23 69.94 70.34 70.57 71.00 71.52 72.11 72.59 73.38 73.38 73.75 74.25 74.65 75.00 75.16 74.23 73.29 72.03 71.29 71.63 72.58 74.81 77.61 78.60 78.85 79.21 80.24 77.31 71.91 70.00 68.36 67.46 66.98 66.82 67.00 66.88 66.43 65.91 65.49 65.44 65.86 66.41 66.82 67.33 67.59 67.64 68.02 68.31 68.46 68.60 68.70 68.92 69.07 69.36 69.58 69.89 70.09 70.11 70.48 70.79 70.96 71.31 71.70 72.06 72.39 72.89 73.47 73.97 76.00 77.67 78.34 79.25 80.43 81.04 81.50 80.97 80.31 80.97 81.60 81.57 82.50 82.83 81.63 80.12 80.53 81.12 81.49 81.72 81.83 81.86 82.33 82.80 83.00 83.52 84.70 86.03 86.99 87.62 88.33 88.83 88.86 89.39 89.83 90.02 89.46 87.71 84.78 83.07 81.85 80.79 80.39 80.20 80.19 80.12 79.89 79.88 79.62 79.66 79.57 79.46 79.50 79.39 79.34
41.60 41.71 41.70 41.75 41.73 41.61 41.32 41.32 41.18 41.00 41.04 40.98 40.95 41.08 41.10 41.12 41.08 40.92 40.74 40.77 40.64 40.47 40.34 40.22 40.33 40.40 40.27 40.18 40.29 40.22 40.20 40.00 39.76 39.69 39.53 39.52 39.57 39.57 39.47 39.15 39.04 39.04 39.06 39.06 39.04 38.90 38.86 38.99 39.02 39.00 39.89 40.09 39.99 39.36 38.73 38.36 38.22 38.08 37.99 37.87 37.85 37.89 37.74 37.60 37.43 37.45 37.07 35.95 36.05 36.64 36.56 36.54 36.47 36.44 35.38 32.94 34.25 34.48 34.42 35.28 36.43 36.84 37.06 37.46 37.75 37.86 37.88 38.01 38.04 37.99 38.11 38.05 38.11 37.98 37.76 37.37 37.25 37.58 37.84 38.26 38.19 38.25 38.31 38.32 38.36 38.41 38.61 38.58 38.58 38.60 38.80 38.81 38.73 38.58 38.11 37.24 36.70 36.36 34.30 29.14 25.75 25.67 27.02 22.84 16.39 17.97 28.05 36.40 38.09 39.05 39.30 37.38 34.69 30.69 31.25 36.22 38.76 39.31 39.40 39.48 39.40 39.17 38.51 38.11 39.58 39.57 37.97 38.41 38.21 38.59 39.88 40.54 40.74 40.79 41.02 41.45 41.71 41.76 42.09 42.82 42.96 43.04 42.98 42.52 42.17 42.58 42.91 42.89 42.69 43.05 42.52 41.91 42.48 43.41 43.88 45.64 46.80 46.79 45.49 45.14 46.19 48.49 50.70 51.67 51.66 51.86 51.11 51.22 51.47 51.96 52.26 52.23 52.60 52.63 52.68 52.74 52.95 53.35 53.50 53.28 53.67 54.23 54.38 54.57 53.84 53.82 53.90 54.03 53.94 53.99 54.19 54.45 54.58 54.81 54.93 55.22 55.75 56.17 56.68 57.53 58.62 57.99 57.98 58.29 58.71 58.96 59.08 59.25 59.42 59.35 59.65 59.66 59.84 60.04 60.21 60.20 60.49 60.76 60.88 61.13 61.39 61.43 61.85 61.87 61.78 62.04 62.16 62.56 62.63 62.35 62.10 62.07 62.21 62.96 62.93 63.18 63.86 64.62 65.34 66.00 66.38 65.89 66.23 66.67 66.82 67.11 67.78 67.28 65.59 64.90 64.65 64.44 65.06 64.90 66.96 68.27 68.94 69.80 70.69 71.05 71.22 71.62 71.86 72.33 72.96 73.81 73.95 74.33 74.81 75.22 75.57 75.62 74.84 74.60 73.55 71.79 72.65 75.22 76.93 78.80 79.63 79.79 80.03 79.21 73.94 69.83 68.53 67.71 67.13 66.75 66.82 67.32 67.10 66.34 65.32 65.25 65.55 66.03 66.55 67.10 67.45 67.59 67.70 67.93 68.12 68.68 68.82 69.07 69.26 69.39 69.67 70.03 70.66 70.33 70.44 70.66 70.81 71.12 71.46 71.85 72.25 72.69 73.26 73.83 74.46 76.80 78.28 78.65 79.54 80.67 81.29 81.35 80.94 80.93 81.36 82.38 82.68 83.20 83.43 82.92 82.85 81.75 81.67 81.90 82.09 82.44 82.66 83.06 83.42 83.81 83.80 84.91 86.45 87.59 88.33 88.93 89.52 89.60 89.88 90.54 90.48 89.34 86.85 84.71 83.29 82.34 80.77 80.17 79.97 79.90 79.50 79.29 79.24 78.92 78.69 78.68 78.55 78.99 79.18 78.45
41.60 41.80 41.73 41.87 41.82 41.74 41.51 41.42 41.34 41.27 41.26 41.29 41.29 41.30 41.29 41.23 41.21 41.08 40.86 40.86 40.79 40.64 40.38 40.30 40.50 40.56 40.58 40.47 40.43 40.53 40.41 40.00 39.87 39.94 39.69 39.72 39.77 39.71 39.60 39.29 39.16 39.05 39.25 39.15 39.12 39.06 38.99 38.92 38.96 39.05 39.43 40.01 39.65 38.78 38.54 38.52 38.52 38.20 38.06 38.04 37.97 37.95 37.78 37.69 37.45 37.23 36.83 36.30 36.84 36.82 36.70 36.66 36.56 36.22 34.32 32.85 35.39 35.98 35.20 34.77 35.60 36.51 36.69 37.03 37.53 37.77 37.89 38.02 38.10 38.08 38.04 38.21 38.26 38.07 37.69 37.51 37.45 37.87 38.29 38.33 38.31 38.38 38.29 38.47 38.54 38.50 38.61 38.76 38.67 38.75 38.96 38.95 38.91 38.67 38.20 37.62 35.14 35.34 37.29 30.48 26.09 25.99 27.31 25.57 19.38 19.33 27.31 35.63 37.74 39.24 40.01 38.94 37.51 33.75 28.98 30.22 35.78 38.73 39.45 39.62 39.60 39.66 39.08 37.84 39.53 39.64 38.71 39.40 39.90 39.18 39.17 39.38 39.96 40.65 40.98 41.12 41.20 41.30 41.69 43.74 44.05 43.41 42.71 43.19 42.61 42.56 42.89 43.18 42.95 42.60 42.53 42.50 42.78 43.50 43.94 45.38 47.84 48.79 48.04 48.24 49.23 50.46 51.19 51.96 51.76 51.94 51.55 51.71 51.94 52.05 52.13 52.30 52.93 53.28 53.50 53.35 53.39 53.85 54.26 53.93 54.03 54.74 55.52 56.38 55.59 55.00 54.44 54.69 54.46 54.62 54.95 55.10 55.35 55.50 55.66 55.95 56.23 56.55 56.98 58.02 60.08 59.04 58.94 59.21 59.16 59.39 59.65 59.81 59.95 59.93 60.08 60.12 60.26 60.48 60.53 60.79 60.93 61.05 61.44 61.64 62.08 62.70 62.79 62.65 62.40 62.37 62.43 62.82 63.10 63.03 62.83 62.79 62.75 63.17 63.14 63.43 63.87 64.90 65.82 66.46 66.76 66.49 66.83 67.42 67.90 68.26 68.55 68.12 67.12 66.63 65.82 63.94 64.68 64.71 67.63 69.07 69.38 70.06 71.12 71.49 71.74 72.09 72.40 72.80 73.35 73.95 74.45 75.05 75.51 75.93 76.34 76.27 75.78 75.93 74.47 71.54 71.76 74.42 76.49 78.72 79.75 78.53 78.41 76.52 70.52 68.34 67.58 67.21 66.66 66.30 66.30 66.78 66.28 65.31 65.06 65.81 66.02 66.25 66.62 67.12 67.29 67.28 67.72 67.78 68.05 68.85 68.79 68.96 69.15 69.37 69.56 69.86 70.32 70.40 70.58 70.82 71.01 71.54 71.86 72.16 72.65 72.86 73.35 74.06 74.58 76.81 78.63 78.77 79.26 80.05 80.84 81.17 81.06 81.46 81.84 82.56 83.22 84.00 84.36 84.25 84.03 82.41 82.15 82.36 82.68 83.16 83.52 83.81 84.01 84.30 83.93 84.14 87.01 87.89 88.88 89.78 90.33 90.42 90.52 90.94 90.38 89.11 87.52 86.21 84.31 82.10 81.16 80.33 80.00 80.03 79.45 78.90 78.75 78.60 78.09 77.95 77.77 78.22 78.93 78.37
41.64 41.91 41.99 42.02 42.13 42.17 41.95 41.41 40.47 40.81 41.54 41.53 41.50 41.46 41.38 41.31 41.30 41.15 40.96 40.96 40.92 40.76 40.31 40.29 40.45 40.57 40.59 40.59 40.48 40.49 40.42 40.14 40.12 40.17 40.04 39.91 39.83 39.70 39.62 39.45 39.27 39.26 39.38 39.29 39.14 39.22 39.18 39.05 39.03 38.99 39.12 39.38 39.21 38.68 38.52 38.51 38.63 38.46 38.29 38.17 38.03 37.90 37.86 37.66 37.38 37.10 36.63 36.83 37.16 36.95 36.78 36.55 36.17 34.92 32.93 33.10 35.75 36.43 36.06 35.50 35.36 36.36 36.59 36.90 37.31 37.75 37.89 37.96 37.95 38.00 38.02 38.09 38.05 38.11 37.87 37.76 37.71 38.18 38.43 38.15 38.23 38.32 38.33 38.54 38.71 38.59 38.73 38.79 38.74 38.81 38.85 38.75 38.70 38.53 38.27 37.51 37.20 37.47 38.24 30.66 26.12 26.00 27.36 29.23 26.30 26.40 28.55 33.98 37.29 38.72 40.17 39.53 38.51 35.28 29.32 28.69 31.75 36.54 39.00 39.67 39.81 39.85 39.56 38.94 39.72 39.87 39.78 40.09 40.40 40.19 39.84 39.62 39.40 39.89 40.48 40.70 40.79 41.08 41.48 42.39 42.43 42.42 42.50 43.17 42.48 42.60 42.70 42.86 42.75 42.43 42.50 42.89 43.48 43.69 44.23 45.15 47.31 48.95 49.97 50.70 50.88 51.08 51.58 52.20 52.33 52.13 52.13 52.34 52.94 52.59 52.28 52.63 53.12 53.85 53.97 53.84 53.85 54.40 54.70 54.50 54.56 55.18 55.77 56.09 55.98 55.93 55.58 55.66 55.26 55.57 56.15 56.29 56.44 56.54 56.72 56.94 57.11 57.26 58.08 58.63 60.26 59.82 59.43 59.75 59.94 59.90 60.13 60.35 60.48 60.55 60.85 60.89 60.86 61.03 61.04 61.20 61.18 61.30 61.74 61.85 62.58 63.45 63.46 63.28 63.08 62.97 62.70 63.13 63.56 63.46 63.59 63.58 63.20 63.30 63.70 64.09 64.17 64.78 65.74 66.36 67.02 67.25 67.65 68.23 68.77 69.10 68.77 68.19 67.81 67.63 66.29 63.77 63.59 64.51 68.40 70.10 70.25 70.57 71.46 71.88 72.31 72.68 72.97 73.63 74.00 74.51 75.11 75.72 76.11 76.55 77.15 76.84 76.73 76.78 74.95 71.70 69.66 69.53 70.75 72.77 73.89 72.40 73.27 72.32 68.52 67.30 66.86 66.68 66.05 65.80 65.22 66.21 66.25 64.46 64.76 65.26 65.66 65.86 66.32 66.76 66.98 67.19 67.69 67.97 68.23 68.35 68.25 68.54 68.92 69.16 69.38 69.68 69.94 70.30 70.55 71.17 71.41 71.73 72.02 72.48 72.96 73.12 73.59 74.16 74.43 75.65 77.65 78.38 78.96 79.86 80.87 81.54 81.92 82.18 82.35 82.81 83.32 84.01 84.88 85.12 83.98 82.83 82.69 82.75 82.98 83.67 84.26 84.42 84.55 84.97 85.01 83.88 86.76 88.27 89.36 90.20 90.85 91.10 91.05 91.36 91.18 89.95 88.57 86.46 83.63 81.66 81.10 80.23 79.87 79.91 79.22 78.81 78.45 77.94 77.70 77.53 77.24 77.26 77.14 76.87
41.69 42.08 42.21 42.24 42.32 42.13 42.20 41.87 41.13 41.37 41.85 41.83 41.87 41.67 41.54 41.41 41.32 41.25 41.10 41.01 40.92 40.71 40.36 40.56 40.58 40.70 40.79 40.72 40.54 40.55 40.50 40.34 40.19 40.20 40.08 39.89 39.74 39.60 39.59 39.46 39.43 39.44 39.54 39.51 39.30 39.30 39.18 39.07 39.03 38.98 38.94 39.32 39.55 39.06 38.71 38.58 38.66 38.70 38.73 38.64 38.19 38.07 37.82 37.44 37.01 36.85 36.94 37.69 37.79 37.23 36.90 36.59 35.43 33.17 32.75 33.86 36.03 36.73 36.63 36.34 36.11 36.28 36.69 37.10 37.36 37.70 37.85 37.90 37.89 37.96 38.10 38.07 38.11 38.02 37.92 37.76 37.86 38.17 38.16 37.88 38.06 38.41 38.54 38.63 38.81 38.66 38.77 38.87 38.82 38.86 38.78 38.71 38.67 38.56 38.52 38.65 38.87 38.80 38.28 30.76 26.26 26.14 27.13 27.80 25.41 25.29 25.29 31.15 37.48 38.35 39.35 40.09 39.12 36.28 30.91 30.50 34.40 38.08 38.99 39.61 39.92 39.97 39.87 39.76 40.11 40.12 40.28 40.22 40.60 40.47 40.24 40.36 40.35 40.00 40.49 40.72 41.06 41.39 41.65 42.45 42.77 42.29 42.14 42.33 42.32 42.61 42.64 42.88 42.95 42.58 42.74 43.42 43.49 43.88 44.41 44.99 46.37 48.26 49.73 50.36 51.05 51.52 52.12 52.82 53.11 52.92 52.96 53.22 53.25 52.94 52.91 52.93 53.33 54.21 54.55 54.75 54.75 55.25 55.30 54.93 55.17 55.73 56.27 56.53 56.60 56.61 56.75 56.49 56.46 56.70 57.23 57.55 57.88 57.92 57.72 57.78 57.88 58.22 59.07 59.44 60.24 60.27 59.91 60.25 60.52 60.64 60.61 61.01 61.16 61.24 61.56 61.73 61.67 61.63 61.55 61.59 61.80 62.09 62.46 62.74 63.48 64.14 63.91 63.61 63.29 63.14 63.16 63.50 63.83 64.09 64.26 64.52 63.98 63.84 64.51 65.30 65.72 65.56 65.81 66.45 67.26 68.24 68.81 69.10 69.49 69.56 69.12 68.67 68.38 67.60 65.20 62.43 62.34 64.09 68.75 71.00 71.31 71.56 71.99 72.52 71.91 72.93 73.96 74.64 74.78 75.19 75.71 76.33 76.78 77.18 77.51 77.30 77.63 77.70 77.03 72.82 69.42 68.23 68.42 68.52 68.58 68.64 68.44 67.82 66.93 66.59 66.31 66.16 65.49 66.05 64.37 65.34 65.95 64.36 64.76 65.10 65.54 65.51 65.89 66.70 66.81 67.24 67.51 67.70 67.94 68.31 68.44 68.71 69.13 69.34 69.59 69.80 70.01 70.29 70.54 71.21 71.68 72.12 72.35 72.69 73.22 73.67 73.88 74.24 74.73 75.26 76.56 78.48 79.55 80.32 80.98 81.76 82.41 82.89 83.03 83.35 83.74 84.21 84.78 85.37 84.72 83.95 83.91 84.03 83.73 83.80 84.55 85.07 85.32 85.67 86.19 85.73 86.57 88.43 89.54 90.43 91.07 91.36 91.44 91.65 90.81 89.39 86.86 84.16 82.31 81.29 80.57 79.87 79.59 79.46 78.69 78.62 78.41 78.20 77.96 77.61 77.26 76.90 76.45 76.25
41.58 42.04 42.33 42.48 42.62 42.60 42.70 42.67 42.52 42.47 42.29 42.17 42.13 41.88 41.79 41.50 41.38 41.40 41.26 41.12 40.89 40.63 40.55 40.74 40.78 40.90 41.00 40.93 40.65 40.68 40.65 40.54 40.32 40.26 40.22 40.07 39.96 39.87 39.80 39.66 39.59 39.63 39.65 39.57 39.53 39.56 39.44 39.16 39.08 39.08 39.00 39.29 39.30 39.30 38.95 38.60 38.77 38.89 38.97 38.78 38.27 37.89 37.64 37.43 37.18 37.12 37.38 38.04 38.14 37.44 36.98 36.42 34.98 33.42 32.78 33.92 35.57 36.55 36.61 37.06 36.96 36.79 36.92 37.05 37.08 37.64 37.91 37.98 37.95 38.02 38.18 38.29 38.23 38.09 37.84 37.76 38.16 38.16 38.14 37.97 38.33 39.00 38.98 38.75 38.85 38.94 39.02 39.00 38.95 39.03 39.11 39.05 38.81 38.60 38.76 39.46 40.25 40.04 38.90 30.78 26.52 26.50 26.75 27.37 25.23 25.66 26.40 30.23 36.89 38.49 38.82 39.41 39.10 37.04 31.49 31.24 34.21 37.60 39.43 39.61 39.87 40.04 40.17 40.06 40.22 40.17 40.53 40.51 40.75 40.63 40.51 40.66 40.88 40.98 41.21 41.33 41.59 41.93 42.10 43.28 43.25 42.59 42.14 42.26 42.41 42.62 42.70 42.89 42.91 43.05 43.64 44.07 43.56 44.11 44.59 45.17 45.86 47.09 48.81 49.97 50.72 51.63 52.27 52.96 53.63 54.04 53.76 54.09 53.88 53.64 53.67 53.60 54.00 54.57 55.18 55.32 55.35 55.69 56.01 55.59 55.67 56.15 56.54 56.83 57.14 57.37 57.91 58.44 58.83 58.97 59.17 59.44 59.20 59.33 58.62 58.15 58.57 59.08 60.05 60.27 60.69 60.70 60.56 60.69 61.53 61.44 61.36 61.37 61.61 62.00 62.29 62.45 62.46 62.27 62.20 62.21 62.79 63.09 63.38 63.98 64.34 64.71 64.98 64.41 63.75 63.67 63.86 64.08 64.47 64.69 64.88 65.14 64.40 64.25 64.49 65.16 66.18 66.28 66.22 66.88 67.92 69.24 69.74 69.94 70.27 70.34 69.66 68.88 66.62 64.33 62.55 61.47 61.82 63.28 67.40 71.07 72.11 72.45 72.56 71.59 67.99 69.00 73.31 75.12 75.62 75.76 76.05 76.91 77.38 77.83 77.82 77.50 78.33 78.42 78.24 74.39 69.72 67.68 67.35 67.31 67.00 66.98 66.65 66.32 65.93 65.81 65.67 65.50 65.55 66.58 64.69 65.02 64.61 64.32 64.55 64.64 64.95 65.48 65.88 66.49 66.83 67.37 67.69 67.94 68.13 68.40 68.83 68.99 69.15 69.29 69.49 69.67 70.01 70.24 70.68 71.35 71.94 72.32 72.48 72.87 73.47 74.03 74.28 74.52 74.89 75.50 76.22 77.75 79.63 80.84 81.44 81.89 82.64 83.46 83.80 83.99 84.32 84.71 85.15 85.41 85.32 85.15 85.39 85.71 85.25 84.46 84.64 85.50 85.96 86.39 87.09 86.91 86.83 88.01 89.20 90.34 91.10 91.57 91.75 91.69 89.75 87.59 85.16 83.32 82.20 81.28 80.43 79.81 79.66 79.24 78.84 78.25 78.04 77.95 77.46 77.05 76.63 76.54 76.04 75.83
41.64 42.02 42.41 42.63 42.93 43.07 43.19 43.11 42.95 42.88 42.91 42.83 42.62 42.30 42.20 41.81 41.69 41.67 41.47 41.35 41.09 40.79 40.83 41.07 40.92 41.03 41.12 40.98 40.84 40.81 40.80 40.79 40.52 40.48 40.51 40.44 40.28 40.22 40.03 39.93 39.87 39.76 39.81 39.72 39.65 39.67 39.52 39.39 39.36 39.44 39.33 39.43 38.97 38.96 39.05 39.03 39.12 38.97 38.89 38.64 38.28 38.06 38.11 37.82 37.51 37.39 37.59 37.98 37.95 37.29 35.42 34.93 35.41 35.60 33.36 32.99 33.68 34.28 35.34 36.84 37.34 37.26 37.14 37.20 37.19 37.44 37.99 37.96 37.95 38.10 38.26 38.23 38.08 38.23 38.18 38.11 38.17 38.26 38.40 38.36 38.59 38.93 39.17 38.91 38.89 39.11 39.05 38.94 39.03 39.04 38.94 38.98 38.83 38.71 38.81 39.90 40.28 40.36 39.62 30.61 26.50 26.50 26.58 27.78 26.15 26.89 27.06 28.35 35.84 38.85 39.24 39.21 39.58 38.37 32.40 31.67 33.24 36.41 39.24 39.95 40.29 40.41 40.35 40.28 40.39 40.34 40.57 40.63 40.87 40.86 40.74 41.65 43.56 42.20 41.57 41.38 41.65 42.90 42.56 42.75 42.38 41.99 42.22 42.20 42.56 42.73 42.74 42.89 43.05 43.30 43.63 43.43 43.46 44.00 44.42 44.97 45.55 46.06 47.43 48.98 50.37 51.81 52.07 52.83 53.61 54.23 54.05 54.15 54.46 54.49 54.56 54.42 54.81 55.14 55.51 55.54 55.55 55.71 56.18 56.17 56.45 56.58 57.00 57.49 58.07 58.28 58.01 58.45 58.66 58.96 59.10 59.07 57.50 57.45 56.55 57.12 58.10 59.53 60.30 61.07 61.69 61.70 61.50 61.55 61.92 62.05 62.22 61.90 62.03 62.48 62.76 63.16 63.04 63.02 62.82 63.06 64.05 63.90 64.26 64.70 65.03 65.27 65.51 65.26 64.33 64.05 64.61 64.84 65.29 65.19 65.48 65.34 64.72 64.65 64.96 64.98 65.65 66.21 66.57 67.16 67.94 68.91 69.86 70.80 71.15 70.96 69.61 66.38 63.54 62.09 61.44 61.08 61.57 62.50 64.30 69.24 72.56 73.30 71.75 67.59 65.25 66.11 70.59 74.46 75.19 74.42 72.38 74.80 77.22 77.48 75.91 75.73 78.62 79.13 78.45 74.08 69.30 67.51 66.77 66.51 66.26 66.07 65.68 65.53 65.28 65.19 64.82 64.97 66.06 66.03 64.07 63.81 63.94 64.44 64.86 65.08 65.08 65.55 66.08 66.49 67.01 67.52 67.74 68.17 68.39 68.61 68.96 68.95 69.04 69.24 69.58 69.93 70.15 70.35 70.70 71.50 72.00 72.29 72.58 73.03 73.53 74.15 74.31 74.67 75.22 75.78 76.49 77.09 78.92 80.97 82.11 81.87 82.22 83.13 84.16 84.53 84.96 85.36 85.87 86.39 86.06 86.16 86.60 86.92 86.66 85.47 85.17 86.14 86.67 87.15 87.90 87.88 87.62 87.77 89.27 90.42 91.18 91.61 92.04 92.13 90.65 88.59 85.87 83.36 82.03 81.18 80.51 79.84 79.68 78.74 78.51 77.99 77.72 77.47 77.12 76.88 76.38 76.06 76.09 75.82
41.73 42.03 42.34 42.58 43.01 43.35 43.46 43.50 43.39 43.22 43.39 43.44 43.19 42.79 42.48 42.20 42.11 42.16 41.84 41.57 41.38 41.12 40.97 41.26 41.08 41.13 41.35 41.23 41.04 40.98 40.95 41.01 40.92 40.82 40.71 40.66 40.47 40.38 40.28 40.18 40.13 40.09 40.03 39.88 39.86 39.71 39.59 39.53 39.60 39.62 39.53 39.39 39.13 38.98 38.93 39.29 39.35 38.86 38.70 38.52 38.33 38.20 38.27 38.17 37.78 37.41 37.81 37.91 37.76 36.69 34.70 35.96 36.78 36.84 35.70 33.24 32.94 33.38 33.73 34.21 35.85 36.84 37.16 37.32 37.64 37.84 38.05 37.97 38.10 38.16 38.14 38.12 38.10 38.21 38.58 38.13 38.08 38.37 38.69 38.67 38.59 38.84 39.28 39.11 38.93 39.01 39.05 39.08 39.11 38.98 38.90 38.99 38.97 38.79 38.91 39.68 40.13 40.48 39.73 30.77 26.61 26.61 26.64 27.64 27.72 27.52 27.69 27.61 32.56 38.70 39.50 39.66 40.18 38.81 32.84 32.55 34.23 36.12 38.84 40.18 40.48 40.57 40.54 40.48 40.49 40.55 40.61 40.76 41.04 41.05 40.98 42.75 46.36 45.54 44.66 43.07 42.19 42.42 42.49 43.18 42.39 41.98 42.23 42.30 42.66 42.60 42.72 42.91 43.05 43.53 43.49 43.34 43.47 43.92 44.39 44.69 45.32 45.98 46.83 47.72 49.10 50.49 50.94 51.58 51.96 52.28 51.89 51.51 53.34 55.18 55.40 55.06 55.20 55.48 55.82 55.90 55.83 56.20 56.64 56.79 57.56 58.16 56.61 55.33 54.83 55.48 56.67 56.54 56.97 58.09 58.31 56.90 54.82 54.40 54.22 55.39 56.50 57.94 58.19 59.94 61.42 61.98 62.00 62.24 62.67 62.66 62.58 62.62 62.60 63.07 63.49 63.73 63.72 63.56 63.60 64.03 64.70 64.56 65.24 65.73 65.57 65.89 66.07 65.97 65.29 64.62 65.44 65.99 65.98 65.57 65.87 65.49 65.08 65.24 65.69 65.68 65.80 65.89 65.54 66.27 67.55 67.85 69.00 71.28 71.77 71.47 69.35 64.49 62.45 61.17 60.55 60.79 61.03 61.72 62.88 66.42 72.26 74.00 70.18 65.15 64.10 64.30 66.71 69.00 69.14 68.38 65.92 67.99 71.34 70.60 69.91 72.66 78.46 79.81 78.43 72.37 68.44 66.87 66.09 65.87 65.70 65.52 65.12 65.03 64.73 64.25 64.22 64.95 66.01 64.46 64.38 64.15 64.24 64.82 65.58 66.03 65.91 65.64 65.88 66.50 66.96 67.65 67.82 68.04 68.58 68.95 69.19 69.36 69.27 69.36 69.63 70.38 70.46 70.66 70.92 71.48 72.04 72.49 72.87 73.19 73.55 74.04 74.36 74.85 75.55 76.06 76.63 76.97 78.25 80.12 80.69 80.48 80.90 82.31 83.78 84.77 85.43 86.05 86.70 87.01 86.89 87.49 88.12 88.36 87.21 86.33 86.32 87.46 87.90 88.11 88.70 89.04 89.07 88.20 89.15 90.25 90.97 91.44 92.16 92.45 90.66 88.05 87.07 83.60 81.83 81.00 80.31 79.54 79.04 78.59 78.34 78.04 77.75 77.60 77.17 77.05 76.67 76.11 75.70 75.18
41.76 42.03 42.30 42.68 43.11 43.43 43.57 43.68 43.69 43.58 43.75 43.82 43.60 43.25 42.93 42.67 42.40 42.29 42.17 41.93 41.77 41.54 41.04 41.09 41.12 41.36 41.56 41.49 41.47 41.33 41.34 41.42 41.43 41.33 41.13 41.02 40.82 40.70 40.55 40.52 40.48 40.41 40.30 40.10 40.06 39.90 39.84 39.86 39.82 39.76 39.76 39.52 39.37 39.26 39.10 39.43 39.28 39.17 38.90 38.66 38.48 38.41 38.24 38.19 37.77 37.74 37.92 37.44 36.87 35.68 36.23 37.28 37.31 37.08 36.63 34.67 34.15 34.96 34.84 34.30 33.32 35.58 37.32 37.62 37.81 37.98 38.00 37.97 38.15 38.25 38.09 38.24 38.35 38.46 38.62 37.93 38.04 38.44 38.69 38.78 38.75 38.88 39.09 38.99 39.00 39.01 39.03 39.09 39.10 39.12 39.05 38.99 39.09 38.86 38.89 39.42 39.99 40.18 37.82 30.19 26.98 26.98 27.04 28.25 28.68 28.69 28.74 28.54 30.33 36.72 39.80 39.86 40.35 38.82 32.31 32.08 33.02 35.58 39.61 40.88 40.62 40.69 40.77 40.65 40.57 40.71 40.86 40.89 41.10 41.11 41.13 43.39 45.34 45.99 45.68 43.34 42.86 42.75 42.23 42.94 42.93 42.43 42.49 42.45 42.67 42.63 42.75 42.72 43.00 43.49 43.56 43.59 43.73 43.62 44.12 44.62 45.24 46.01 46.66 46.85 47.48 48.19 48.75 48.91 49.16 50.01 50.51 50.44 50.58 53.98 55.23 55.04 55.05 55.53 56.00 56.42 56.77 56.98 57.14 57.15 57.80 56.91 55.14 54.39 53.86 55.92 57.80 57.05 55.00 57.45 57.33 54.49 52.98 53.00 53.63 54.42 54.81 56.26 58.70 59.84 61.13 62.00 62.31 62.57 63.07 63.13 63.25 63.36 63.40 63.62 63.93 64.42 64.46 64.32 64.21 64.72 64.92 65.35 66.17 66.38 66.20 66.65 67.01 67.14 67.03 66.20 66.11 66.17 66.16 66.56 66.32 65.65 65.55 65.83 66.52 66.35 65.80 65.35 64.62 64.74 67.18 66.74 66.92 70.74 72.08 72.18 69.35 64.20 62.23 60.81 59.98 60.14 60.20 60.57 62.03 64.23 69.69 73.97 69.19 64.05 63.20 63.15 63.60 64.40 64.64 65.11 64.77 64.94 65.81 66.56 67.29 69.75 76.43 79.46 77.10 70.24 67.07 66.09 65.55 65.33 65.17 65.04 64.76 64.28 63.73 63.49 63.67 64.28 65.25 63.80 64.66 64.56 65.09 66.29 67.30 67.88 66.98 66.37 66.32 66.76 66.92 67.58 67.88 68.26 68.71 68.81 68.90 69.29 69.58 69.70 69.83 70.22 70.64 70.93 71.32 71.69 72.22 72.63 72.92 73.30 73.42 73.93 74.48 74.96 75.91 76.48 76.74 77.36 78.07 78.66 78.86 79.68 81.13 82.90 84.00 85.39 86.04 86.54 87.13 87.63 87.84 88.59 89.18 88.91 87.54 86.88 87.23 88.55 88.53 88.63 89.63 90.03 90.12 88.72 88.83 89.91 90.60 91.56 92.44 92.44 90.09 86.24 84.95 82.97 81.74 81.11 80.30 79.53 79.02 78.76 78.55 77.90 77.64 77.44 77.21 76.93 76.71 76.42 75.89 75.38
41.88 42.10 42.36 42.69 43.07 43.45 43.66 43.84 43.93 43.93 44.17 44.23 43.95 43.50 43.28 42.98 42.69 42.42 42.32 42.31 42.15 41.74 41.34 41.23 41.35 41.66 41.75 41.78 41.80 41.81 42.01 42.25 42.13 41.84 41.70 41.50 41.33 41.11 40.84 40.83 40.81 40.65 40.45 40.33 40.26 40.17 40.22 40.26 40.14 39.94 40.07 39.72 39.48 39.27 39.13 39.23 39.21 39.41 39.30 38.99 38.67 38.50 38.33 38.18 38.14 38.08 37.77 37.58 37.48 36.08 37.10 37.99 37.50 36.99 36.64 35.01 34.37 35.96 36.30 35.79 33.64 35.12 36.75 37.47 37.53 37.74 37.85 37.93 38.18 38.14 38.13 38.52 38.42 38.79 38.84 38.57 38.27 38.57 38.80 38.91 38.91 38.82 38.88 39.00 39.14 39.17 39.17 39.15 39.15 39.25 39.27 39.17 39.25 38.93 38.86 39.19 39.38 39.04 36.13 29.38 27.00 27.00 27.09 27.74 28.55 29.09 29.60 29.03 29.85 33.01 38.90 40.29 40.00 37.56 31.60 31.75 33.60 36.55 39.55 40.76 40.72 40.76 40.80 40.63 40.63 40.82 40.90 40.85 41.10 41.24 41.26 41.85 42.88 43.86 43.79 42.72 43.66 44.65 43.38 43.52 43.82 42.90 42.68 42.81 42.74 42.79 43.39 44.37 43.88 43.35 43.43 43.60 43.61 43.68 43.94 44.72 45.44 45.98 46.57 46.32 46.77 47.14 47.48 47.66 48.14 48.90 49.55 50.04 50.27 52.80 54.38 54.42 54.87 55.91 56.54 57.14 57.44 57.10 57.03 57.27 57.11 55.89 55.19 54.46 54.14 56.30 57.89 54.91 52.83 55.41 54.95 52.59 51.98 52.58 53.27 53.55 54.70 57.78 61.18 61.29 61.70 62.39 62.77 63.06 63.55 63.99 64.24 64.08 64.12 64.16 64.65 65.10 65.35 65.64 64.94 65.38 65.50 66.06 66.45 66.69 66.82 67.12 66.91 67.34 67.44 67.22 67.15 67.26 67.25 67.31 66.85 65.53 65.22 66.23 67.01 66.58 65.69 65.07 64.23 63.12 64.78 64.82 64.98 69.62 72.30 72.84 70.04 65.15 63.46 61.63 59.91 59.31 59.13 59.55 60.96 62.29 64.85 70.55 67.26 62.59 61.85 61.90 62.29 62.58 62.44 63.09 63.28 63.67 64.46 65.18 65.88 66.78 70.43 71.93 69.58 66.78 65.91 65.48 65.08 64.71 64.64 64.59 64.06 63.33 63.00 63.18 63.64 64.45 65.04 63.75 64.36 65.15 66.76 67.78 68.26 68.88 68.24 67.64 67.60 67.30 67.00 67.26 67.91 68.38 68.55 68.89 69.37 69.02 69.19 69.57 69.87 70.06 70.54 70.97 71.28 71.88 72.39 72.75 73.17 73.76 73.94 74.38 74.59 74.88 75.60 76.35 77.28 78.01 78.51 79.27 79.21 80.27 82.62 83.91 84.82 85.61 86.36 87.04 87.73 88.47 89.04 89.54 89.58 88.91 87.86 87.90 88.87 89.62 89.63 89.89 90.70 91.03 90.76 89.77 89.25 89.84 90.86 91.97 92.80 91.73 88.63 85.17 83.62 82.41 81.51 80.89 80.23 79.57 79.15 79.01 78.55 78.00 77.80 77.41 77.28 76.72 76.29 75.79 75.40 75.32
41.85 42.08 42.45 42.69 42.95 43.30 43.72 43.94 44.19 44.33 44.43 44.55 44.47 43.94 43.52 43.13 42.92 42.61 42.30 42.31 42.17 41.91 41.71 41.63 41.74 41.98 41.93 42.04 42.11 42.32 42.72 43.12 43.26 42.81 42.37 42.16 41.85 41.57 41.29 41.23 41.08 40.95 40.69 40.58 40.43 40.44 40.40 40.36 40.20 40.22 40.19 39.91 39.75 39.67 39.65 39.21 39.29 39.54 39.28 39.11 38.95 38.55 38.42 38.37 38.31 38.03 38.04 38.05 37.01 36.48 37.91 38.28 37.61 37.06 36.46 36.03 34.81 35.66 36.52 36.05 33.67 35.08 36.70 37.14 37.50 37.75 37.84 37.96 38.21 38.30 38.41 38.47 38.45 38.56 38.94 39.24 38.43 38.55 38.71 39.01 39.02 38.93 38.90 39.08 39.26 39.48 39.34 39.27 39.33 39.32 39.37 39.28 39.24 39.05 38.77 38.49 38.02 36.48 35.06 29.57 27.06 27.25 27.43 27.52 27.96 29.25 30.10 29.54 29.05 31.28 37.92 40.36 39.82 38.41 32.61 31.14 34.06 36.89 39.14 40.73 40.81 40.81 40.79 40.64 40.87 41.06 41.05 40.80 40.90 41.12 41.20 41.47 41.73 41.72 42.11 42.40 42.44 43.06 43.02 43.55 44.15 42.91 42.76 42.99 42.94 43.21 44.68 46.10 44.12 43.22 43.31 43.47 43.91 44.80 44.94 44.55 45.25 45.69 45.50 46.01 46.95 47.11 47.27 47.59 47.98 48.69 49.01 49.41 50.47 51.68 52.52 53.42 55.47 57.03 57.28 57.04 57.20 57.23 57.28 57.45 57.07 56.57 56.80 55.10 54.63 56.22 57.29 53.13 52.15 52.48 52.07 51.63 51.76 52.22 53.25 53.92 55.04 58.06 60.62 62.21 62.75 63.17 63.21 63.57 64.12 64.72 65.22 65.19 64.37 64.50 65.10 65.64 66.24 66.74 66.18 66.43 66.19 66.73 67.24 67.56 67.84 67.61 67.03 67.51 68.31 68.30 68.24 68.50 68.19 67.43 66.52 65.48 65.87 66.28 66.12 66.16 65.73 65.10 64.18 62.87 61.28 61.27 62.81 66.52 70.49 72.41 71.91 66.46 64.44 62.47 59.55 58.61 58.04 58.50 59.36 59.88 61.43 64.02 62.75 60.91 60.83 60.64 60.72 61.70 61.36 62.09 62.77 63.08 63.54 64.02 64.64 64.81 65.27 65.62 65.35 65.20 65.16 64.99 64.86 64.40 63.69 63.93 63.32 62.77 62.98 64.00 64.69 65.37 65.67 64.08 64.52 65.87 67.18 68.10 68.68 69.28 69.07 68.83 68.93 67.84 67.38 67.34 67.80 68.41 68.73 68.96 69.24 69.34 69.54 69.69 70.17 70.31 70.60 71.02 71.40 72.02 72.51 73.03 73.47 74.05 74.36 74.63 74.92 75.29 75.95 76.60 77.43 78.27 78.90 79.34 79.70 80.26 82.85 84.27 84.82 85.14 86.15 87.22 88.15 89.03 89.85 90.06 90.08 90.23 89.72 89.34 90.00 90.23 90.65 90.58 91.47 91.77 90.95 90.59 90.20 90.02 91.11 92.40 93.19 91.79 89.19 85.16 83.32 82.20 81.27 80.59 80.18 79.77 79.52 79.05 78.81 78.28 78.10 77.61 77.27 76.63 76.14 75.92 75.96 75.58
42.29 42.70 43.52 42.94 43.01 43.36 43.74 44.06 44.42 44.65 44.80 44.94 44.98 44.41 43.79 43.39 42.99 42.70 42.51 42.30 42.12 41.97 41.89 41.79 42.04 42.26 42.58 42.92 42.88 43.17 43.34 43.66 43.72 43.64 43.26 42.78 42.27 42.01 41.69 41.51 41.24 41.07 40.85 40.73 40.65 40.65 40.58 40.47 40.33 40.48 40.29 40.08 40.04 40.05 39.92 39.66 39.50 39.78 39.43 39.12 39.11 38.92 38.64 38.56 38.46 38.32 38.25 37.82 36.73 37.81 38.31 38.20 37.93 37.52 36.98 36.55 35.35 35.22 36.34 35.73 33.46 34.50 36.49 37.45 37.77 37.81 37.84 37.88 37.77 37.91 38.05 38.31 38.68 38.44 38.85 39.64 38.83 38.37 38.64 38.86 39.03 38.99 39.07 39.22 39.38 39.53 39.47 39.44 39.51 39.45 39.47 39.43 39.43 39.41 38.80 37.95 36.38 35.15 33.76 29.95 27.68 27.49 27.50 27.50 27.55 28.39 29.59 29.21 28.41 29.28 34.94 39.12 39.73 38.67 34.61 31.10 32.38 32.47 36.48 40.76 41.02 40.87 40.86 40.80 40.88 41.08 41.00 40.84 40.96 41.20 41.29 41.47 41.74 41.82 41.99 42.21 42.07 42.24 42.60 43.31 43.69 43.15 43.35 43.64 43.62 43.97 44.44 44.45 44.03 43.70 44.16 44.68 44.72 45.37 46.04 46.12 45.57 45.51 45.42 45.89 46.66 47.01 46.79 47.17 47.43 47.58 48.02 48.56 49.43 49.83 50.13 51.45 55.39 57.08 57.25 57.34 57.47 57.75 57.71 57.55 57.40 57.71 57.61 56.39 55.68 57.14 57.69 53.18 52.11 51.58 50.93 51.19 51.67 52.14 53.48 54.19 55.04 56.61 59.10 62.65 63.57 63.88 63.79 64.02 64.46 64.97 65.91 65.97 64.98 65.28 65.70 66.10 66.97 66.94 66.77 66.35 65.85 66.87 67.80 68.01 67.74 67.72 67.39 67.76 69.14 69.17 69.12 68.84 67.83 66.58 65.84 64.65 64.51 65.29 65.47 66.03 65.93 65.49 64.66 63.75 61.38 59.86 60.76 62.40 63.83 66.13 66.75 63.37 61.22 59.86 58.96 58.26 57.61 57.39 57.78 57.76 58.40 59.22 59.17 59.31 59.54 59.88 60.03 60.99 60.69 61.07 61.78 61.91 62.48 62.97 63.39 63.58 63.81 64.15 64.12 64.26 64.47 64.50 64.75 64.11 62.99 63.32 62.75 62.68 63.57 64.79 65.20 65.69 66.03 64.85 65.14 66.63 67.46 68.33 69.20 69.85 69.77 69.85 69.74 68.52 67.88 67.64 67.72 68.19 68.81 69.09 69.38 69.66 69.96 70.19 70.44 70.64 70.67 71.16 71.67 72.26 72.73 73.16 73.78 74.33 74.92 75.15 75.57 76.13 76.61 77.15 77.91 78.71 79.41 79.72 80.27 80.51 81.45 82.75 83.75 85.25 86.66 87.58 88.42 89.33 90.22 90.75 90.83 91.19 91.14 90.69 91.37 91.58 91.95 91.58 91.59 92.27 91.70 91.53 91.00 90.68 91.27 92.49 93.31 92.45 89.46 84.86 82.99 81.99 81.16 80.64 80.20 79.96 79.62 79.09 78.89 78.40 78.10 77.54 77.11 76.82 76.53 76.40 75.81 75.71
42.32 42.48 43.03 43.00 43.01 43.33 43.64 44.14 44.57 44.88 45.11 45.29 45.40 45.04 44.32 43.64 43.20 42.84 42.57 42.35 42.24 42.18 42.08 41.86 42.18 42.53 43.53 43.07 42.84 43.25 43.81 44.14 44.15 44.11 43.89 43.43 43.01 42.50 41.90 41.72 41.43 41.18 40.89 40.74 40.80 40.84 40.93 40.82 40.55 40.51 40.18 40.18 40.19 40.03 39.84 40.08 39.80 39.72 39.43 39.22 39.03 38.90 39.14 38.90 38.72 38.51 38.17 36.87 37.26 38.43 38.58 38.37 38.12 38.06 37.42 36.12 35.58 35.30 36.00 35.30 33.31 34.27 36.06 36.56 36.39 36.69 36.98 37.52 37.43 37.74 38.18 38.32 38.36 38.33 38.72 39.22 39.01 38.58 38.69 38.75 38.90 38.92 39.34 39.34 39.42 39.48 39.61 39.58 39.49 39.49 39.56 39.63 39.48 39.36 38.85 38.08 36.54 36.31 34.77 33.16 29.22 27.53 27.50 27.58 27.77 27.97 28.28 28.36 28.48 28.94 31.89 37.52 39.63 39.15 36.72 31.93 32.04 29.57 32.11 39.96 41.16 41.08 40.98 40.82 40.81 41.21 41.05 40.88 41.04 41.33 41.55 41.52 41.62 41.89 41.93 41.72 41.74 42.46 43.27 43.86 44.04 43.25 43.03 43.16 43.21 43.29 43.73 44.10 43.89 44.22 45.16 45.64 45.91 45.95 46.68 46.45 46.47 46.23 45.46 45.44 46.03 46.22 46.32 46.94 46.92 46.98 47.50 48.02 48.52 48.75 49.60 51.16 55.10 57.19 57.41 57.73 57.86 58.20 58.21 57.91 57.45 58.04 58.24 57.79 57.50 57.00 54.97 53.56 52.45 51.31 50.78 51.14 51.53 51.81 52.41 53.42 54.74 56.25 58.75 62.02 64.33 64.32 64.39 64.42 64.81 65.56 66.71 66.46 65.62 66.02 66.41 66.82 67.83 67.81 67.61 66.10 65.34 67.01 67.82 68.05 67.65 67.95 67.76 68.15 69.05 69.13 68.70 68.08 67.02 65.52 65.39 63.81 63.53 64.91 65.67 66.38 66.44 65.94 64.87 63.39 61.55 59.51 58.97 59.91 60.63 60.97 60.76 59.96 58.96 57.74 56.93 56.79 56.41 56.22 56.88 57.32 57.23 57.76 57.91 58.32 58.54 59.03 59.40 59.70 59.90 60.44 61.14 61.56 61.88 62.17 62.59 62.92 63.09 63.50 63.66 63.84 64.03 64.21 64.61 64.08 63.11 62.51 62.66 63.25 64.35 65.13 65.45 66.20 66.64 66.05 66.26 67.64 68.10 68.48 69.28 70.57 70.56 70.70 69.92 68.70 68.13 68.42 68.23 68.14 68.68 69.20 69.38 69.52 69.86 70.16 70.47 70.93 71.16 71.34 71.82 72.51 73.27 73.66 74.17 74.65 75.40 75.57 75.91 76.76 77.16 77.43 78.65 80.14 80.74 80.72 81.42 81.73 81.66 82.97 84.52 86.16 87.55 88.48 89.11 89.88 90.79 91.51 91.87 92.35 92.05 91.70 92.64 92.79 93.06 92.71 92.24 92.62 92.53 92.17 91.66 91.69 91.75 91.71 92.29 89.76 86.43 83.99 82.82 82.08 81.37 80.83 80.57 80.18 79.91 79.36 78.94 78.55 77.79 77.38 77.05 77.01 76.58 75.94 75.70 75.78
42.35 42.57 42.82 43.05 43.20 43.54 43.80 44.12 44.32 44.61 44.93 45.40 45.58 45.39 44.77 43.96 43.37 43.03 42.82 42.63 42.41 42.19 42.24 42.07 42.30 42.92 43.47 43.04 43.26 43.68 44.21 44.57 44.84 44.81 44.53 43.97 43.54 43.04 42.58 42.21 41.67 41.32 41.01 40.91 40.91 40.96 41.15 41.12 40.74 40.61 40.25 40.17 39.91 39.83 40.19 40.40 40.15 39.33 39.29 39.29 38.98 38.88 39.11 39.24 39.08 39.54 39.15 36.94 38.03 38.73 38.63 38.28 38.34 38.15 37.23 36.27 36.14 36.13 36.59 35.88 34.17 34.98 36.83 37.22 37.06 37.35 36.59 36.30 35.91 36.71 37.43 37.93 38.00 38.03 38.25 38.64 38.96 38.66 38.62 38.76 38.87 38.92 39.32 39.49 39.48 39.64 39.71 39.70 39.67 39.66 39.81 39.66 39.51 39.21 37.63 37.25 37.25 36.93 36.09 36.34 31.23 28.17 27.75 27.92 27.99 28.01 28.19 28.46 28.50 28.59 29.85 34.94 38.89 39.54 37.42 32.56 32.26 31.75 33.93 39.41 41.05 41.11 40.89 40.67 40.73 41.12 41.19 41.04 40.87 41.00 41.15 41.43 41.55 41.60 41.53 41.20 41.07 42.09 42.81 43.50 44.14 43.43 43.11 42.93 43.04 43.04 43.06 43.75 44.38 44.93 45.81 46.11 46.48 46.37 46.02 46.48 46.40 45.88 45.66 45.93 46.90 46.82 46.39 46.99 46.75 46.79 47.07 47.15 47.51 47.68 48.30 49.73 52.29 53.85 55.45 56.51 56.89 57.25 57.65 57.41 54.85 54.91 56.10 57.81 58.44 57.15 57.16 56.37 53.38 50.89 50.36 50.87 51.35 51.51 52.08 53.26 54.36 55.97 58.20 61.78 64.94 64.95 64.97 64.89 65.23 65.88 66.59 66.49 66.26 66.46 66.88 67.95 68.75 68.46 67.87 65.81 65.01 67.00 67.81 68.01 67.85 68.23 68.06 68.19 68.20 68.20 67.51 67.25 66.78 65.51 64.11 62.38 63.73 65.19 65.91 66.54 66.69 66.13 64.90 63.40 62.13 60.35 58.65 58.29 58.08 57.86 57.69 57.39 56.68 56.10 56.00 56.00 56.00 56.00 56.46 56.69 56.77 57.18 57.44 58.03 58.30 58.67 58.85 59.24 59.65 60.06 60.53 60.96 61.35 61.53 61.81 62.48 62.61 63.00 63.30 63.74 63.92 63.89 64.10 63.89 63.06 62.56 63.72 64.30 65.04 65.58 66.00 67.13 67.30 66.93 66.82 67.66 68.60 69.08 69.67 70.23 70.60 70.85 69.71 68.76 68.50 68.59 68.72 68.66 68.66 69.19 69.52 69.70 70.11 70.27 70.56 70.87 71.31 71.63 72.19 72.77 74.24 74.98 74.68 75.02 75.80 76.05 76.55 77.48 77.68 78.14 80.07 81.93 82.41 82.33 82.88 83.62 83.00 83.54 84.89 86.55 87.71 88.89 89.92 90.73 91.49 92.17 92.86 93.27 93.20 93.07 93.88 93.97 93.93 93.75 93.08 93.12 92.71 91.92 91.27 91.67 92.20 90.54 90.23 87.29 84.70 83.53 82.78 82.25 81.66 81.34 81.23 80.50 79.99 79.35 78.87 78.63 77.95 77.53 77.24 76.91 76.27 76.04 76.07 75.97
42.30 42.70 42.99 43.21 43.37 43.60 43.96 44.27 44.48 44.63 44.98 45.22 45.34 45.39 45.03 44.23 43.61 43.18 42.96 42.69 42.38 41.97 41.95 42.13 42.54 42.95 43.22 43.33 43.59 44.15 44.77 44.99 45.22 45.15 44.81 44.50 44.02 43.55 42.98 42.58 42.10 41.63 41.19 40.90 40.96 41.04 41.09 41.15 40.86 40.64 40.31 40.16 40.00 40.21 40.29 39.96 39.88 39.65 39.27 39.31 39.09 39.16 39.20 39.11 39.19 40.29 38.85 37.97 38.88 38.84 38.30 38.05 37.49 37.71 37.83 37.20 36.64 36.43 36.78 36.54 34.86 36.02 36.35 36.81 37.34 37.44 37.44 37.39 36.52 36.53 37.03 37.55 37.66 37.47 37.66 38.19 38.74 38.64 38.77 38.78 38.77 38.80 39.05 39.56 39.71 39.70 39.57 39.63 39.73 39.79 39.91 39.72 39.62 39.26 38.69 38.99 38.21 36.99 36.51 37.12 33.09 29.90 28.39 28.02 28.00 28.16 28.45 28.50 28.50 28.52 28.95 31.33 37.21 38.73 36.15 33.72 31.84 32.38 33.27 36.47 40.43 41.14 40.77 40.70 40.75 41.00 41.22 41.14 41.00 41.14 41.82 41.97 41.64 41.47 41.30 40.95 40.86 41.60 42.03 43.00 43.87 43.25 43.21 43.43 43.52 43.23 43.44 44.01 44.53 45.31 46.00 45.69 46.15 46.56 45.79 46.61 47.68 47.45 46.39 46.10 46.53 46.03 45.98 46.07 46.14 46.47 46.72 46.46 46.35 46.39 46.86 47.99 49.10 49.59 49.65 50.28 51.87 52.93 53.53 54.49 53.16 52.74 52.75 55.12 56.24 55.83 57.69 55.01 51.88 51.14 51.12 50.54 50.97 51.28 51.91 52.96 54.17 55.95 59.14 63.85 65.46 65.30 65.48 65.65 65.83 66.30 66.81 67.00 66.93 66.95 67.23 67.96 68.79 68.52 68.00 65.55 63.85 66.40 67.58 67.82 68.09 68.34 68.48 68.28 68.02 66.79 65.20 65.09 64.13 62.72 61.04 61.40 64.04 65.71 66.51 67.09 67.38 66.83 65.69 64.56 63.58 61.77 60.32 58.98 56.87 56.01 56.00 56.00 56.00 56.00 56.00 56.00 56.00 56.00 56.08 56.10 56.62 56.38 56.66 57.69 58.25 58.55 58.72 59.06 59.47 59.64 59.85 60.26 61.01 61.04 61.23 62.23 62.41 62.68 63.17 63.88 63.70 63.50 63.42 63.31 62.25 62.93 64.32 64.94 65.66 66.19 66.45 67.70 68.26 67.60 67.55 68.02 68.84 69.32 69.93 70.29 70.85 70.71 69.80 68.95 68.69 68.70 68.92 69.08 69.14 69.47 70.23 70.28 70.56 70.68 70.86 71.28 71.70 71.78 72.34 73.06 74.62 75.96 76.19 75.78 76.33 76.55 77.00 78.02 78.59 79.31 81.32 82.86 83.65 83.68 83.46 84.53 85.04 84.60 85.18 86.32 87.84 89.33 90.56 91.43 92.28 93.06 93.72 94.25 94.24 94.07 94.96 95.10 94.86 94.58 93.86 93.50 92.57 91.31 90.28 90.69 91.98 90.32 88.35 86.57 84.70 83.60 83.07 82.53 81.71 81.28 81.11 80.49 79.95 79.42 78.74 78.37 78.13 77.75 77.03 76.91 76.36 76.43 76.44 76.21
42.42 42.77 43.06 43.38 43.63 44.01 44.32 44.59 44.87 45.03 45.25 45.32 45.27 45.10 44.84 44.34 43.75 43.35 43.31 42.89 42.52 42.02 41.93 42.34 42.88 43.28 43.34 43.67 43.85 44.40 45.02 45.33 45.58 45.49 45.08 44.81 44.35 43.79 43.07 42.86 42.44 41.92 41.24 41.00 41.14 41.17 41.11 40.90 40.65 40.82 40.64 40.29 40.56 41.19 40.53 40.18 40.21 39.95 39.63 39.44 39.14 39.34 39.36 39.14 38.98 38.90 38.17 38.64 38.85 39.00 38.52 38.44 37.95 38.15 38.27 38.05 37.18 36.69 36.89 36.57 34.14 34.78 36.43 36.64 37.22 37.66 37.73 37.71 37.83 38.25 37.49 35.90 36.63 37.15 37.13 37.35 38.21 38.53 38.68 38.75 38.70 38.84 38.96 39.18 39.67 40.39 40.13 39.76 39.69 39.84 40.00 39.85 39.66 39.45 39.39 39.30 38.96 38.18 38.16 37.62 36.92 33.06 29.96 28.44 28.13 28.43 28.50 28.50 28.50 28.57 28.94 29.45 33.93 39.07 38.94 37.69 34.04 32.24 31.67 34.83 40.30 41.14 40.85 40.73 40.13 40.42 41.06 41.28 41.21 41.53 43.01 43.54 42.53 41.73 40.91 40.69 41.31 41.71 41.93 42.87 44.15 43.03 43.02 43.69 43.92 44.01 44.51 43.59 43.73 44.21 45.77 45.72 45.90 46.18 46.36 46.32 47.14 47.24 46.49 45.80 46.18 45.74 45.66 45.87 46.21 46.39 46.50 46.17 45.96 46.01 46.36 46.88 46.78 46.25 46.71 47.63 49.19 49.74 50.93 52.52 51.74 50.84 50.69 51.30 52.00 52.21 52.50 50.65 50.17 51.03 50.64 50.21 50.59 51.04 51.71 52.65 53.91 55.71 59.13 63.89 65.57 65.78 66.14 66.05 66.11 66.59 67.29 67.79 67.48 67.56 67.81 68.11 68.83 68.67 67.88 64.54 61.39 64.74 67.34 68.08 69.34 69.73 69.97 69.29 68.16 65.33 61.63 60.13 59.81 58.80 59.71 63.50 65.45 66.32 67.06 67.74 68.00 67.50 66.55 65.28 64.64 63.43 61.66 59.62 57.95 56.12 56.00 56.00 56.00 56.00 56.00 56.00 56.00 56.00 56.00 56.10 56.32 56.46 56.53 56.87 57.28 58.00 58.29 58.49 58.89 59.33 59.68 59.95 60.40 60.63 60.93 62.01 62.24 62.37 62.81 63.56 63.51 63.17 63.14 62.45 62.17 63.16 64.36 65.07 65.89 66.64 67.31 68.23 69.06 68.31 68.14 68.45 69.07 69.62 70.14 70.73 71.53 71.22 70.22 69.15 68.86 68.82 69.06 69.33 69.54 69.67 70.26 70.68 70.79 70.98 71.33 71.90 72.28 72.42 72.81 73.96 75.55 76.77 77.67 76.41 76.48 77.23 77.79 78.65 79.27 80.12 81.96 83.15 84.36 84.92 84.75 84.75 86.33 86.55 86.56 87.25 88.59 90.21 91.20 92.13 93.07 93.94 94.47 94.93 95.05 95.23 95.59 95.85 95.58 95.06 94.15 93.20 91.94 90.59 89.57 89.10 90.12 89.10 86.80 85.83 84.64 83.85 83.30 82.75 82.00 81.40 81.31 80.77 80.02 79.43 78.72 78.38 77.97 77.58 77.38 77.03 76.60 76.68 76.76 76.56
42.65 42.76 43.16 43.57 43.90 44.29 44.62 44.99 45.26 45.40 45.41 45.48 45.38 45.01 44.63 44.29 43.78 43.58 43.40 42.87 42.46 42.26 42.35 42.58 43.08 43.48 43.67 44.09 44.35 44.93 45.47 45.80 45.88 45.57 45.09 44.72 44.55 43.95 43.15 42.97 42.54 41.84 41.33 41.30 41.40 41.38 41.12 41.01 40.71 40.69 40.84 40.58 40.58 40.83 40.80 40.32 40.24 40.16 39.78 39.57 39.37 39.57 39.62 39.40 39.09 38.42 38.98 39.51 39.24 39.12 38.79 38.44 38.34 38.56 38.76 38.62 37.84 37.15 37.04 37.13 35.47 33.46 34.58 36.39 37.29 37.69 37.82 37.90 37.56 37.70 37.68 35.41 35.66 37.40 37.80 37.65 37.41 38.09 38.40 38.75 38.72 38.68 38.84 38.95 39.65 41.58 40.45 40.02 39.91 39.96 40.17 40.20 40.02 39.91 39.79 39.63 39.68 39.57 39.31 37.90 39.03 38.45 34.05 29.94 28.62 28.50 28.50 28.56 28.75 28.82 28.98 29.10 31.37 37.88 40.26 39.74 38.08 33.46 32.73 35.09 38.10 39.54 38.35 38.20 37.94 39.32 40.55 41.34 41.60 41.66 42.48 44.42 44.47 41.12 39.87 40.93 41.81 42.22 42.53 43.36 44.16 42.87 43.15 44.75 44.62 45.12 44.93 43.40 43.46 44.13 45.94 46.13 46.56 46.96 46.98 46.33 46.83 46.61 45.68 45.01 45.28 46.17 45.81 45.93 46.20 46.19 45.71 45.87 45.92 45.89 45.94 46.65 46.75 45.91 45.12 45.41 46.60 47.53 48.55 49.30 49.14 48.90 49.00 48.87 49.04 49.28 49.19 49.20 49.49 49.77 49.80 49.99 50.37 50.89 51.73 52.51 53.67 55.96 59.89 64.57 65.83 66.17 66.57 65.96 63.73 65.24 67.29 67.78 67.75 67.99 68.32 68.35 67.52 67.64 65.68 60.45 59.34 62.12 65.58 68.64 71.02 71.49 71.24 70.01 67.83 63.26 58.85 56.81 56.63 57.01 59.89 63.07 66.26 67.19 67.63 68.53 68.57 67.95 67.05 66.41 65.70 64.79 62.12 58.66 57.12 56.04 56.00 56.00 56.00 56.00 56.00 56.00 56.00 56.05 56.35 56.90 57.24 57.54 57.55 56.40 56.11 56.44 57.13 57.22 57.53 58.94 59.29 59.71 60.12 60.63 60.80 61.28 61.77 61.94 62.64 62.85 62.89 62.31 61.95 61.81 62.75 63.59 64.55 65.20 66.10 66.96 67.78 68.57 69.12 68.70 68.57 68.80 69.53 70.31 70.82 71.42 72.01 71.77 70.73 69.33 69.02 69.03 69.24 69.52 69.76 69.69 70.02 70.81 71.28 71.59 71.79 72.54 72.94 73.16 73.13 74.44 76.36 77.71 78.62 78.24 77.28 77.95 78.93 80.53 81.12 81.14 81.91 83.60 84.89 85.81 85.81 85.48 87.15 88.31 88.30 89.06 89.42 90.77 92.08 93.01 93.70 94.68 95.01 95.49 95.81 96.14 96.47 96.54 95.96 94.93 93.87 92.99 91.88 90.36 88.78 87.92 87.68 86.97 86.01 85.51 84.79 83.94 83.42 82.93 82.34 81.53 81.41 80.82 79.80 79.79 79.09 78.63 78.24 77.86 77.30 77.09 76.91 77.09 77.27 77.08
43.01 42.86 43.08 43.62 44.12 44.60 44.84 45.19 45.44 45.65 45.73 45.71 45.58 45.15 44.74 44.43 44.09 43.79 43.46 42.98 42.48 42.33 42.70 42.91 43.32 43.81 44.14 44.52 44.94 45.47 45.98 46.09 45.79 45.15 44.49 44.22 44.10 43.73 43.15 42.60 42.21 41.85 41.67 41.61 41.56 41.52 41.23 41.10 40.89 40.79 40.67 40.46 40.62 41.02 41.17 40.76 40.29 40.17 39.84 39.49 39.56 39.83 39.92 39.52 39.14 38.40 38.94 39.50 39.75 39.42 39.08 38.58 38.43 38.80 38.87 39.09 39.19 37.86 37.35 37.51 37.53 35.90 34.83 34.83 37.12 37.73 37.78 37.92 37.90 38.06 37.79 37.18 35.09 36.59 37.89 38.33 38.16 37.89 37.96 38.42 38.72 38.98 38.89 38.85 39.07 40.72 40.86 40.04 40.15 40.07 40.20 40.32 40.29 40.27 40.22 40.05 39.93 39.74 39.25 37.76 39.04 40.06 37.36 33.37 30.02 28.61 28.54 28.81 28.99 29.00 29.07 29.36 30.88 36.05 40.05 40.27 39.48 37.11 34.50 33.00 33.03 33.62 33.83 33.43 33.40 34.23 36.14 38.66 40.13 40.17 41.19 44.67 45.17 39.86 38.65 39.65 41.49 42.69 43.05 43.61 43.21 42.67 43.17 44.21 44.33 44.64 44.15 43.55 43.73 44.61 45.93 46.48 46.57 46.59 46.59 46.28 46.24 45.86 44.94 44.14 44.22 45.14 45.48 45.57 45.63 44.47 43.68 44.69 45.91 45.59 45.84 46.70 46.22 46.36 46.42 46.32 46.85 47.31 47.56 47.78 47.79 47.91 48.14 48.29 48.45 48.57 48.75 48.89 49.08 49.29 49.64 49.83 50.81 52.51 52.44 52.54 54.30 58.33 62.80 65.95 66.55 66.60 66.95 65.79 61.70 63.09 67.29 68.18 68.26 68.42 68.66 68.69 64.70 62.34 61.17 56.82 57.89 60.57 64.03 69.40 71.16 71.96 71.51 68.52 63.34 58.91 56.75 56.05 56.18 57.49 58.85 60.26 63.38 65.20 67.66 68.96 69.16 68.70 67.67 67.40 66.70 65.27 59.84 56.28 56.01 56.00 56.00 56.00 56.00 56.00 56.00 56.00 56.01 56.15 57.01 57.68 57.77 57.76 57.72 57.00 56.94 57.58 58.62 58.49 57.97 59.15 59.31 59.57 60.02 60.22 60.15 60.33 60.61 60.99 61.62 61.69 61.58 61.26 61.34 61.66 62.38 63.51 64.92 65.75 66.46 67.53 68.14 68.74 69.14 69.15 69.25 69.33 69.93 70.81 71.24 71.80 71.90 71.53 70.58 69.60 69.44 69.43 69.34 69.68 69.98 70.15 70.53 70.93 71.61 72.01 72.15 72.80 73.33 73.65 74.07 75.58 77.36 78.63 79.77 80.01 79.24 79.64 80.79 81.19 82.15 82.04 82.63 83.59 85.21 86.35 86.75 86.71 87.55 89.15 89.84 90.38 90.63 91.46 92.61 93.64 94.47 95.37 96.04 96.35 96.73 97.12 97.28 96.65 95.67 94.51 93.25 92.57 91.83 90.28 88.58 87.55 87.10 86.39 85.76 85.30 84.89 84.32 83.60 83.07 82.38 81.62 80.87 80.54 79.97 80.07 79.38 78.69 78.27 78.16 77.57 77.38 77.32 77.50 77.37 77.51
43.28 43.10 43.05 43.56 44.16 44.69 45.01 45.37 45.61 45.90 45.98 45.86 45.69 45.44 44.91 44.48 44.20 43.82 43.43 42.96 42.60 42.64 42.94 43.01 43.49 44.08 44.52 44.88 45.35 45.92 46.10 45.46 44.87 44.40 43.67 43.29 43.06 42.87 42.55 42.38 42.14 42.13 42.06 41.89 41.70 41.58 41.37 41.18 40.81 40.85 40.79 40.59 40.68 41.43 41.65 41.06 40.27 40.01 39.80 39.79 39.84 39.77 39.70 39.57 39.55 38.94 39.08 39.57 39.60 39.46 39.42 38.75 38.52 38.93 38.98 39.24 39.47 38.19 37.70 37.82 37.79 37.46 36.84 34.23 36.06 36.95 37.53 37.99 38.23 38.35 37.82 37.84 36.72 36.43 37.81 38.39 38.49 38.59 38.59 38.68 38.77 38.86 38.68 38.91 39.15 40.20 41.05 40.68 40.64 40.42 40.17 40.11 40.29 40.41 40.20 39.93 39.71 39.31 38.87 38.39 39.41 40.26 39.14 37.24 32.22 30.43 29.09 28.99 29.02 29.39 30.69 31.03 31.04 33.43 37.99 40.59 40.45 40.30 39.40 36.43 34.80 35.36 37.32 37.91 36.13 35.88 35.74 35.06 35.52 37.46 39.74 43.26 41.06 37.92 37.67 37.53 38.70 40.36 42.48 43.03 42.94 43.12 43.24 43.19 43.73 45.39 45.97 43.96 43.98 44.40 45.16 46.12 46.77 46.95 46.74 46.21 45.70 45.02 44.94 45.01 44.48 44.09 44.05 43.85 43.44 43.32 43.88 44.87 45.58 45.91 46.21 46.01 45.83 45.96 46.47 46.71 46.76 47.19 47.39 47.22 47.50 47.73 47.97 48.20 48.34 48.45 48.61 48.97 48.98 49.19 49.42 49.62 51.01 52.61 52.06 52.85 55.35 59.72 64.84 66.71 66.85 67.02 66.86 65.51 60.67 61.19 66.19 67.91 66.89 68.40 69.12 68.31 61.71 56.95 55.07 53.68 55.15 57.18 62.18 69.19 71.40 72.50 71.58 68.13 60.81 56.71 56.35 56.04 56.15 56.83 57.10 57.80 58.94 61.77 67.79 69.56 69.70 68.83 68.10 68.33 66.63 61.25 56.79 56.01 56.00 56.00 56.00 56.00 56.00 56.00 56.01 56.17 56.63 57.36 58.09 58.88 58.90 58.75 58.58 58.41 58.55 58.82 59.10 59.61 59.99 60.03 59.87 59.63 60.01 60.21 60.35 60.95 61.26 61.13 61.11 61.23 61.32 62.06 62.53 61.96 62.62 63.54 65.23 66.38 66.93 68.11 68.60 68.99 69.38 69.58 69.85 70.08 70.42 70.67 71.21 71.31 70.73 70.22 69.79 69.66 69.59 69.59 69.97 70.49 70.46 70.32 70.75 71.10 71.59 72.59 72.91 73.41 73.79 74.13 74.54 76.17 77.78 79.44 80.60 81.35 81.08 81.21 81.94 81.94 82.54 82.88 83.07 83.52 85.13 86.46 87.35 87.82 88.34 89.42 90.54 91.35 91.68 92.46 92.73 94.02 95.19 95.94 96.56 97.07 97.49 97.72 97.41 96.53 95.65 94.35 92.67 91.29 90.49 89.43 88.50 87.70 86.91 86.28 85.81 85.19 84.66 84.06 83.26 82.73 82.31 81.55 80.87 80.68 79.93 79.61 79.33 79.12 78.59 78.25 78.03 77.89 77.85 77.92 77.71 77.83
43.56 43.36 43.15 43.56 44.11 44.55 44.99 45.32 45.72 46.05 46.23 46.21 46.02 45.72 45.12 44.56 44.18 43.89 43.46 43.19 42.94 42.78 42.89 43.08 43.76 44.27 44.70 45.13 45.68 45.93 45.63 44.58 43.88 43.56 43.33 43.11 42.71 42.35 42.25 42.25 42.42 42.46 42.36 42.05 41.86 41.71 41.57 41.31 40.99 41.05 40.95 40.65 41.05 41.93 41.76 40.93 40.37 40.19 40.15 40.19 40.03 39.76 39.70 39.66 39.53 39.22 39.52 39.59 39.57 39.28 39.36 39.29 38.92 39.11 39.13 39.26 40.08 39.24 38.05 38.10 37.92 37.88 36.85 34.57 36.10 36.56 36.96 37.80 38.30 38.22 37.97 38.15 37.84 37.55 37.77 38.00 38.28 38.53 38.97 38.96 39.04 39.03 38.60 39.11 40.10 40.44 40.42 40.94 41.31 40.53 40.08 40.35 40.76 40.88 40.31 40.04 39.70 39.08 38.55 39.31 40.43 40.43 40.34 38.41 34.66 33.88 30.87 29.21 29.72 30.64 31.81 31.75 30.94 31.53 34.66 39.16 40.86 40.69 40.45 39.90 39.56 38.47 38.20 40.03 40.06 40.60 40.85 39.66 37.29 36.97 37.49 38.18 38.12 39.50 39.58 39.35 39.46 38.71 39.30 40.56 41.96 42.89 42.70 42.64 42.92 44.14 44.90 43.62 43.64 43.89 44.77 45.97 46.36 46.97 46.94 46.14 45.21 44.04 45.02 45.93 45.56 45.39 44.83 45.14 45.08 45.35 45.82 46.00 45.92 46.35 46.34 46.05 46.04 46.20 46.32 46.40 46.64 47.72 47.89 47.21 47.43 47.74 47.93 48.09 48.14 48.44 48.62 48.67 48.95 49.16 49.27 49.63 50.45 51.98 51.51 53.34 56.95 60.53 64.49 64.08 63.77 63.97 62.06 59.65 57.14 57.04 58.97 61.22 60.84 63.38 66.07 66.56 57.25 55.32 53.38 51.32 51.31 52.53 56.87 65.09 69.98 71.77 71.40 65.97 58.15 56.44 56.15 56.00 56.00 56.00 56.03 56.16 56.43 58.61 65.22 68.52 69.06 66.60 65.08 65.03 60.63 56.53 56.00 56.00 56.00 56.00 56.00 56.00 56.00 56.01 56.39 57.49 58.32 58.88 59.50 59.92 60.04 60.10 59.88 59.20 59.23 59.63 60.22 60.89 61.10 61.31 61.25 60.41 60.62 61.35 61.52 61.68 61.77 62.08 62.31 62.16 62.39 63.19 63.32 62.40 62.94 63.66 65.11 66.49 66.96 68.07 68.89 69.39 69.52 69.89 70.18 70.84 71.31 70.88 70.59 70.38 70.13 69.73 69.53 69.58 69.81 69.91 70.40 70.60 70.73 70.72 70.91 71.47 72.15 72.98 73.15 73.37 73.80 74.42 75.45 76.38 77.51 79.20 80.68 81.75 82.31 82.54 82.83 83.21 83.49 84.20 84.33 84.62 85.26 86.45 87.72 88.78 89.58 90.41 91.17 92.27 92.75 93.45 93.69 94.62 95.52 96.39 96.82 97.53 97.97 98.06 97.34 96.89 96.07 94.89 93.25 90.85 89.97 89.57 88.90 88.06 87.18 86.50 85.85 85.16 84.52 83.98 83.46 82.66 82.00 81.55 81.05 80.66 80.11 79.99 79.73 79.25 78.59 78.18 78.42 78.52 78.48 78.42 77.95 77.93
43.94 43.69 43.47 43.58 44.07 44.45 44.84 45.22 45.68 46.10 46.31 46.46 46.38 45.94 45.27 44.53 44.13 43.94 43.55 43.34 43.25 43.00 43.09 43.49 44.04 44.48 44.87 45.35 45.75 45.47 45.06 44.27 43.60 43.34 43.15 43.05 42.84 42.64 42.48 42.50 42.72 42.66 42.61 42.41 42.21 41.97 41.76 41.42 41.09 41.20 40.83 40.56 41.39 42.05 41.45 40.79 40.50 40.53 40.51 40.41 40.39 40.18 39.87 39.62 39.37 39.39 39.83 39.99 39.98 39.74 39.49 39.41 39.45 39.46 39.34 39.51 40.59 39.56 38.61 38.58 38.21 37.92 35.38 34.88 37.27 37.56 37.36 37.66 38.05 38.09 38.09 38.20 38.30 38.03 37.71 37.88 38.03 38.46 38.91 39.37 39.20 39.09 38.42 39.27 40.85 40.22 39.56 40.52 42.19 40.81 40.21 40.63 41.05 40.82 40.34 39.99 39.65 39.34 39.06 39.95 41.23 40.86 40.84 39.33 37.57 35.82 32.84 31.14 30.88 30.70 30.77 31.04 30.77 30.78 32.89 37.27 40.37 40.77 40.48 40.41 40.59 40.21 39.90 40.55 40.58 40.86 41.16 41.15 41.00 39.19 37.15 37.18 39.04 39.42 40.47 41.07 42.11 42.01 39.82 38.43 38.58 39.41 41.27 43.50 42.48 41.56 41.77 42.06 42.73 42.81 43.19 43.00 42.97 44.48 45.11 45.27 44.99 43.02 43.99 44.27 44.60 45.05 45.43 45.95 46.24 46.08 46.25 46.51 46.29 46.51 46.30 46.10 46.28 46.40 46.49 46.51 46.97 48.79 48.36 47.12 47.31 47.69 47.85 48.00 48.09 48.21 48.45 48.60 48.84 49.04 49.29 49.66 50.38 51.37 51.22 53.28 57.97 59.42 58.97 57.01 56.07 56.14 55.27 54.50 54.64 55.00 54.93 55.35 55.63 56.79 58.58 58.28 54.38 53.52 50.82 49.93 50.54 50.78 51.32 54.64 60.43 63.10 61.99 56.98 54.00 54.79 56.16 56.34 56.03 56.00 56.00 56.00 56.00 56.26 58.01 59.84 60.45 59.36 58.13 57.41 56.23 56.00 56.00 56.00 56.00 56.00 56.00 56.00 56.18 56.70 57.37 58.39 58.84 59.18 60.14 60.56 60.74 60.86 60.76 60.37 60.33 60.45 60.58 60.71 61.20 61.55 61.78 61.40 61.58 62.18 62.31 62.28 62.30 62.54 63.09 63.24 63.30 63.63 63.67 63.26 63.38 64.07 64.85 66.02 66.68 68.02 68.71 69.15 69.45 70.47 70.44 70.75 71.24 70.99 70.15 70.00 70.25 69.98 69.81 69.81 70.05 70.31 70.52 70.97 71.18 71.42 71.60 72.48 73.15 73.39 73.83 74.04 74.47 75.71 78.78 78.29 78.27 79.06 80.56 82.03 83.10 83.55 83.95 83.92 84.45 85.07 85.48 85.61 86.09 86.63 88.07 89.38 90.46 91.09 91.91 92.65 93.46 94.09 94.74 95.31 95.91 96.51 97.05 97.69 98.14 98.16 97.50 96.79 95.77 94.45 93.26 91.43 91.75 90.96 89.92 89.34 87.91 86.64 85.72 85.02 84.39 83.77 83.32 82.78 82.13 81.77 81.39 80.85 80.54 80.19 79.52 79.07 78.90 78.73 78.76 78.76 78.65 78.50 78.37 78.19
44.22 43.94 43.74 43.65 43.93 44.32 44.73 45.21 45.64 46.06 46.29 46.58 46.58 46.12 45.40 44.73 44.21 43.79 43.48 43.30 43.22 43.55 43.61 43.80 44.32 44.74 45.15 45.42 45.25 44.95 44.80 44.51 43.81 43.40 43.35 43.27 43.06 43.08 42.91 42.75 42.85 42.96 42.92 42.53 42.23 42.04 41.81 41.64 41.36 41.39 40.75 40.87 41.59 41.80 41.39 41.01 40.80 40.63 40.74 40.64 40.63 40.51 39.84 39.37 39.12 39.29 40.00 40.25 40.12 39.91 39.56 39.30 39.34 39.71 39.55 39.32 39.54 39.32 38.80 38.39 37.99 37.13 34.52 34.73 36.32 37.61 37.96 37.84 38.31 38.73 39.49 38.70 38.48 38.32 38.35 38.13 38.26 38.52 38.75 38.99 38.77 38.77 39.04 39.28 40.16 40.71 39.60 39.78 40.36 40.61 40.22 40.25 40.82 40.78 40.39 40.20 39.87 39.93 39.60 39.80 40.29 41.35 41.17 39.89 39.14 37.42 34.93 33.34 31.30 30.71 30.57 30.79 30.69 30.93 31.20 34.88 39.68 41.05 40.81 40.82 40.81 40.74 40.93 40.89 40.73 41.17 41.50 41.42 41.47 39.78 37.51 38.41 41.27 40.78 40.66 42.02 42.53 42.70 42.36 41.87 40.58 39.28 38.72 40.01 39.97 39.15 39.31 39.39 39.83 39.54 39.44 38.91 38.92 39.76 40.32 42.38 43.72 41.91 42.51 44.03 44.70 45.58 45.67 45.81 45.91 46.28 46.48 46.36 46.29 46.36 46.12 46.12 46.41 46.46 46.60 46.65 47.21 49.01 47.57 47.00 47.25 47.55 47.76 48.00 47.98 48.17 48.38 48.57 48.92 49.64 50.02 50.32 50.89 51.18 50.94 51.60 53.65 53.79 53.08 52.61 52.97 53.66 52.83 52.98 53.83 54.78 53.97 53.57 53.85 54.14 53.71 53.00 51.29 49.15 50.05 52.17 52.88 52.76 52.88 52.47 51.30 51.49 51.36 51.64 52.47 52.70 53.34 55.49 56.15 56.11 56.00 56.00 56.00 56.00 56.00 56.06 56.06 56.11 56.06 56.00 56.00 56.00 56.00 56.00 56.00 56.00 56.00 56.00 56.35 57.28 57.97 58.78 59.19 59.75 60.10 60.30 61.18 61.60 61.76 61.75 61.67 61.77 61.27 61.05 61.37 61.81 62.01 61.87 62.14 62.40 62.71 62.77 62.86 63.14 63.44 63.61 63.68 63.88 64.38 64.20 64.52 65.31 64.88 65.15 66.27 67.50 68.02 68.72 69.49 69.70 69.73 70.21 70.62 70.16 69.91 69.93 70.16 70.17 70.08 70.27 70.45 70.88 70.95 71.26 71.77 72.56 72.96 73.08 73.47 73.93 74.62 75.22 75.91 78.04 81.04 79.80 79.03 79.94 81.00 82.46 83.52 84.20 84.62 84.79 85.34 86.00 86.56 86.80 86.64 87.21 88.40 89.62 90.82 91.61 92.46 93.21 93.96 94.69 95.32 95.94 96.16 96.34 96.95 97.55 97.87 97.99 97.42 96.44 95.27 93.97 92.66 91.89 92.83 92.59 92.37 92.44 91.13 87.86 86.09 85.22 84.43 83.67 83.06 82.49 81.79 81.74 81.38 80.87 80.46 80.10 79.29 79.14 79.27 79.25 79.16 79.15 78.96 78.85 78.59 78.37
44.35 44.20 43.90 43.76 43.95 44.30 44.72 45.03 45.48 45.84 46.25 46.32 46.36 45.98 45.48 45.10 44.40 43.63 43.30 43.26 43.50 43.78 43.86 44.12 44.60 44.86 45.28 45.44 45.04 44.75 44.52 44.46 44.29 43.90 43.71 43.62 43.35 43.23 43.06 42.98 42.89 43.12 43.15 42.71 42.34 42.14 42.01 41.87 41.52 41.68 40.76 41.00 41.62 41.50 41.17 40.93 40.90 40.79 40.99 40.86 40.96 40.52 39.73 39.49 39.48 39.73 40.13 40.50 40.14 40.02 39.55 39.43 39.46 39.31 39.45 39.61 39.59 39.59 38.80 38.03 37.64 35.83 34.38 36.15 35.91 36.97 37.91 38.14 38.61 38.85 39.49 38.88 38.81 38.91 38.88 38.30 38.37 38.42 38.69 38.95 39.08 39.00 39.00 39.28 39.21 40.11 39.54 39.59 39.62 40.33 40.46 40.52 40.48 40.43 40.40 40.41 40.25 40.49 39.76 39.83 40.44 41.11 40.75 40.51 39.70 38.57 37.21 35.36 32.53 31.11 30.61 30.93 30.92 31.03 30.97 32.05 37.50 41.08 41.57 41.14 41.00 41.09 41.66 40.92 41.01 41.38 41.60 41.36 40.70 39.57 38.29 40.13 41.67 41.49 40.60 41.39 42.24 42.71 42.60 42.40 42.32 42.08 41.18 40.16 38.72 38.42 38.61 38.96 39.61 40.35 40.86 40.81 41.33 40.68 39.15 39.76 42.23 41.54 42.82 44.68 44.80 45.20 45.39 45.59 45.79 47.04 46.64 46.18 46.83 47.01 46.14 46.09 46.32 46.41 46.43 47.18 48.30 49.03 47.49 47.00 47.06 47.36 47.69 48.19 48.54 48.44 48.60 49.05 50.02 49.78 50.05 50.32 50.46 51.10 52.02 51.25 51.48 51.80 52.09 52.28 51.80 53.23 52.21 52.11 52.91 53.81 53.76 54.24 53.98 52.25 51.06 49.53 48.05 49.58 51.17 52.28 52.67 52.98 53.07 53.14 53.04 52.22 51.11 50.88 51.10 51.26 52.07 53.61 54.76 55.82 56.19 56.11 56.00 56.00 56.00 56.00 56.00 56.00 56.00 56.00 56.00 56.00 56.00 56.00 56.00 56.00 56.00 56.05 56.81 57.60 58.16 58.87 59.46 60.22 60.58 60.29 60.69 60.97 60.97 61.12 61.49 61.73 61.58 61.45 61.83 62.32 62.43 62.25 62.40 62.66 63.14 63.30 63.38 63.68 63.87 64.11 64.22 64.35 64.71 64.85 65.18 65.79 65.77 65.34 64.62 66.31 68.17 68.79 68.98 68.87 68.98 69.30 69.65 69.71 69.91 70.01 70.20 70.49 70.36 70.70 70.90 71.04 71.36 71.70 72.33 73.01 73.50 74.38 74.96 75.88 76.49 77.50 78.58 80.66 81.77 80.61 79.72 80.86 81.19 82.40 83.69 84.67 85.32 85.69 86.09 86.63 87.19 87.77 87.66 87.93 88.97 90.14 91.25 92.19 92.79 93.49 94.36 94.62 95.05 95.70 95.62 95.52 96.21 97.24 97.75 98.01 97.51 96.60 95.78 94.38 92.80 92.71 93.15 93.54 93.61 93.92 92.59 89.21 87.38 85.73 84.68 83.66 82.92 82.10 81.21 81.23 81.06 80.61 80.37 79.85 79.51 79.61 79.61 79.58 79.45 79.25 79.09 79.03 78.80 78.77
44.24 44.21 44.10 44.08 44.08 44.27 44.58 44.71 45.06 45.53 45.96 46.00 46.01 45.64 45.23 44.87 44.23 43.63 43.48 43.45 43.84 44.03 44.17 44.39 44.75 45.04 45.15 45.27 45.12 44.94 44.60 44.37 44.36 44.38 43.94 43.73 43.40 43.34 43.46 43.32 42.98 43.02 43.06 42.89 42.59 42.36 42.03 41.81 41.59 41.51 40.96 41.13 41.49 41.33 41.12 41.11 41.17 41.03 41.13 41.03 41.13 40.47 39.76 40.01 39.92 39.97 40.23 40.46 40.31 39.87 39.68 39.60 39.63 39.54 39.45 39.56 40.12 39.76 38.18 36.93 36.87 35.78 36.47 37.39 35.61 35.32 36.82 37.50 38.42 38.61 38.41 38.89 39.64 39.16 39.29 38.83 38.33 38.33 38.60 39.02 39.23 39.32 39.47 39.48 39.12 39.30 39.13 39.31 39.46 39.81 40.37 40.50 40.44 40.92 41.10 40.64 40.93 40.55 40.33 40.36 40.57 41.15 41.54 41.37 40.43 39.63 38.94 36.92 34.33 32.32 31.38 30.75 30.94 30.91 31.17 30.81 33.55 39.30 41.91 41.51 41.29 42.49 42.32 41.14 41.25 41.30 41.25 41.41 40.67 39.48 38.97 41.10 41.17 40.94 41.26 41.73 41.96 42.47 42.21 42.60 42.76 42.56 42.85 43.42 42.50 41.97 42.66 43.23 43.46 43.79 44.03 43.81 43.35 42.65 40.33 39.67 41.42 42.14 43.97 44.98 45.34 45.32 45.14 45.31 45.54 47.15 46.61 45.91 48.43 48.80 46.40 46.23 46.33 46.41 46.64 47.34 49.43 50.31 48.20 47.74 47.41 47.54 47.76 50.65 50.20 48.77 48.80 49.19 50.29 50.18 50.01 50.47 50.33 50.47 50.35 49.64 49.87 50.32 51.61 51.79 51.25 52.44 51.64 51.78 52.62 53.71 54.82 53.38 51.81 49.56 47.82 48.74 50.38 51.98 52.41 52.77 52.80 52.98 53.19 53.72 53.81 53.30 52.14 50.89 52.02 52.01 51.66 52.39 53.11 52.88 54.38 56.16 56.30 56.04 56.00 56.00 56.00 56.00 56.00 56.00 56.00 56.00 56.00 56.00 56.00 56.00 56.00 56.01 56.73 58.02 58.43 59.24 60.07 60.83 61.23 60.63 60.57 60.67 60.56 60.81 61.08 61.35 61.63 61.78 62.38 62.99 62.95 62.78 62.83 63.23 63.52 63.86 64.03 64.28 64.43 64.75 65.19 65.22 65.10 65.29 65.47 65.99 66.30 66.10 65.03 65.73 67.84 68.07 68.34 68.35 68.54 68.74 69.25 69.66 69.94 70.04 70.35 70.69 70.68 71.08 71.63 71.87 71.96 72.38 72.93 73.80 75.29 77.68 78.61 79.27 78.76 80.50 82.16 82.75 82.54 81.22 80.39 81.53 82.17 82.95 84.13 85.10 85.47 85.58 86.27 86.78 87.29 87.85 88.26 88.72 89.56 90.01 90.66 91.42 92.10 93.00 93.76 94.29 94.66 95.07 94.88 94.49 95.37 96.58 97.58 97.96 97.61 97.01 96.11 94.59 93.31 93.47 93.63 94.20 93.29 92.06 90.49 88.87 88.63 86.20 84.74 83.72 82.94 82.29 81.67 80.73 80.73 80.53 80.46 80.15 80.09 79.97 80.06 80.12 79.69 79.60 79.55 79.36 79.09 79.10
44.06 44.08 44.01 44.17 44.05 44.17 44.37 44.47 44.69 45.20 45.47 45.69 45.65 45.30 44.82 44.45 43.98 43.80 43.72 43.80 43.97 44.09 44.47 44.71 44.95 45.23 45.26 45.32 45.25 45.00 44.92 44.76 44.56 44.35 44.17 43.91 43.67 43.72 43.72 43.47 43.31 43.13 42.97 42.94 42.78 42.61 42.34 42.11 41.80 41.64 41.48 41.54 41.49 41.48 41.41 41.24 41.20 41.18 41.22 40.98 41.12 40.67 40.05 40.25 40.16 40.07 40.17 40.61 40.76 40.21 39.92 39.72 39.58 39.47 39.40 39.52 39.70 39.59 38.50 37.85 39.63 38.13 38.10 38.19 36.94 35.62 35.41 35.76 37.56 38.08 38.08 38.41 38.97 38.99 39.06 39.32 38.50 38.29 38.59 38.79 39.15 39.40 39.53 39.38 39.48 39.54 39.18 39.30 39.43 40.18 40.88 40.60 41.43 42.32 41.66 41.09 40.48 40.60 41.05 40.79 40.87 41.74 42.44 42.16 40.97 40.46 40.09 38.19 36.37 34.33 32.92 31.09 30.64 30.92 31.13 30.78 31.63 37.20 41.46 42.36 42.73 43.26 41.96 41.44 41.48 41.44 41.33 40.96 40.51 40.59 38.92 38.66 38.37 39.36 40.96 42.39 42.72 42.79 42.19 42.68 42.61 42.73 43.43 44.51 43.48 43.64 44.39 44.75 44.99 45.15 45.05 45.02 44.88 44.29 41.68 40.25 42.13 43.05 44.23 45.05 45.31 45.44 45.07 45.47 45.55 46.34 46.63 46.17 48.27 49.26 47.07 46.66 46.63 46.75 47.04 47.22 49.08 49.71 48.59 48.18 47.88 47.98 47.84 49.72 50.78 48.93 48.76 48.79 49.82 50.35 50.82 49.60 47.82 46.52 46.44 46.41 46.57 47.01 48.51 50.32 51.24 51.50 51.57 52.44 52.68 52.64 52.07 49.86 48.67 49.05 50.81 52.07 52.31 52.57 52.89 52.68 52.26 52.72 53.02 53.46 53.98 53.72 53.24 51.50 52.14 53.31 52.95 52.20 51.96 52.38 52.89 53.83 55.52 56.39 56.18 56.01 56.00 56.00 56.00 56.00 56.00 56.00 56.00 56.00 56.00 56.00 56.00 56.00 56.36 58.15 59.04 60.12 60.80 61.14 61.20 60.72 60.43 60.74 60.80 60.99 61.31 61.56 61.82 62.09 62.73 63.38 63.60 63.37 63.33 63.60 63.94 64.18 64.40 64.65 65.08 65.56 65.80 65.67 65.70 65.80 66.00 66.49 67.12 67.15 66.59 66.18 66.65 66.92 67.47 67.96 68.51 69.08 69.48 69.68 70.13 70.38 70.69 70.80 71.13 71.86 72.34 72.59 72.76 73.13 74.02 75.65 77.69 79.98 81.22 81.47 81.42 81.76 83.73 84.03 83.39 82.06 81.14 82.11 83.05 83.71 84.40 85.01 85.06 84.94 85.63 86.44 86.85 87.25 87.95 88.48 88.80 89.11 89.37 89.91 91.20 92.56 93.61 93.69 93.56 93.79 93.95 93.71 94.89 96.00 97.04 97.51 97.04 97.07 96.22 94.66 94.14 94.55 94.65 94.70 93.52 92.15 91.28 89.21 88.25 85.84 84.72 83.80 83.12 82.64 82.27 81.36 80.79 80.87 80.82 80.76 80.56 80.37 80.18 80.14 79.99 79.88 79.92 79.70 79.49 79.37
43.90 44.05 44.06 44.25 44.44 44.37 44.42 44.43 44.63 44.86 45.04 45.26 45.20 44.93 44.58 44.32 43.95 43.81 43.88 44.04 44.16 44.43 44.81 44.95 45.22 45.35 45.34 45.40 45.22 45.07 45.02 44.97 44.67 44.38 44.21 44.08 43.83 44.00 43.83 43.54 43.36 43.44 43.30 43.22 43.10 42.94 42.72 42.37 42.04 41.82 41.78 41.83 41.71 41.70 41.59 41.36 41.37 41.33 41.34 41.28 41.18 40.86 40.31 40.47 40.40 40.20 40.17 40.29 40.75 40.45 39.86 39.70 39.59 39.50 39.63 39.71 39.65 39.76 37.35 35.83 39.16 39.57 40.20 39.69 38.49 37.96 38.11 37.45 38.16 37.96 37.07 37.93 38.64 38.67 38.75 39.14 38.77 38.49 38.51 38.75 39.51 39.91 39.88 39.70 39.75 39.66 39.01 39.16 39.49 40.26 40.49 39.91 40.87 41.58 40.94 40.42 40.37 41.07 41.57 41.13 41.52 41.45 41.48 42.17 41.32 40.42 40.51 40.03 38.28 36.48 34.25 31.97 30.74 30.94 31.12 31.13 30.89 34.07 40.42 43.40 42.79 42.38 42.25 42.14 42.09 42.02 41.62 40.80 41.47 42.32 40.83 39.74 39.74 40.45 40.04 41.50 42.99 43.49 42.98 42.89 42.70 42.74 43.71 44.37 43.72 44.08 44.85 45.28 45.57 45.32 45.33 44.77 44.36 44.09 43.17 41.10 41.89 43.21 44.06 44.58 44.95 45.28 45.09 45.68 46.03 47.31 47.34 47.27 48.15 49.60 48.08 47.36 46.88 46.96 47.36 47.47 48.26 49.29 48.54 48.22 48.06 48.25 48.17 48.58 49.81 49.21 48.60 49.03 49.76 50.05 50.57 48.17 48.26 48.16 48.22 47.74 48.10 48.39 48.67 48.24 48.19 48.59 49.65 50.03 49.13 48.75 47.84 47.53 50.01 51.26 52.00 52.35 52.58 52.70 53.03 53.12 52.91 52.99 53.25 53.44 54.24 54.24 54.04 52.85 51.68 53.13 53.61 53.80 53.41 53.72 53.85 53.70 54.14 55.43 56.51 56.33 56.01 56.00 56.00 56.00 56.00 56.00 56.00 56.00 56.00 56.10 56.23 56.20 56.37 57.61 59.15 60.07 60.54 61.14 60.66 60.27 60.38 60.73 61.26 61.56 62.40 62.66 62.45 62.54 62.99 63.64 64.08 63.86 63.76 64.02 64.50 64.74 64.93 65.15 65.66 65.97 66.29 66.44 66.77 66.80 66.79 66.88 67.66 67.92 67.27 66.47 66.52 66.79 67.25 68.55 70.04 70.83 70.43 70.21 70.35 70.63 70.96 71.50 71.44 72.13 72.70 73.03 73.38 74.24 76.02 78.68 79.31 80.19 82.04 82.79 83.14 83.17 84.69 84.99 83.81 82.76 82.04 82.86 83.82 84.37 84.51 84.78 84.58 84.22 84.77 85.59 85.86 86.29 86.96 87.65 87.77 88.17 88.53 89.12 90.24 91.67 92.69 92.65 92.15 92.36 92.30 93.75 95.18 95.44 95.98 96.64 96.47 96.91 96.26 95.24 95.13 95.16 95.19 95.36 95.04 93.00 91.23 89.42 87.98 85.70 84.86 84.03 83.31 82.86 82.64 82.10 81.69 81.52 81.37 81.20 80.99 80.77 80.59 80.36 80.29 80.14 80.00 80.00 79.85 79.58
44.03 44.09 44.17 44.45 44.59 44.58 44.64 44.55 44.55 44.70 44.90 45.01 44.92 44.78 44.47 44.16 43.83 43.99 44.00 44.09 44.43 44.94 45.24 45.32 45.48 45.48 45.58 45.60 45.29 45.23 45.33 45.14 45.04 44.93 44.50 44.14 44.08 44.26 44.00 43.71 43.78 43.66 43.72 43.74 43.49 43.27 42.92 42.48 42.30 42.09 42.05 42.01 41.88 41.82 41.71 41.57 41.62 41.45 41.39 41.44 41.08 40.64 40.58 40.54 40.47 40.32 40.45 40.34 40.56 40.83 40.33 40.10 39.92 39.70 39.85 40.08 40.11 39.94 38.59 35.66 37.64 39.98 40.59 40.44 39.78 39.12 39.20 38.06 38.34 38.66 37.58 37.75 38.29 38.58 38.90 39.00 38.86 38.74 38.66 39.09 40.77 40.59 40.00 39.55 39.64 39.71 39.48 39.61 39.23 39.41 39.78 38.88 39.65 40.42 40.37 40.37 40.50 41.33 42.00 41.12 41.30 41.56 42.03 41.85 41.49 41.41 40.48 40.31 39.26 37.77 36.09 33.54 31.71 30.88 30.82 31.26 30.99 31.96 37.33 42.40 42.04 42.41 42.64 43.01 42.80 42.85 41.87 41.68 42.74 43.83 42.28 40.61 40.63 42.05 41.81 41.16 42.60 42.86 42.75 42.03 41.68 42.39 42.86 43.30 43.37 44.30 45.05 44.71 44.96 44.85 44.52 44.04 43.96 43.92 43.95 43.92 43.28 42.52 42.38 42.76 44.08 45.01 45.09 45.73 46.66 47.58 47.46 48.11 48.05 48.58 47.93 47.27 47.05 47.21 47.50 47.73 47.99 49.22 48.73 48.81 49.31 50.84 51.02 50.01 49.75 49.39 48.90 49.47 50.32 51.11 48.73 47.33 50.26 51.30 51.31 50.42 51.53 52.17 52.13 51.59 50.53 48.77 48.79 48.90 48.95 49.45 49.85 49.77 50.97 51.54 51.89 52.31 52.68 52.89 53.03 52.97 52.86 53.17 53.40 53.64 54.23 54.10 54.24 54.27 52.53 51.51 51.77 52.56 53.33 54.46 54.81 54.47 54.83 55.00 55.63 56.38 56.14 56.02 56.00 56.00 56.00 56.00 56.00 56.00 56.09 56.73 57.22 57.10 57.25 57.39 58.28 59.24 59.79 60.25 59.79 59.73 60.07 60.71 61.67 62.20 63.03 63.45 63.11 62.97 63.34 63.72 64.15 64.62 64.80 64.75 65.07 65.39 65.48 65.73 66.15 66.45 66.84 67.19 67.07 67.14 67.13 67.00 67.52 67.68 67.27 66.83 67.04 67.12 67.60 69.23 70.60 71.51 71.51 71.59 71.00 70.88 71.20 71.89 71.85 72.45 73.22 73.55 74.05 75.03 76.90 79.14 80.72 81.40 82.48 83.28 84.29 84.53 85.54 85.61 84.25 83.44 82.84 83.42 84.31 84.66 84.20 84.02 83.69 83.35 84.08 84.67 85.06 85.78 86.56 86.95 87.00 87.17 87.69 88.24 89.29 90.48 91.71 91.91 91.36 91.61 92.06 93.44 94.32 94.20 94.77 95.44 95.93 96.85 96.84 96.24 95.94 95.43 95.10 95.40 95.11 92.73 90.01 88.94 87.52 85.84 85.06 84.35 83.70 83.11 82.89 82.61 82.12 81.83 81.63 81.30 81.26 81.27 80.97 80.69 80.53 80.44 80.26 80.14 79.99 79.96
44.13 44.20 44.42 44.63 44.73 44.78 44.86 44.89 44.85 44.78 44.87 44.87 44.79 44.67 44.38 44.18 44.08 44.24 44.32 44.32 44.54 45.19 45.59 45.64 45.76 45.79 45.87 45.71 45.46 45.46 45.56 45.23 45.28 45.17 44.93 44.60 44.56 44.38 44.04 44.28 44.93 44.31 44.12 44.41 43.80 43.42 42.92 42.61 42.27 42.18 42.19 42.18 42.08 41.99 41.98 41.93 41.88 41.62 41.39 41.46 41.04 40.81 40.79 40.63 40.50 40.44 40.47 40.49 40.60 41.05 40.98 40.23 40.12 39.96 40.03 40.21 40.34 40.04 38.64 35.65 35.71 38.46 40.04 40.74 40.45 39.90 39.43 38.82 38.40 39.37 38.38 37.95 37.86 38.36 38.83 38.82 38.90 38.93 39.07 39.01 39.90 40.25 39.84 39.88 39.46 39.51 39.52 39.43 39.23 39.32 39.50 39.12 39.02 40.28 40.38 40.46 40.56 41.09 41.25 41.14 41.89 41.64 41.86 41.64 41.73 41.65 40.88 40.44 39.95 38.45 37.58 35.55 34.16 32.36 31.07 31.21 31.09 31.04 33.77 40.16 41.68 42.28 43.54 43.92 43.51 44.28 42.05 42.05 43.33 44.96 44.51 42.03 41.29 41.94 42.18 42.55 41.55 40.46 41.19 41.74 41.16 41.87 42.35 42.83 43.15 43.37 43.17 43.21 43.73 43.81 44.10 44.26 44.61 44.11 44.25 44.83 44.61 44.55 44.20 42.83 43.48 45.52 45.93 46.86 47.14 47.11 47.32 47.38 47.70 47.43 47.55 48.02 47.14 47.43 47.43 47.86 48.28 49.32 49.00 49.08 50.29 51.73 50.68 50.04 49.59 49.71 49.61 50.12 50.12 49.88 47.74 49.10 50.21 50.98 51.84 50.86 51.23 52.41 51.83 52.00 53.05 52.15 51.75 51.46 51.35 51.33 51.10 51.13 50.69 50.52 51.13 51.81 52.21 52.39 52.40 52.44 52.41 52.81 53.20 53.97 54.16 54.07 54.16 54.42 54.22 53.62 53.43 53.34 52.59 52.87 54.42 55.02 55.35 55.36 55.39 55.68 56.19 56.21 56.12 56.04 56.00 56.00 56.00 56.01 56.38 57.01 57.37 57.52 57.71 57.82 58.20 58.74 59.33 59.73 59.82 60.43 60.39 60.86 62.01 62.69 63.20 63.87 63.65 63.65 64.07 63.98 64.59 65.43 65.79 65.92 65.91 66.10 66.06 66.25 66.64 67.34 67.75 67.83 67.44 67.56 67.84 67.39 67.68 68.02 68.40 68.62 68.90 68.60 68.55 69.98 70.62 71.40 72.50 73.03 72.29 71.51 71.62 71.91 72.13 72.83 74.04 74.32 74.71 76.54 79.16 79.79 81.53 82.71 83.49 84.18 85.17 85.67 86.13 85.92 85.05 84.49 83.72 83.81 84.24 84.34 83.96 83.29 82.96 82.69 83.28 83.81 84.43 85.39 86.46 86.40 86.38 86.52 86.67 87.18 88.29 89.72 90.88 91.49 90.34 90.85 91.59 92.54 93.17 93.12 93.26 94.16 95.43 96.62 97.36 97.09 96.26 95.24 94.72 94.34 94.33 92.51 89.87 89.13 87.84 86.01 85.37 84.76 84.10 83.49 83.20 83.03 82.53 82.02 81.79 81.59 81.52 81.60 81.23 80.97 80.87 80.65 80.38 80.36 80.26 80.32
44.26 44.38 44.59 44.75 44.72 44.84 45.10 45.21 45.11 45.00 44.97 44.95 44.86 44.63 44.58 44.53 44.38 44.54 44.80 44.85 44.88 45.25 45.67 45.76 45.89 46.03 46.03 45.91 45.77 45.71 45.67 45.58 46.04 45.39 44.89 45.03 44.88 44.47 44.14 44.66 45.56 44.86 44.40 44.90 44.16 43.69 43.08 42.75 42.36 42.37 42.49 42.46 42.39 42.20 42.20 42.14 42.09 41.99 41.85 41.53 41.19 41.13 40.90 40.63 40.66 40.53 40.50 40.59 40.57 40.75 40.81 40.26 40.07 40.04 39.91 40.37 40.42 40.10 38.30 35.70 35.00 36.53 39.55 40.72 40.64 40.36 40.23 39.76 39.31 39.91 38.62 38.06 38.03 38.08 38.35 38.64 38.87 38.89 39.26 39.50 39.32 39.90 40.47 41.10 39.99 39.78 39.32 39.16 39.59 39.72 39.70 40.29 40.22 40.40 40.59 40.59 40.83 41.13 41.54 41.34 41.75 41.43 41.60 42.64 42.67 41.57 42.02 40.68 39.98 38.02 37.44 38.46 37.37 35.11 32.32 31.56 31.24 30.98 31.71 37.34 41.84 42.77 43.61 44.35 44.23 44.95 42.81 42.47 43.71 44.86 44.94 44.47 42.30 42.43 42.77 43.77 43.13 40.47 40.01 41.42 42.28 41.64 41.09 43.22 42.53 41.91 42.52 43.13 43.27 42.81 43.46 43.87 44.20 43.70 43.99 44.69 45.84 47.61 46.89 44.92 43.94 44.27 45.26 45.65 46.70 47.24 47.52 47.51 47.67 47.62 48.06 47.83 47.05 47.27 46.92 46.60 46.71 47.17 47.46 48.12 50.35 51.81 49.68 49.43 50.36 50.66 51.41 51.92 48.65 46.99 49.14 50.69 50.96 50.79 51.31 50.78 50.79 51.52 51.55 51.75 52.72 52.75 52.58 51.53 51.49 51.53 51.47 51.52 51.40 50.44 50.59 51.01 51.14 51.31 51.96 52.38 52.62 52.72 53.32 53.51 53.77 53.97 54.13 54.31 54.57 54.69 54.67 54.58 54.54 53.28 52.55 53.25 53.84 54.32 54.70 54.42 55.42 56.34 56.64 56.61 56.16 56.01 56.00 56.05 56.75 57.32 57.49 57.64 57.95 57.97 58.30 58.50 58.96 59.49 59.71 60.32 60.57 61.14 61.94 62.85 63.34 64.27 64.25 64.27 64.52 64.60 64.88 65.81 66.34 66.96 67.16 66.88 66.68 66.61 67.02 67.84 68.14 67.99 67.84 68.26 68.53 67.96 68.14 68.65 69.46 70.17 70.54 69.91 69.56 70.87 71.51 71.71 72.97 73.89 73.44 72.95 72.87 72.55 72.84 74.21 76.57 75.98 75.53 77.70 80.39 81.11 81.58 82.63 83.81 85.01 85.64 86.27 86.24 85.96 85.45 84.70 83.58 83.43 83.53 83.39 83.34 82.62 82.07 82.12 82.61 83.22 83.76 84.80 85.49 85.61 85.66 85.84 85.64 86.40 88.04 89.68 90.83 90.40 89.16 89.67 91.10 91.81 92.11 92.19 92.40 93.35 94.47 96.20 97.40 97.19 96.07 94.64 94.27 93.30 92.84 91.34 89.57 88.17 87.06 86.15 85.64 85.04 84.34 83.77 83.62 83.43 82.86 82.42 82.20 82.08 81.84 81.72 81.50 81.12 81.10 80.86 80.61 80.72 80.53 80.36
44.34 44.58 44.75 44.84 44.88 45.01 45.16 45.29 45.19 45.12 45.02 44.88 44.80 44.84 44.82 44.73 44.76 44.91 45.16 45.49 45.64 45.47 45.48 45.77 46.01 46.31 46.34 46.15 46.09 45.94 45.90 46.20 46.44 45.47 45.17 45.29 45.17 45.02 44.84 44.91 45.81 45.89 44.91 45.07 45.07 44.29 43.85 43.41 42.59 42.47 42.60 42.61 42.54 42.42 42.42 42.38 42.31 42.17 41.89 41.71 41.62 41.14 40.91 40.88 40.92 40.68 40.58 40.63 40.65 40.78 40.67 40.52 40.13 39.95 39.75 40.01 40.12 39.53 37.80 36.14 34.83 37.16 39.64 40.61 41.00 41.08 40.62 39.58 39.30 40.35 39.62 38.88 39.21 38.48 38.50 38.43 38.65 38.99 39.36 39.50 39.37 39.49 40.50 41.18 40.49 40.11 39.53 38.95 39.47 39.81 39.70 40.27 40.62 40.76 41.05 40.64 41.07 41.13 41.96 42.16 42.13 41.88 41.40 41.90 42.10 42.34 41.91 40.98 39.95 40.10 40.37 40.91 39.57 37.74 34.73 31.92 31.24 31.17 31.14 34.36 40.67 44.08 43.28 43.82 43.99 44.27 43.11 42.98 42.93 43.30 44.36 45.97 44.00 43.11 43.78 44.77 43.71 42.54 41.32 41.12 42.18 42.91 41.59 41.80 42.52 43.22 44.41 44.58 44.48 43.91 43.44 43.41 43.78 43.68 44.14 46.40 49.24 49.22 47.37 46.12 45.93 44.85 44.76 45.22 45.81 46.44 46.31 45.86 46.12 46.32 46.35 46.81 46.80 46.24 45.82 46.03 47.28 46.55 45.42 45.92 47.44 48.88 48.56 48.86 49.59 49.78 49.38 46.90 47.33 48.94 49.75 51.08 50.91 50.56 51.72 51.49 51.29 51.49 51.51 51.23 52.18 52.51 52.69 51.65 51.70 51.75 51.84 51.95 51.86 51.50 51.01 51.17 51.45 51.84 52.05 52.27 52.65 52.79 53.40 53.67 53.64 53.61 54.00 54.22 54.64 54.76 54.92 54.89 55.03 55.08 54.65 53.57 53.51 53.57 53.19 53.03 54.65 56.31 56.59 56.99 57.31 56.79 56.05 56.07 57.22 57.95 58.01 57.92 58.17 58.25 58.47 58.68 59.04 59.35 59.75 60.35 60.77 61.78 61.89 62.80 63.58 64.37 64.90 65.09 65.40 65.48 65.55 66.09 66.47 67.30 67.78 67.47 67.26 67.37 67.54 68.07 68.36 68.36 68.43 68.77 68.77 68.37 68.59 69.11 69.87 70.81 71.17 70.49 70.49 71.70 72.52 72.30 73.25 74.37 74.47 74.68 74.40 73.52 74.19 76.03 77.94 77.46 76.90 77.86 80.89 82.48 82.78 83.25 84.28 85.28 86.02 85.99 85.63 85.60 85.34 84.58 83.38 82.75 82.62 82.52 82.64 82.33 81.50 81.48 81.92 82.53 83.38 84.24 84.63 85.12 85.04 85.08 84.97 86.05 87.99 89.32 89.98 89.30 88.32 89.61 90.61 91.01 90.89 91.29 92.17 93.22 94.25 95.80 96.60 96.25 95.91 94.52 93.18 92.54 91.24 89.81 88.62 87.65 87.12 86.41 85.77 85.01 84.50 84.27 84.01 83.64 83.37 83.29 82.88 82.58 82.29 82.06 81.77 81.40 81.39 81.01 80.81 80.92 80.75 80.47
44.59 44.70 44.88 44.95 44.89 45.01 45.22 45.29 45.25 45.12 45.05 45.00 45.01 45.14 45.14 45.17 45.13 45.09 45.22 45.61 45.82 45.63 45.53 45.59 45.83 46.20 46.52 46.40 46.36 46.25 46.31 46.09 45.91 45.62 45.48 45.54 45.35 45.27 45.54 45.58 45.21 46.08 45.33 44.90 44.89 44.49 44.19 43.84 43.36 42.73 42.50 42.86 42.89 42.84 42.62 42.49 42.39 42.15 41.91 42.10 41.93 41.37 41.25 41.10 40.99 40.76 40.66 40.55 40.60 40.68 40.60 40.57 40.39 40.05 39.83 39.78 39.82 39.32 38.78 37.92 35.77 37.87 40.03 40.97 41.47 41.13 40.76 40.18 39.94 40.21 39.77 39.62 40.06 39.13 38.81 38.42 38.77 39.14 39.24 39.32 39.41 39.40 39.72 40.61 40.69 40.30 39.74 39.09 39.23 39.79 40.16 40.82 41.47 41.35 41.28 41.28 41.72 42.25 42.20 42.34 41.99 41.64 41.55 41.78 41.65 41.96 41.25 40.30 39.53 40.80 42.00 41.90 40.75 39.47 36.87 33.33 31.40 31.07 30.94 32.42 37.29 41.23 42.16 42.86 43.33 43.64 43.03 43.77 42.80 42.97 43.67 45.40 44.48 44.11 44.86 45.36 44.71 43.38 42.10 42.47 41.49 42.63 43.26 43.35 45.08 45.12 45.52 45.07 44.75 44.80 44.34 44.28 43.92 44.04 45.65 48.33 47.85 46.45 46.90 47.11 46.44 45.37 44.62 44.95 45.43 45.55 45.30 46.52 47.35 47.20 47.56 48.28 47.37 46.58 46.42 47.13 49.71 49.26 47.53 46.61 45.99 46.12 46.42 46.59 46.85 46.80 47.31 48.48 50.07 49.44 49.66 50.37 50.66 50.63 51.13 51.59 51.58 52.92 51.21 51.18 52.35 52.28 52.52 51.55 51.98 52.17 52.14 52.12 51.83 51.44 51.68 51.68 51.85 51.97 52.46 52.64 52.67 52.62 53.06 53.49 53.93 53.82 53.96 54.42 54.80 54.86 55.10 55.26 55.57 55.57 55.46 54.93 54.85 55.26 54.75 53.35 53.48 55.50 56.61 56.67 56.85 57.39 56.91 56.63 57.22 57.98 58.11 58.16 58.48 58.65 58.91 59.16 59.59 59.61 59.90 60.61 60.75 61.30 61.96 62.83 63.76 64.51 65.13 65.62 66.12 66.19 66.03 66.02 66.30 67.01 67.67 67.60 67.77 68.05 68.08 68.29 68.56 68.71 68.86 69.05 68.78 68.77 69.13 69.63 70.28 71.06 71.57 71.31 71.53 72.39 73.01 73.28 73.63 74.35 74.76 75.15 75.35 75.15 75.69 77.79 78.93 79.07 79.43 79.43 80.58 82.56 83.49 84.19 84.81 85.63 85.92 85.51 85.02 85.55 85.57 84.80 83.45 82.06 81.85 81.92 81.92 81.89 81.14 80.88 81.40 82.15 83.00 83.95 84.98 85.58 85.20 84.82 84.57 85.68 87.31 88.70 89.16 88.91 88.03 89.12 89.84 90.36 90.42 90.58 91.15 92.49 94.12 95.01 94.76 94.85 94.84 94.68 92.66 91.57 90.68 89.66 88.60 87.94 87.37 86.61 85.92 85.33 84.93 84.64 84.40 84.19 83.92 83.81 83.44 83.14 82.80 82.54 82.06 81.67 81.60 81.32 81.04 81.04 80.97 81.00
44.74 44.90 45.01 45.03 45.05 45.11 45.16 45.15 45.17 45.17 45.06 45.07 45.13 45.32 45.54 45.74 45.69 45.60 45.56 45.78 46.00 45.90 45.74 45.85 45.97 46.08 46.41 46.61 46.58 46.55 46.48 46.21 46.02 45.85 45.83 45.89 45.61 45.49 45.84 45.87 46.33 47.03 46.70 45.84 45.14 44.79 44.48 44.04 43.46 43.15 42.85 43.09 43.02 43.02 42.73 42.59 42.56 42.23 42.13 42.30 42.09 41.59 41.32 41.18 41.10 40.89 40.75 40.59 40.72 40.54 40.40 40.41 40.50 40.37 39.96 39.47 38.83 38.20 38.54 39.09 36.63 38.97 40.38 41.43 41.75 41.43 41.16 41.03 41.18 40.18 39.55 38.98 39.07 39.03 39.58 39.01 38.73 39.01 38.99 39.39 39.60 39.67 40.07 40.40 40.48 40.16 39.98 39.40 39.16 39.52 40.48 41.27 41.45 41.48 41.36 41.89 42.19 42.48 42.32 42.23 42.07 41.62 41.60 42.24 42.23 41.94 41.55 41.73 41.41 41.48 42.95 42.61 41.74 40.92 39.05 36.07 32.00 31.28 31.09 31.56 34.81 38.41 40.69 42.32 43.30 43.40 43.05 43.58 43.30 42.84 43.50 44.70 45.62 45.62 45.60 45.99 45.35 43.65 42.11 42.92 41.48 42.46 44.16 44.85 45.17 44.94 45.47 46.05 45.33 44.08 43.58 43.92 44.33 44.19 44.74 46.00 45.85 45.82 46.78 46.90 46.70 46.04 44.74 45.05 45.78 45.66 45.42 46.81 48.16 48.27 49.07 49.66 48.39 47.28 46.80 46.91 48.47 49.54 48.55 48.07 48.22 48.41 47.84 47.91 48.04 48.09 48.88 50.02 50.57 49.98 50.29 50.92 51.17 51.16 50.70 50.80 51.55 53.16 51.63 51.46 52.21 52.47 52.54 52.26 52.75 53.35 52.45 52.08 51.96 51.93 52.28 52.17 52.14 52.19 52.41 52.88 53.22 53.18 53.25 53.68 53.67 53.90 54.18 54.44 54.70 54.81 55.08 55.30 55.59 55.72 55.63 55.65 55.58 55.83 55.58 54.89 53.24 54.35 55.93 56.41 56.56 56.88 57.37 58.08 57.96 57.90 58.08 58.44 58.73 58.94 59.15 59.36 59.61 59.73 59.85 60.64 61.05 61.65 62.46 63.20 63.95 64.70 65.33 65.55 65.66 65.44 64.77 65.29 65.85 67.02 67.58 67.61 67.82 68.27 68.44 68.67 68.87 68.85 68.99 68.99 68.74 69.01 69.48 69.96 70.86 71.43 71.86 72.20 72.63 73.22 73.63 73.64 73.48 73.91 74.52 75.26 75.79 76.25 77.10 78.85 80.01 80.58 81.32 81.36 81.60 82.40 83.70 84.70 85.54 85.89 85.36 84.69 84.48 85.28 85.40 84.78 83.55 81.78 81.36 81.48 81.32 80.90 80.70 81.04 81.71 82.49 83.43 84.88 86.00 86.36 85.79 84.76 84.06 84.95 86.33 87.86 88.10 88.05 87.52 88.15 89.18 89.58 89.78 89.98 90.23 91.47 92.83 92.75 93.02 93.87 94.04 94.13 92.85 91.44 90.61 89.76 89.13 88.26 87.59 86.85 86.26 85.74 85.39 85.11 84.86 84.67 84.39 84.13 83.90 83.62 83.28 83.04 82.39 81.95 81.67 81.48 81.32 81.12 81.07 81.43
44.85 44.94 45.03 44.97 45.05 45.05 44.98 45.06 45.13 45.10 45.15 45.18 45.32 45.54 45.83 46.06 45.98 45.93 45.93 46.02 46.08 46.10 45.91 46.04 46.23 46.34 46.59 46.80 46.87 46.85 46.68 46.33 46.41 46.53 46.32 46.15 45.88 46.06 47.23 47.15 48.05 49.25 48.46 47.23 45.96 46.00 45.81 44.63 43.91 43.47 43.51 43.19 42.91 42.90 42.72 42.62 42.52 42.37 42.40 42.38 42.21 41.79 41.56 41.38 41.26 41.02 40.92 40.66 40.53 40.33 40.42 40.49 40.40 40.45 40.22 39.91 39.23 38.27 38.92 38.59 36.91 38.14 40.15 41.44 41.99 42.16 41.94 41.32 41.28 40.48 39.60 39.24 39.18 38.89 39.45 39.58 39.37 39.50 39.33 39.46 39.68 39.82 40.46 40.28 40.28 40.62 40.72 40.30 39.48 39.50 40.40 41.57 41.78 42.00 41.57 41.48 41.42 42.27 42.51 42.35 42.00 41.61 42.06 43.14 42.32 42.20 42.24 42.30 41.55 43.85 43.43 42.02 42.46 42.23 41.17 39.97 33.65 31.28 31.10 31.07 33.72 37.35 39.82 41.65 43.21 43.74 43.14 42.76 43.46 43.85 43.75 44.56 45.91 46.72 46.41 46.39 45.51 43.90 42.61 43.89 44.83 46.34 45.16 45.15 45.21 45.27 45.86 46.77 47.03 44.52 43.80 44.37 44.94 44.85 44.85 45.33 46.07 46.66 46.20 46.25 46.15 46.24 45.09 45.22 45.58 45.67 44.82 45.69 47.29 48.05 49.05 48.77 48.84 48.05 47.86 47.53 48.09 49.09 49.23 49.65 50.08 50.89 49.91 49.28 48.75 48.93 48.96 49.56 50.35 50.43 51.12 51.63 51.62 51.96 51.09 50.63 51.25 52.11 52.66 52.96 52.63 53.49 53.62 52.86 53.14 53.79 52.52 52.18 52.11 52.23 52.50 52.46 52.46 52.74 53.07 53.22 53.53 53.68 53.87 54.08 54.01 53.97 54.17 54.51 54.53 54.70 55.06 55.34 55.56 55.79 55.75 56.09 56.23 56.07 56.15 55.96 54.66 54.05 55.66 56.04 56.25 56.70 57.23 57.49 58.25 58.34 58.19 58.49 58.75 59.08 59.32 59.57 59.88 60.24 60.24 60.52 61.33 62.15 63.37 63.82 64.19 64.77 65.28 65.52 64.04 57.81 58.83 64.07 65.41 66.58 66.74 66.96 67.25 67.20 65.09 67.38 68.78 69.10 69.99 69.59 68.49 68.70 69.16 70.19 70.57 70.77 71.07 71.69 72.72 73.33 73.60 73.54 73.49 73.89 74.64 75.89 76.44 77.05 77.94 79.24 80.15 81.05 82.06 82.49 83.09 83.28 84.42 85.41 85.89 85.67 84.47 83.55 84.33 85.13 85.17 84.69 83.58 81.85 80.83 80.98 80.64 80.10 80.56 81.43 82.57 83.59 84.63 85.62 86.12 86.05 85.09 84.08 84.16 85.10 85.99 86.97 86.96 86.86 86.67 87.67 88.50 88.97 89.22 88.94 89.98 90.53 91.11 90.83 90.95 92.36 93.94 94.47 93.74 92.32 91.34 90.88 90.00 88.78 88.05 87.07 86.50 86.17 85.96 85.41 85.27 85.24 84.99 84.68 84.31 84.00 83.71 83.37 82.63 81.49 81.15 81.38 81.39 81.25 81.08 80.90
44.86 44.89 44.98 44.96 45.01 45.01 45.09 45.17 45.17 45.19 45.33 45.29 45.34 45.57 45.86 46.09 46.16 46.22 46.25 46.22 46.20 46.14 46.06 46.32 46.42 46.58 46.71 46.91 47.01 47.11 46.94 46.57 46.96 47.35 46.71 46.51 46.69 47.34 48.27 48.27 49.42 50.56 49.60 48.18 47.10 46.91 47.02 46.19 45.14 44.62 44.59 43.92 43.80 43.24 42.98 42.76 42.43 42.40 42.62 43.04 42.52 41.91 41.65 41.48 41.40 41.12 40.84 40.67 40.52 40.61 40.65 40.62 40.67 40.61 40.33 40.11 39.49 38.61 39.91 39.67 38.88 37.41 37.72 40.11 41.73 42.34 41.36 40.89 40.48 40.22 39.43 39.23 39.23 39.08 39.28 39.09 39.44 39.72 39.95 39.86 39.79 40.04 40.26 40.14 40.81 41.05 40.41 40.69 39.79 39.51 40.36 41.42 42.05 41.90 41.02 41.02 41.56 41.76 42.70 42.47 42.31 42.25 41.97 42.87 42.55 42.88 42.80 42.11 41.98 43.07 42.49 42.34 42.50 42.48 41.72 40.93 36.24 31.45 31.13 31.11 32.92 36.22 39.03 40.61 42.21 43.30 43.80 43.71 44.14 44.43 44.43 44.31 45.75 46.18 45.74 45.47 44.60 43.84 42.55 44.66 47.10 48.75 46.38 45.37 45.53 46.21 46.67 47.22 47.56 44.89 44.45 44.53 44.99 45.58 45.56 45.73 46.30 46.47 46.99 46.93 46.26 45.90 45.17 45.18 45.57 45.21 44.83 45.41 46.66 47.68 47.65 48.18 49.57 48.88 48.58 48.55 48.84 48.67 49.36 51.46 50.35 51.11 50.51 49.98 49.15 48.99 49.36 49.87 50.91 51.22 51.75 51.24 51.51 51.80 51.16 51.03 51.30 51.99 53.24 53.34 52.32 52.57 52.30 52.25 52.83 53.42 52.54 52.21 52.13 52.37 52.56 52.81 52.91 52.93 53.35 53.50 53.61 54.10 54.55 54.57 54.65 54.49 54.44 54.70 54.75 54.91 55.14 55.35 55.31 55.53 55.68 56.22 56.37 56.20 56.24 56.40 55.75 54.13 55.24 56.24 56.33 56.41 57.09 57.33 57.79 58.07 58.45 58.56 58.79 59.22 59.54 59.78 60.12 60.54 60.60 60.65 61.41 62.76 64.70 64.16 64.29 64.72 65.15 65.29 63.97 55.25 56.70 62.98 64.22 65.52 63.39 63.10 66.10 64.01 61.90 65.89 68.47 68.76 69.28 68.85 68.27 68.53 68.95 69.42 69.82 70.14 70.40 71.24 72.15 72.71 73.02 73.33 73.52 74.07 75.08 76.08 76.78 77.39 78.22 79.36 80.36 81.34 82.39 83.02 83.77 84.38 85.12 85.58 85.23 84.53 83.50 82.82 83.95 84.64 85.24 85.24 84.02 82.44 80.88 80.32 79.90 80.22 80.88 81.74 82.91 84.29 85.03 85.45 85.33 85.00 84.31 83.71 84.72 85.30 86.09 86.33 86.31 86.66 87.19 88.16 89.19 89.39 90.08 89.88 89.63 90.05 90.27 90.27 91.49 93.08 94.70 95.86 95.47 94.00 92.44 91.71 90.67 89.30 88.15 87.13 86.60 86.46 86.25 85.69 85.75 85.78 85.48 85.20 84.68 84.31 83.90 83.38 82.57 81.48 81.40 81.73 81.64 81.40 81.26 81.05
44.77 44.95 44.98 45.07 44.99 44.97 45.12 45.23 45.31 45.40 45.47 45.40 45.51 45.67 45.90 46.12 46.23 46.47 46.44 46.39 46.41 46.33 46.36 46.57 46.71 46.79 46.98 47.04 47.13 47.17 47.08 46.72 46.87 47.27 47.23 47.12 47.32 48.02 48.49 49.26 50.38 51.01 49.77 49.42 49.57 48.81 47.71 46.48 45.70 45.91 45.69 44.79 44.81 44.11 43.39 43.42 43.22 42.71 42.69 43.31 43.02 41.98 41.64 41.43 41.30 40.99 40.91 40.85 40.71 40.71 40.66 40.73 40.76 40.43 40.04 40.08 40.08 39.43 39.82 40.22 39.99 38.83 37.34 40.11 41.38 41.56 40.91 40.79 40.19 40.36 39.68 39.35 39.29 39.19 39.39 39.15 39.43 39.54 39.51 39.83 40.05 40.44 40.02 40.01 40.45 40.99 40.32 40.57 40.70 40.15 41.29 41.71 41.61 41.53 40.61 40.64 41.38 41.59 41.94 42.98 42.86 42.76 42.59 42.85 42.49 42.75 43.02 42.31 42.05 42.28 42.44 42.75 42.42 42.52 42.28 43.15 40.00 32.33 31.30 31.11 32.20 35.26 37.97 40.01 42.05 44.18 44.48 45.16 45.70 45.61 45.60 44.14 44.92 45.14 45.17 44.47 44.22 43.01 42.86 44.51 44.75 46.55 46.29 46.26 46.39 46.26 46.91 47.13 46.34 44.95 44.71 44.99 45.06 45.79 45.78 46.55 46.83 46.36 47.53 47.19 46.68 46.13 45.64 44.62 44.85 44.63 46.12 45.89 46.92 48.26 48.16 48.64 48.83 48.53 48.44 48.62 49.08 48.97 49.07 50.13 50.25 50.69 50.73 50.71 50.31 50.06 50.10 50.65 51.24 51.46 51.47 51.04 51.48 51.56 51.36 51.46 51.86 52.97 53.87 53.70 53.14 53.47 52.33 52.14 52.26 53.25 53.97 52.46 52.53 52.81 52.92 53.14 53.43 53.51 53.69 53.86 53.85 54.07 54.53 54.70 54.74 54.71 54.66 55.03 55.06 55.14 55.22 55.35 55.41 55.57 55.66 55.72 55.85 56.29 56.49 56.59 56.67 55.17 54.49 55.49 56.64 56.99 57.24 57.56 58.05 58.21 58.53 58.74 58.92 59.40 59.76 60.00 60.26 60.73 60.94 61.20 61.63 62.50 63.68 63.52 64.12 64.35 64.93 65.02 64.98 59.91 59.05 62.30 64.46 64.98 64.63 64.60 65.15 61.92 62.21 66.16 67.71 67.85 67.99 68.09 68.41 68.55 68.59 68.78 69.40 69.78 70.21 70.90 71.63 72.02 72.42 72.66 73.13 73.97 75.29 75.90 76.68 77.22 78.33 79.77 80.87 81.66 82.10 82.95 84.07 84.71 85.15 85.19 84.27 83.42 82.02 82.48 83.35 84.08 84.76 85.21 84.69 83.26 81.56 79.78 79.69 80.35 81.46 82.51 83.03 83.74 84.61 85.16 84.58 83.77 83.65 83.94 84.85 85.76 86.41 86.64 86.94 87.31 88.04 89.12 90.51 90.50 90.99 90.87 90.31 90.63 90.46 90.48 92.29 94.32 95.48 97.02 97.19 95.76 93.50 92.46 91.94 90.28 88.26 87.37 86.80 86.94 86.74 86.39 86.34 86.00 85.56 84.91 84.46 84.25 83.90 83.48 82.91 82.17 82.00 82.04 81.81 81.54 81.56 81.67
44.54 44.74 44.79 44.92 44.99 44.95 45.03 45.15 45.32 45.33 45.46 45.41 45.56 45.83 46.06 46.25 46.33 46.56 46.62 46.59 46.50 46.55 46.66 46.73 46.89 46.96 47.10 47.17 47.21 47.14 47.15 47.04 47.06 47.28 47.51 47.79 48.16 48.64 49.00 50.07 50.60 50.58 49.24 47.29 45.83 45.10 47.93 48.14 45.67 45.74 45.63 45.25 45.66 45.22 44.15 44.11 44.23 43.19 42.96 42.35 43.38 42.65 42.14 41.79 41.35 41.22 41.24 41.12 41.00 40.80 40.74 40.55 40.73 40.49 40.12 40.08 40.16 40.00 39.61 40.23 40.33 39.40 37.56 40.20 40.99 41.51 41.23 41.25 40.87 40.54 39.88 39.43 39.40 39.26 39.49 39.40 39.49 39.33 39.33 39.52 40.16 40.62 40.51 40.39 40.40 40.65 40.75 40.92 41.60 41.09 41.45 41.25 41.35 41.46 40.60 40.69 41.06 41.59 41.91 43.04 43.11 42.81 42.58 42.67 42.73 42.92 42.83 42.47 42.40 42.58 42.40 42.75 42.75 43.66 42.73 43.44 42.41 33.83 31.11 31.28 31.80 35.18 40.29 42.43 42.78 43.61 44.38 44.65 46.69 45.88 44.75 44.19 43.99 44.82 45.45 45.12 45.32 43.27 43.43 44.68 44.15 45.26 46.14 46.39 46.81 46.85 47.32 47.57 46.16 45.82 46.08 46.09 45.98 45.87 45.71 46.64 47.39 47.19 47.06 47.59 47.29 46.49 46.46 45.39 44.70 44.94 48.05 48.24 48.49 48.72 48.32 48.29 48.33 48.49 48.83 49.18 49.15 49.27 49.31 49.32 50.20 51.40 51.35 50.42 51.88 52.10 51.52 51.07 51.18 51.82 51.23 51.14 51.22 50.94 51.21 51.50 52.15 53.35 54.40 54.17 53.29 54.01 53.51 52.90 52.18 52.81 53.62 52.63 53.06 53.48 53.48 53.59 53.76 54.09 53.98 54.11 54.58 54.64 54.95 55.07 55.13 55.03 54.91 55.18 55.30 55.32 55.45 55.54 55.61 55.76 55.87 55.98 55.86 56.33 56.65 56.80 57.04 56.66 55.23 54.39 54.91 56.95 57.27 57.41 57.83 58.09 58.43 58.91 59.16 59.53 59.92 60.21 60.43 60.95 61.13 61.53 61.76 62.02 62.48 62.92 63.52 63.83 64.31 64.68 64.81 63.66 62.49 63.74 65.34 65.79 65.88 66.06 66.23 64.40 63.90 65.89 67.07 67.47 67.74 68.14 68.57 68.58 68.65 68.86 69.41 69.73 69.94 70.50 71.09 71.35 71.88 72.26 72.72 73.53 74.58 75.27 76.02 76.58 78.14 79.66 81.01 81.68 81.28 82.54 83.65 83.96 84.42 84.82 83.57 82.44 81.17 82.23 82.88 83.69 84.00 84.23 84.49 83.55 82.14 80.36 79.55 80.81 82.82 83.24 82.47 82.83 83.39 84.14 83.66 82.24 82.63 84.03 85.22 85.97 86.60 86.89 87.31 88.02 89.07 89.85 91.37 92.07 92.18 91.65 91.37 91.82 91.48 91.63 93.65 95.75 96.64 98.48 98.78 97.11 95.38 93.71 92.18 90.25 88.67 87.96 87.51 87.61 87.41 87.06 86.43 85.69 85.45 85.20 85.08 84.52 84.00 83.46 82.97 82.67 82.52 82.35 81.98 81.79 81.89 81.80
44.40 44.53 44.56 44.70 44.85 44.98 45.07 45.13 45.16 45.14 45.31 45.50 45.69 45.93 46.18 46.28 46.26 46.50 46.73 46.83 46.69 46.70 46.82 46.96 47.06 47.10 47.12 47.27 47.36 47.36 47.31 47.53 47.42 47.61 48.33 48.68 48.51 48.67 48.99 49.54 49.35 48.45 45.61 44.18 43.28 43.02 45.86 48.92 46.38 45.63 45.58 45.26 45.23 44.87 44.56 43.98 44.31 44.20 44.10 43.43 44.11 44.92 42.92 42.49 41.88 41.44 41.44 41.44 41.20 41.02 40.92 40.76 40.97 40.85 40.60 40.45 40.22 40.13 39.73 40.30 40.45 39.31 37.98 39.23 41.47 42.29 41.38 41.09 40.86 40.55 39.81 39.56 39.49 39.44 39.63 39.77 39.69 39.64 39.55 39.66 40.24 40.54 40.40 40.35 40.61 41.37 41.26 41.35 43.22 43.25 41.66 40.61 41.55 41.19 40.92 40.74 41.16 41.67 41.98 43.18 43.01 43.14 42.75 42.75 42.89 42.96 42.63 42.36 42.58 42.88 42.34 42.50 42.98 43.67 42.55 42.67 41.87 34.12 31.12 31.29 31.82 34.25 38.95 41.55 41.90 42.91 43.92 44.14 45.53 45.03 44.61 45.02 44.63 45.23 45.58 45.34 45.01 43.77 43.97 44.15 43.99 44.48 45.32 46.16 47.55 47.91 47.66 48.69 47.35 46.94 46.68 46.72 46.81 46.55 46.57 47.35 46.98 47.09 46.81 47.46 48.35 47.40 46.97 47.08 46.45 45.48 46.25 48.19 49.70 49.32 48.39 48.87 49.01 49.14 49.25 49.48 49.19 50.45 50.85 49.74 49.88 51.51 51.44 50.68 50.99 51.54 52.46 51.87 51.72 52.53 51.47 51.38 51.63 51.62 51.89 52.13 53.14 54.30 53.87 54.70 55.65 55.63 54.17 53.28 52.62 52.67 52.76 52.78 53.27 53.84 54.04 54.31 54.36 54.40 54.24 54.40 54.72 54.86 55.26 55.42 55.74 55.83 55.66 55.80 55.56 55.76 55.95 55.90 55.88 55.97 56.08 56.43 56.14 56.28 56.76 57.10 57.13 57.11 56.89 55.74 54.33 54.93 56.93 57.59 57.79 58.23 58.64 59.02 59.30 59.66 60.09 60.48 60.51 60.82 61.38 61.80 61.82 62.18 62.69 62.92 63.25 63.53 63.92 64.35 64.98 64.53 64.17 64.51 65.06 65.23 65.53 65.95 66.66 65.51 66.22 66.97 67.15 67.25 67.85 68.38 68.68 68.88 68.89 69.17 69.48 69.79 69.86 70.40 70.70 70.79 71.33 72.03 72.60 73.27 74.25 74.78 75.15 76.12 77.55 79.04 80.38 81.27 80.46 81.64 82.80 82.68 83.35 84.15 83.07 81.04 80.26 81.43 82.47 82.97 82.98 83.25 83.95 83.70 82.47 80.42 79.74 81.81 84.24 84.01 82.10 82.02 82.23 82.92 82.66 81.81 82.54 84.16 85.30 85.90 86.62 87.35 88.01 88.82 90.20 90.89 92.31 93.34 93.56 92.86 92.62 92.80 92.40 92.65 95.52 97.73 98.07 99.48 100.33 98.70 97.52 95.00 92.54 90.34 88.98 88.31 88.10 88.08 87.77 87.16 86.20 86.78 86.92 86.36 85.80 85.08 84.31 83.61 83.44 83.50 83.42 82.93 82.48 82.10 82.29 81.93
44.10 44.19 44.32 44.43 44.59 44.77 44.86 44.85 44.75 45.03 45.13 45.34 45.66 45.96 46.20 46.23 46.24 46.39 46.68 46.90 46.90 46.98 47.08 47.11 47.11 47.15 47.18 47.37 47.85 47.91 47.72 47.60 47.41 47.47 47.66 47.89 47.89 47.88 48.09 47.96 46.43 44.60 44.53 44.11 43.49 43.06 44.39 47.48 45.99 45.66 46.07 45.83 45.10 45.09 46.43 45.06 44.92 45.47 46.32 45.39 45.32 45.61 43.89 43.23 42.39 41.79 41.65 41.64 41.41 41.21 41.20 41.18 41.28 41.16 40.78 40.45 40.21 40.05 40.32 41.09 41.03 39.78 38.21 38.38 40.80 41.60 41.09 41.06 40.78 40.53 39.82 39.70 39.70 39.61 39.87 39.90 39.92 39.78 39.95 39.93 39.76 40.08 40.02 40.18 40.25 40.57 40.73 41.62 43.74 42.72 40.27 40.84 41.19 40.85 41.04 41.42 41.02 41.09 41.28 42.59 43.44 43.58 43.22 42.93 42.83 43.20 42.73 42.55 42.89 43.30 42.25 41.81 42.13 42.79 42.41 41.74 39.03 33.66 31.33 31.07 32.04 33.90 37.60 40.94 42.01 43.17 44.46 44.05 44.71 44.83 44.86 45.26 44.88 45.38 45.60 45.46 45.26 44.34 45.07 44.51 44.09 44.54 45.18 45.60 46.76 47.01 47.38 48.48 48.94 49.36 46.63 47.09 47.24 47.14 48.08 47.59 47.16 46.72 47.38 47.47 48.29 48.38 47.82 47.52 48.44 46.91 46.65 48.18 50.03 50.28 50.21 50.59 50.25 50.13 49.74 49.68 49.50 49.72 50.55 50.48 50.01 49.84 51.30 51.72 51.71 52.08 53.00 52.72 52.28 52.66 53.28 54.37 56.74 57.39 58.06 57.50 54.62 54.75 54.65 55.52 56.87 55.38 54.13 53.36 53.02 52.90 53.10 53.35 53.58 54.24 54.98 55.05 54.94 54.80 54.69 54.72 55.21 55.55 55.75 55.90 55.85 56.05 56.16 56.11 56.15 56.30 56.47 56.50 56.12 56.21 56.29 56.59 56.49 56.49 56.92 57.13 57.25 57.28 56.71 56.81 56.58 54.90 55.54 57.58 58.15 58.47 58.76 59.18 59.43 59.86 60.24 60.48 60.65 60.96 61.50 61.80 61.96 62.40 62.68 62.83 63.01 63.00 63.29 63.68 64.10 63.63 63.80 64.22 64.69 62.89 60.86 61.74 65.85 63.84 65.28 66.74 66.83 66.87 67.76 68.48 68.89 69.03 69.14 69.38 69.67 70.12 70.27 70.70 70.77 70.90 71.26 71.82 73.17 73.75 74.32 74.61 74.72 75.65 76.80 77.92 79.24 80.57 79.50 80.29 81.81 81.41 82.25 82.97 81.65 79.57 79.46 80.71 81.49 81.85 82.06 82.64 83.01 82.56 81.65 79.89 79.81 81.72 83.13 82.12 80.68 81.14 82.36 82.59 82.79 82.73 83.74 84.73 85.44 86.45 87.63 88.17 88.36 89.32 90.80 92.07 93.10 94.46 94.66 94.05 94.11 94.18 93.39 93.30 95.42 98.19 99.45 100.16 100.93 100.43 100.05 98.25 95.43 91.60 89.57 88.86 88.82 88.76 88.33 86.96 87.10 88.43 88.42 87.97 88.07 89.49 87.46 84.96 84.19 84.14 83.85 83.12 82.97 82.71 82.56 82.08
43.87 43.95 44.06 44.10 44.26 44.38 44.48 44.56 44.75 45.08 45.18 45.38 45.69 46.05 46.21 46.32 46.36 46.40 46.60 46.85 46.94 47.07 47.10 47.14 47.28 47.28 47.29 47.30 47.20 47.27 47.23 47.26 47.31 47.29 47.12 47.26 46.78 46.57 47.23 47.64 45.45 43.98 44.15 44.21 44.27 43.95 44.93 46.53 45.68 45.83 46.35 46.15 44.97 45.10 47.11 45.53 45.66 45.98 46.24 45.67 45.86 45.80 47.71 47.66 44.73 42.71 42.17 42.94 42.69 42.46 41.66 41.32 41.14 41.00 40.75 40.58 40.54 40.52 40.56 41.46 41.49 40.34 39.04 38.14 39.58 41.19 41.04 41.06 40.84 40.59 40.00 39.78 39.82 39.81 40.01 39.98 39.98 40.06 40.38 40.29 39.98 40.07 40.34 40.48 40.38 40.64 40.83 40.97 41.20 41.57 41.10 40.98 41.60 41.49 41.64 41.60 41.10 41.09 41.15 41.78 42.87 43.85 43.72 43.18 42.93 42.96 42.60 42.50 42.46 42.41 42.13 41.64 42.33 42.83 42.18 41.15 36.92 33.23 31.45 30.93 31.71 34.07 37.01 40.17 42.20 45.50 47.60 45.53 44.66 44.57 45.38 45.27 44.87 45.52 46.12 46.03 45.33 46.76 47.65 46.17 44.24 44.48 45.74 46.91 46.60 46.14 47.26 49.42 50.48 52.43 47.37 48.35 48.60 48.10 48.65 47.87 47.47 47.29 47.28 47.51 48.15 48.41 48.35 48.34 48.81 47.78 47.10 48.45 50.88 51.64 51.74 52.82 52.63 50.75 50.34 49.92 50.26 50.16 50.55 51.36 50.64 49.75 50.92 51.80 51.91 51.96 51.88 51.66 52.39 52.09 56.58 60.68 60.79 60.67 60.75 60.26 55.24 54.96 54.56 54.96 54.52 54.09 53.89 53.40 53.31 53.41 53.42 54.05 54.75 55.09 56.59 56.91 56.73 55.49 55.36 55.20 55.44 55.65 56.04 56.41 56.42 56.38 56.21 56.31 56.34 56.35 56.56 56.89 56.77 56.76 56.54 56.82 56.75 56.63 56.90 56.98 57.05 56.81 56.82 57.19 57.50 56.90 55.15 56.22 57.90 58.29 58.85 59.39 59.74 60.02 60.32 60.50 60.68 60.99 61.60 61.78 62.02 62.32 62.51 62.57 62.08 61.49 62.04 62.55 62.69 63.04 63.77 64.49 65.14 65.57 63.47 57.97 63.96 64.42 65.48 66.70 66.95 67.24 67.55 68.13 69.05 69.50 69.29 69.51 70.01 70.35 70.51 70.78 71.25 71.26 71.64 72.23 73.63 74.12 74.92 75.36 74.42 74.32 75.19 76.25 78.14 79.57 78.66 79.31 80.73 79.81 80.36 81.37 80.05 78.35 79.24 80.52 80.75 80.56 80.76 81.36 82.32 81.64 79.53 78.80 80.11 80.93 80.65 80.24 80.75 81.89 82.66 82.94 83.51 84.06 84.96 85.13 86.69 87.50 88.93 89.55 89.18 89.37 90.62 92.28 94.09 95.40 95.51 95.23 95.49 95.21 93.99 93.96 95.75 98.02 100.32 101.37 102.02 102.45 101.90 99.96 97.58 93.56 90.99 89.53 89.30 89.19 88.71 87.89 90.75 91.72 92.16 92.00 94.75 96.70 92.84 86.97 85.39 85.08 84.54 83.85 83.58 83.35 82.90 82.44
43.77 43.73 43.78 44.04 44.10 44.31 44.35 44.57 44.87 45.15 45.22 45.48 45.72 46.08 46.32 46.36 46.37 46.49 46.63 46.70 46.85 46.99 47.15 47.23 47.33 47.24 47.08 47.05 46.99 46.95 46.85 47.03 47.44 47.19 47.16 46.60 46.27 46.21 46.87 46.64 44.56 44.34 44.79 45.36 45.13 45.17 45.86 46.07 45.53 45.84 45.85 45.52 45.34 44.64 45.45 44.93 45.35 45.89 46.59 46.08 45.83 45.55 45.64 47.43 47.19 44.80 43.32 43.62 43.84 43.68 42.32 41.53 41.13 41.15 40.90 40.83 40.89 40.86 40.86 41.34 41.99 40.73 39.35 38.23 39.03 40.48 40.60 40.74 41.16 41.16 40.36 40.10 40.08 40.28 40.34 40.17 40.28 40.74 40.74 40.29 40.47 40.58 40.38 41.03 41.23 41.80 41.30 41.27 41.04 40.19 40.81 41.93 42.70 42.55 42.57 41.41 41.18 41.44 41.48 41.28 41.69 43.71 43.99 43.45 42.67 41.89 41.93 42.48 42.56 42.50 42.16 42.14 42.58 41.85 41.23 39.93 36.18 32.78 31.20 30.74 31.38 33.48 36.68 40.25 42.31 44.98 48.63 46.06 44.11 44.09 45.06 45.62 45.86 45.91 46.19 46.34 46.16 47.46 47.45 46.87 45.28 44.88 46.57 49.19 47.65 46.00 47.33 49.27 49.68 49.12 48.57 48.86 49.30 49.09 48.34 47.83 47.23 47.51 47.52 47.52 48.25 48.18 48.42 49.64 49.55 48.74 48.50 48.04 48.82 50.36 51.19 51.90 53.03 51.85 51.22 50.82 50.86 50.98 50.63 50.66 50.92 50.75 50.45 51.02 51.48 51.67 51.70 51.83 54.91 54.16 53.26 55.62 54.42 54.27 54.80 55.27 54.68 56.28 55.15 54.72 54.14 53.94 53.97 53.78 53.95 53.94 54.00 55.98 57.60 57.34 55.73 55.95 55.81 56.02 56.13 56.49 56.52 56.05 56.20 56.32 56.34 56.62 56.71 56.80 56.79 56.76 56.79 57.31 57.56 57.35 57.09 57.08 57.19 57.09 56.94 57.07 56.93 56.74 57.13 57.59 57.84 58.06 56.87 54.70 55.75 57.14 58.77 59.25 59.68 60.04 60.25 60.47 60.79 61.00 61.37 61.77 62.08 62.42 62.53 62.42 61.97 61.40 61.92 62.58 62.94 63.43 64.62 65.38 65.91 66.94 65.65 57.15 62.57 66.86 67.39 67.67 67.77 67.95 67.89 68.03 68.35 68.93 69.14 69.38 69.89 70.50 70.62 70.86 71.40 71.86 72.65 73.23 73.11 73.82 74.57 74.94 73.79 73.31 73.60 74.62 76.29 77.63 77.40 77.94 79.11 78.79 78.84 79.71 78.22 77.35 78.83 79.29 79.50 79.08 79.23 79.67 80.07 79.58 78.49 78.57 79.90 80.65 80.22 81.17 81.81 82.90 83.50 83.54 84.58 85.74 86.16 85.98 88.04 89.31 89.88 91.07 91.01 90.39 90.40 92.44 94.76 95.78 96.05 96.12 96.29 95.19 94.58 95.30 96.87 99.34 101.03 102.51 103.46 102.71 100.43 97.07 94.71 92.47 91.22 90.31 89.80 89.03 88.41 88.56 92.77 94.99 96.08 97.43 100.43 99.51 94.30 88.15 86.45 86.04 85.47 84.87 84.33 83.87 83.41 83.11
43.50 43.66 43.92 44.21 44.38 44.54 44.57 44.69 44.88 45.11 45.19 45.45 45.68 45.87 46.07 46.14 46.22 46.44 46.69 46.61 46.75 46.81 47.02 47.01 47.16 47.20 47.04 46.93 46.93 46.79 46.71 46.83 47.40 47.12 46.73 46.35 46.31 46.29 46.99 45.85 44.68 45.15 45.89 45.86 45.26 44.94 46.45 47.38 46.06 45.43 45.03 44.55 44.41 44.56 45.63 45.97 46.51 46.79 47.15 46.32 45.67 46.14 45.54 45.76 45.40 43.32 42.57 42.66 43.53 43.79 42.88 41.86 41.45 41.11 41.23 41.37 41.16 41.23 41.82 42.01 42.07 40.25 38.06 37.66 39.07 40.64 41.31 41.19 41.58 41.99 40.93 40.28 40.26 40.50 40.58 40.28 40.66 40.88 40.56 40.24 40.08 40.21 40.39 40.79 41.58 41.80 41.37 41.15 41.11 40.55 39.94 40.90 41.21 41.73 42.20 41.91 41.76 41.20 41.18 41.59 42.26 43.23 43.67 44.12 43.41 42.52 42.54 42.60 42.64 42.69 42.74 42.39 41.27 40.45 41.03 39.98 38.25 33.27 31.13 30.69 31.17 33.18 35.99 39.78 41.65 43.68 47.33 45.85 44.53 44.45 45.24 45.60 45.73 45.74 46.71 46.66 47.19 47.18 46.77 46.58 45.82 45.34 46.61 48.42 49.90 46.51 47.51 48.10 47.79 48.32 49.33 49.41 49.22 49.13 48.44 47.42 47.40 47.97 48.19 48.03 48.61 49.04 48.57 48.67 49.19 49.34 49.05 49.05 48.58 50.23 51.29 51.14 52.40 51.83 51.30 51.13 51.67 52.08 51.15 50.46 51.55 51.91 50.47 50.99 52.02 52.21 52.49 54.08 59.17 57.62 53.47 54.35 54.98 55.02 53.86 53.87 55.54 56.89 55.76 54.80 54.51 54.66 54.77 54.59 54.75 54.47 54.52 56.89 58.30 57.52 56.23 55.94 56.28 56.51 57.13 58.20 57.81 57.18 57.12 56.82 56.70 57.03 57.28 57.29 57.14 57.17 57.19 57.64 58.03 57.68 57.63 57.28 57.36 57.36 57.13 57.29 57.11 57.16 57.40 57.86 57.83 58.07 58.12 56.44 54.21 56.62 58.68 59.22 59.77 60.01 60.26 60.31 60.72 61.03 61.30 61.61 61.96 62.24 62.58 61.89 60.87 61.46 62.37 63.31 63.76 64.18 65.45 66.61 67.19 68.17 68.44 65.87 67.08 68.42 68.40 69.22 69.22 69.05 68.76 68.40 68.59 69.18 69.15 68.89 69.40 69.87 69.96 70.51 70.95 72.47 73.23 72.86 73.46 73.07 73.27 73.12 72.85 73.29 73.08 73.53 74.30 75.02 75.32 76.51 77.28 76.96 77.10 77.16 76.40 76.30 77.24 77.13 77.58 77.29 77.52 77.87 78.44 78.74 79.18 79.63 79.56 80.12 81.03 81.74 82.24 83.39 84.60 84.33 84.74 86.13 87.76 88.09 89.37 90.72 90.93 92.08 92.55 92.33 91.50 92.23 94.40 95.14 95.27 95.59 95.96 95.35 95.97 97.47 98.36 100.50 102.32 103.22 103.93 102.19 98.93 95.54 93.98 93.06 91.82 90.84 89.89 89.68 89.13 89.94 94.05 97.89 99.02 101.18 102.21 97.80 92.70 88.95 87.83 87.15 86.34 85.64 85.01 84.40 83.84 83.56
43.50 43.77 44.07 44.39 44.56 44.72 44.82 44.97 45.16 45.30 45.39 45.37 45.64 45.83 46.03 46.15 46.23 46.27 46.53 46.67 46.69 46.69 46.81 46.87 46.94 47.01 46.95 46.87 46.96 46.72 46.71 46.75 46.86 46.70 46.52 46.40 46.33 46.60 46.70 45.12 44.95 45.11 45.73 45.66 44.72 44.86 46.99 47.58 46.06 45.34 44.66 44.05 44.05 44.88 45.71 46.13 46.65 46.94 47.00 46.59 45.92 45.76 45.43 44.87 44.44 43.56 43.00 42.52 42.52 42.08 41.91 41.99 41.83 41.49 41.50 41.59 41.31 41.23 41.50 41.62 40.96 40.60 38.67 37.44 38.71 40.41 41.86 42.05 41.71 41.54 41.04 40.58 40.47 40.63 40.82 40.61 40.93 40.89 40.72 40.58 40.36 40.42 40.36 40.61 41.74 42.58 42.69 41.59 41.71 41.84 40.76 41.80 42.33 42.71 42.34 41.93 42.30 42.10 42.73 43.12 42.49 42.81 42.70 43.29 44.06 43.78 43.74 42.90 42.76 43.17 43.66 43.13 41.21 41.20 41.78 41.27 39.65 33.79 31.28 30.74 30.98 32.63 35.22 39.62 41.91 43.65 46.72 45.60 44.81 44.51 44.85 45.41 47.38 47.44 47.02 46.89 47.47 48.11 47.75 47.15 47.29 46.63 47.27 47.58 47.84 47.60 48.25 47.93 48.26 48.23 49.26 49.80 49.21 48.44 48.18 48.03 47.94 48.14 48.38 48.43 48.67 49.40 48.90 48.47 49.31 49.73 49.68 50.08 49.70 50.50 52.39 52.78 52.25 51.90 51.59 51.50 52.11 52.63 51.89 51.12 52.82 53.30 51.51 51.64 52.70 52.90 53.62 57.06 58.37 56.80 54.76 56.58 57.30 56.66 54.69 54.54 55.55 55.93 56.07 56.47 56.09 55.53 55.55 55.31 55.38 54.98 55.02 56.64 58.67 58.05 57.51 56.31 56.46 56.98 57.58 59.03 58.79 58.19 58.01 57.54 57.40 57.54 57.75 57.83 57.49 57.67 57.93 58.04 58.15 57.88 57.99 57.88 57.93 57.45 57.40 57.46 57.34 57.45 57.76 57.96 57.86 58.05 58.29 58.35 55.77 56.15 57.92 58.92 59.41 59.52 59.96 60.18 60.36 60.71 61.04 61.28 61.67 61.85 61.70 60.30 60.88 62.23 62.97 63.55 64.04 64.64 65.89 67.02 67.79 68.76 69.33 69.61 70.37 69.62 69.12 69.93 70.60 70.92 70.26 69.31 69.50 69.92 70.23 69.85 70.45 71.05 71.00 71.03 71.67 72.32 71.39 71.81 72.45 72.64 72.71 72.76 73.21 73.70 73.98 73.77 73.94 74.29 75.03 75.83 76.06 75.76 75.60 75.52 76.05 76.68 76.84 76.99 77.51 77.51 78.05 78.62 79.53 80.13 81.31 81.77 80.73 80.55 81.36 82.23 82.96 83.75 85.25 85.69 85.79 86.93 87.76 88.99 90.47 92.04 92.71 93.50 94.07 94.19 93.08 91.72 92.78 93.83 93.87 94.53 95.99 96.78 97.68 99.38 100.24 101.03 102.84 103.91 103.48 101.39 98.13 95.69 96.00 97.00 93.54 91.07 90.26 90.75 90.61 91.13 94.28 99.86 103.07 104.50 103.85 97.81 91.78 89.90 88.93 88.16 87.24 86.43 85.62 84.90 84.22 83.85
43.59 43.93 44.16 44.39 44.54 44.75 44.89 45.22 45.35 45.43 45.45 45.48 45.58 45.76 45.94 46.10 46.22 46.29 46.38 46.47 46.47 46.53 46.64 46.68 46.63 46.89 46.89 46.88 46.95 46.78 46.81 46.91 46.77 46.76 46.50 46.46 46.53 47.19 46.34 45.26 44.94 44.91 45.08 45.02 44.93 46.37 46.25 45.43 44.99 44.75 44.36 43.87 43.99 44.97 46.19 45.99 46.19 46.73 46.90 47.07 46.25 45.28 45.10 44.84 43.89 43.42 43.42 42.87 42.55 42.15 41.89 41.70 41.56 41.48 41.44 41.28 41.10 41.14 41.21 41.04 40.55 40.63 39.45 37.91 38.13 39.48 40.73 41.71 42.20 41.66 41.11 41.34 41.13 41.23 40.97 41.24 41.51 41.62 41.00 40.73 40.60 41.07 40.86 41.24 42.47 43.06 43.09 41.99 41.54 42.83 42.69 43.23 43.69 43.66 43.02 42.56 42.57 42.50 42.70 43.69 42.66 42.37 42.03 41.87 42.01 42.98 43.47 43.52 43.33 43.48 43.89 44.62 42.34 42.15 42.18 41.75 39.73 33.44 31.27 30.71 30.93 32.60 34.66 38.44 42.36 45.64 46.58 45.54 45.67 45.40 46.32 47.22 48.77 48.37 47.43 47.07 46.20 45.60 47.20 48.12 48.29 46.79 47.18 47.94 48.32 48.19 48.32 48.69 48.31 48.81 49.25 49.75 48.99 48.67 48.52 48.22 48.43 48.77 49.07 49.42 49.28 49.82 49.64 49.19 49.47 50.17 51.23 51.49 50.93 51.20 52.34 53.88 52.96 52.72 52.52 52.80 53.83 54.76 53.61 52.03 52.68 53.56 51.75 51.44 52.26 52.94 53.22 53.23 52.85 53.27 55.18 56.45 57.04 56.81 54.99 54.97 55.91 56.57 56.94 59.13 58.23 56.90 56.42 55.86 55.87 55.52 55.54 56.03 57.65 58.16 57.38 57.06 57.30 57.47 57.93 59.01 59.11 59.00 58.85 58.78 58.20 58.33 59.00 59.47 58.21 58.38 58.47 58.54 58.58 58.46 58.51 58.37 58.55 57.95 57.84 57.89 57.75 57.86 57.94 57.87 58.14 58.25 58.52 58.59 57.85 55.61 57.16 58.25 58.63 59.03 59.11 57.80 57.35 57.88 59.46 60.50 61.32 61.28 60.25 61.26 62.78 62.45 62.77 63.53 64.30 64.84 65.46 66.43 67.46 69.38 69.40 69.38 70.34 70.54 70.51 71.18 71.58 71.90 71.40 70.20 70.49 70.90 71.27 70.92 71.08 72.53 72.34 72.27 73.48 72.00 71.52 72.76 72.85 73.16 73.29 73.78 74.22 74.94 75.15 75.08 74.91 74.80 75.58 76.82 77.82 78.15 77.91 76.71 76.52 77.20 77.68 77.94 78.52 79.05 79.70 80.10 81.53 82.29 82.74 83.76 82.58 82.22 82.60 83.04 84.25 85.05 85.14 86.33 87.49 88.44 88.51 89.19 90.90 92.66 93.82 94.99 95.41 95.08 93.85 92.93 92.79 93.81 94.95 95.28 96.29 98.16 99.33 100.32 101.33 102.10 103.11 103.91 103.04 101.32 98.22 96.16 97.25 96.52 93.08 91.20 90.93 91.38 91.96 92.63 95.76 100.76 104.89 105.75 102.86 98.27 95.12 92.83 91.20 89.82 89.71 88.26 86.29 85.17 84.56 84.13
43.80 44.04 44.14 44.32 44.52 44.79 45.05 45.36 45.40 45.47 45.56 45.56 45.51 45.80 45.92 46.00 46.31 46.36 46.25 46.36 46.39 46.35 46.45 46.61 46.74 46.73 46.86 46.94 46.86 46.93 46.99 46.98 46.79 46.70 46.58 46.65 46.81 47.12 45.91 45.65 45.37 45.38 45.59 45.83 46.45 47.08 45.89 45.16 44.70 44.55 44.38 44.10 44.12 44.61 45.54 46.03 46.24 46.66 46.78 46.55 45.72 44.94 44.59 44.61 43.48 43.00 42.99 42.83 42.93 42.71 42.04 41.83 41.63 41.50 41.07 40.53 40.59 40.66 40.85 40.49 40.24 39.65 38.84 38.57 38.23 39.66 40.15 41.08 42.01 42.19 41.51 42.45 41.89 41.26 41.19 41.55 41.71 41.84 41.12 40.69 41.30 41.56 41.54 41.61 42.47 43.26 43.31 42.81 43.09 43.34 43.02 43.31 43.44 43.25 43.88 43.90 42.81 42.61 42.32 42.61 42.27 42.07 41.49 41.36 41.46 41.84 42.44 43.15 43.48 44.26 44.14 44.36 42.23 42.49 42.11 42.04 40.51 33.35 31.29 30.96 30.81 32.67 34.15 37.11 41.00 45.14 46.05 45.96 46.91 46.23 46.44 46.92 47.91 47.78 48.16 47.02 46.63 45.95 47.00 48.48 47.82 47.58 47.37 47.82 48.21 47.59 47.84 48.68 48.75 49.07 49.58 49.77 49.92 49.92 48.83 47.94 48.87 49.46 49.76 50.08 50.41 51.09 50.57 49.90 50.34 51.22 52.85 53.23 53.45 53.11 52.74 53.36 52.84 52.87 53.48 55.22 58.13 61.80 58.12 53.73 52.75 52.80 51.29 50.71 51.00 52.70 52.75 52.51 52.84 53.46 54.60 56.24 56.85 56.99 56.18 56.36 56.68 57.21 57.88 59.48 58.93 57.84 56.91 56.63 56.42 56.23 56.54 56.85 57.04 57.65 57.84 57.57 58.05 58.19 58.43 58.83 59.65 60.19 59.98 59.69 59.02 58.61 59.62 61.16 58.94 58.84 58.91 58.95 59.03 58.98 58.96 58.98 59.02 58.93 58.66 58.31 58.22 58.08 58.16 57.96 58.31 58.65 58.77 59.03 58.60 57.28 55.93 57.06 57.28 56.97 56.82 56.79 57.53 57.22 57.23 59.27 60.70 60.56 60.28 61.32 62.14 62.19 62.69 63.50 64.28 64.81 65.37 66.26 67.25 69.96 69.87 69.62 70.49 71.28 71.23 71.67 71.29 70.91 71.58 71.28 71.38 71.73 72.10 71.50 71.54 73.07 72.98 73.05 73.73 72.10 71.66 73.43 74.09 74.56 74.17 75.37 75.33 76.16 76.22 76.10 76.08 75.68 75.55 77.05 79.18 80.22 80.52 78.10 77.37 78.22 79.07 79.55 79.84 80.37 81.06 81.04 82.83 84.58 84.14 85.03 84.80 83.79 84.26 84.67 84.81 86.35 87.40 87.95 88.81 90.19 90.00 89.81 90.98 93.05 94.41 95.62 96.31 95.79 95.11 94.41 93.74 94.72 96.19 96.79 97.23 98.95 100.48 101.16 101.74 102.56 103.05 103.55 102.33 100.34 97.98 95.60 94.75 93.64 92.42 91.75 91.87 92.09 93.02 94.15 98.10 102.40 105.19 105.56 102.78 103.24 101.87 97.79 94.69 93.34 96.26 95.66 90.81 86.16 84.98 84.59
43.94 44.15 44.11 44.33 44.53 44.78 45.02 45.28 45.36 45.43 45.55 45.62 45.72 45.77 45.90 46.07 46.32 46.20 46.19 46.38 46.36 46.34 46.58 46.65 46.82 46.79 46.82 46.85 46.93 46.96 47.03 47.09 46.92 46.90 46.82 46.81 47.20 46.59 46.15 46.48 46.50 46.73 47.23 47.25 47.11 46.55 45.74 45.33 45.00 44.69 44.50 44.21 44.31 44.49 45.03 45.45 45.84 46.36 46.04 45.28 44.77 44.47 44.27 44.34 43.51 43.10 42.88 42.46 42.54 42.32 42.07 41.88 41.71 41.37 40.50 39.96 40.98 41.24 41.12 41.24 41.62 40.84 39.68 39.70 39.37 39.98 40.79 41.67 42.01 42.35 41.80 41.70 41.24 41.26 41.45 41.41 40.81 40.90 41.04 40.93 41.74 42.33 42.69 42.04 42.59 43.02 43.51 43.36 43.85 43.67 43.23 43.49 43.19 42.74 42.61 43.11 42.55 42.78 42.71 43.12 43.39 43.44 42.99 41.98 42.10 42.41 42.43 42.37 43.13 44.40 43.98 42.88 42.59 43.16 43.26 43.14 41.46 33.80 31.30 31.10 30.87 32.66 34.03 36.36 39.87 42.78 44.83 45.21 45.50 45.62 46.55 47.25 47.72 48.50 48.02 47.21 47.36 47.64 48.89 48.61 47.01 47.69 47.96 48.94 49.44 48.62 48.26 48.76 49.40 49.53 50.11 50.29 50.37 50.08 49.19 49.29 50.79 50.35 50.00 50.42 51.41 51.87 51.21 50.57 51.49 52.31 54.83 56.63 57.30 55.74 54.29 53.41 53.52 53.37 54.02 56.35 60.27 64.10 62.30 56.76 53.93 53.00 51.71 51.24 51.48 53.41 52.89 52.82 53.36 54.02 54.63 56.07 57.51 57.79 56.98 58.11 58.35 58.73 59.87 61.38 59.48 58.12 57.62 57.41 57.32 57.10 57.54 58.53 58.29 58.82 58.52 58.14 58.70 58.90 58.58 58.88 59.52 59.75 59.01 59.05 59.34 59.54 60.50 62.00 60.00 59.58 59.35 59.40 60.00 60.20 59.53 59.50 59.75 59.74 58.90 58.78 58.78 58.35 58.41 58.23 58.27 58.76 59.43 60.61 58.94 58.62 56.85 56.07 55.45 56.13 57.42 58.06 58.30 58.15 56.81 58.24 59.57 59.46 59.80 60.27 61.04 62.02 62.86 63.56 64.10 64.78 65.51 66.39 67.42 69.17 69.91 70.38 70.62 71.10 70.96 70.33 69.20 69.84 71.07 71.82 72.02 72.14 72.82 72.50 71.97 72.55 72.87 73.28 73.09 72.30 72.97 74.05 74.57 76.56 76.02 76.25 76.28 77.04 77.12 77.46 77.45 76.54 75.84 76.41 78.80 80.61 81.10 78.77 78.29 79.61 80.51 81.07 81.49 81.33 82.63 82.44 83.06 85.25 85.50 85.86 86.25 85.25 85.87 86.46 86.49 87.14 89.00 89.49 89.69 91.28 91.47 91.46 92.84 94.39 95.21 95.78 96.39 96.50 96.02 95.28 94.94 95.87 96.93 97.75 98.56 98.94 99.88 100.35 100.95 101.75 102.88 103.57 101.81 99.60 97.67 96.40 95.01 93.99 93.29 93.03 92.72 92.73 93.49 94.92 97.84 102.45 105.06 106.16 105.96 105.66 102.75 98.28 95.33 96.04 99.56 101.21 96.19 88.16 86.04 85.08
43.81 44.01 44.14 44.32 44.52 44.79 45.03 45.10 45.16 45.29 45.33 45.49 45.80 45.93 46.21 46.36 46.39 46.36 46.44 46.53 46.70 46.81 47.02 47.03 47.01 47.09 46.99 47.04 47.11 47.12 47.12 47.19 47.06 46.85 47.02 46.97 47.17 47.43 47.67 47.63 47.96 48.22 48.35 47.66 47.03 46.69 46.26 45.49 45.02 44.67 44.47 44.37 44.37 44.57 44.84 45.09 45.46 45.80 45.87 45.25 44.40 44.02 43.89 44.09 43.68 43.45 43.04 42.77 42.85 42.44 42.18 41.92 41.69 41.31 41.09 41.32 41.38 41.41 41.29 41.33 41.42 40.55 40.55 40.22 39.93 40.15 41.71 42.00 41.76 42.34 41.69 41.16 41.46 41.40 41.58 41.73 41.38 41.29 41.42 42.06 41.58 44.05 44.17 42.80 42.50 42.21 42.59 42.35 43.42 44.07 43.72 43.55 42.67 42.36 43.03 43.03 42.39 42.07 42.74 42.82 43.87 45.04 45.81 44.23 43.92 43.50 42.61 42.15 42.20 43.14 43.72 43.40 43.09 43.35 43.95 44.65 44.28 36.35 31.30 31.15 30.85 32.19 34.18 35.35 37.38 41.20 44.25 44.87 44.97 45.26 46.12 46.36 46.43 46.93 47.07 47.23 48.03 48.69 47.89 48.52 48.17 49.24 48.86 49.93 50.44 50.11 49.46 49.38 49.90 49.66 49.88 50.70 50.66 50.63 50.67 50.39 50.89 50.46 50.29 50.20 51.04 52.18 51.52 51.55 54.10 53.58 55.65 59.14 59.77 58.96 57.43 55.12 55.52 54.65 54.65 58.62 61.02 64.37 63.68 59.13 55.26 53.48 52.69 51.61 51.73 53.88 54.41 54.67 56.00 56.98 56.13 56.34 57.61 58.42 57.45 57.87 58.13 58.33 59.03 59.32 58.77 58.82 59.02 58.87 59.04 58.53 58.85 59.76 59.77 59.63 59.42 59.56 59.92 59.78 59.05 59.57 60.09 59.99 59.55 59.62 59.90 60.27 61.96 62.42 61.01 60.62 60.73 61.05 61.81 61.98 60.06 59.82 59.91 59.88 59.37 59.17 59.17 59.93 59.15 58.52 58.67 58.97 59.25 61.76 60.29 58.64 57.51 56.63 56.04 57.87 59.05 59.39 59.59 59.16 57.50 57.39 58.44 58.61 58.83 59.64 60.42 61.94 62.77 63.70 64.20 64.96 65.62 66.48 67.55 68.55 69.40 70.24 69.96 70.39 69.80 68.97 69.02 69.44 70.23 70.93 71.59 72.23 73.21 73.27 72.91 73.58 73.67 72.97 72.48 72.64 74.53 75.58 75.07 77.08 77.81 77.62 77.97 78.61 78.29 78.40 78.35 77.24 75.91 76.40 78.35 80.52 80.82 79.08 79.26 80.75 81.72 82.21 82.65 82.51 83.99 84.32 83.97 85.35 86.49 87.04 87.95 87.00 87.47 88.28 88.77 89.17 89.82 90.64 91.03 92.70 92.83 93.36 94.69 95.36 95.51 95.33 95.66 96.31 96.68 96.59 95.78 96.32 97.63 98.94 99.82 100.15 100.13 100.64 100.81 101.27 103.25 104.14 102.62 99.94 98.39 98.49 96.75 96.08 96.39 95.25 93.95 93.75 93.99 94.99 97.14 101.16 104.27 106.42 108.09 106.60 104.24 100.30 97.59 99.11 101.89 102.64 98.27 90.66 87.27 85.83
43.64 43.85 44.03 44.20 44.44 44.71 44.92 44.85 44.89 45.13 45.34 45.79 46.10 46.07 46.26 46.38 46.42 46.65 46.76 46.74 46.99 47.14 47.28 47.34 47.39 47.43 47.56 47.28 47.32 47.24 47.22 47.27 47.22 47.04 47.03 47.18 47.17 47.50 47.99 48.28 48.39 48.47 48.23 47.72 47.28 46.90 46.25 45.46 45.03 44.72 44.67 44.59 44.66 44.69 44.83 44.92 45.05 44.88 44.90 44.85 44.13 44.06 43.95 44.17 43.73 43.45 43.20 43.04 42.72 42.33 42.17 42.04 41.77 41.61 41.71 41.64 41.48 41.46 41.47 41.21 41.01 40.67 41.04 40.84 40.46 39.85 41.84 42.11 41.98 42.24 41.57 41.19 41.43 41.47 42.05 42.62 42.30 41.81 41.75 42.48 42.52 44.73 44.19 42.91 42.98 42.63 42.55 42.46 43.46 44.25 43.60 42.66 42.43 42.22 42.94 43.08 43.37 42.19 42.17 43.16 47.77 47.38 45.13 44.15 45.64 46.45 44.35 42.35 42.69 43.01 43.33 43.21 43.03 43.54 44.67 45.36 45.32 37.46 31.41 30.92 30.83 31.59 33.86 34.72 35.84 39.49 43.31 44.97 45.08 45.45 45.71 46.17 46.56 46.85 48.16 47.44 48.01 48.42 47.83 48.86 49.59 50.15 49.60 49.59 49.95 50.28 50.15 50.11 50.11 49.90 49.90 51.88 50.67 50.89 51.62 51.15 50.98 51.17 51.38 50.76 51.35 52.28 52.12 52.75 56.62 56.38 57.33 59.82 60.69 60.89 60.07 57.20 58.24 56.18 56.15 60.55 63.26 64.85 64.26 61.13 57.10 54.13 53.27 52.22 52.34 54.76 54.93 54.83 56.18 57.33 56.93 57.42 57.79 58.53 57.68 57.41 57.91 58.51 58.92 59.35 60.24 61.61 62.06 60.38 59.81 59.83 60.57 61.30 61.42 61.10 60.10 60.67 60.93 60.53 59.74 59.98 60.53 60.32 60.15 60.20 60.36 60.59 62.14 62.65 61.30 61.40 61.43 61.64 61.57 61.27 60.50 60.43 60.09 59.97 59.96 59.85 61.72 63.38 60.35 58.94 59.05 59.19 59.40 61.36 61.17 58.80 57.71 56.90 56.73 57.55 58.78 59.67 60.01 59.74 58.20 57.53 57.49 58.41 58.92 57.84 56.67 61.40 62.51 63.18 63.82 64.79 65.49 65.98 67.01 67.35 68.10 68.76 68.64 68.90 68.32 68.04 69.71 70.16 70.51 71.24 71.83 72.51 73.26 73.79 74.31 74.57 73.95 72.99 73.25 73.90 74.32 74.33 74.89 76.62 78.85 78.98 79.62 80.13 79.95 79.51 78.71 77.51 76.30 76.76 77.63 79.14 79.72 79.11 79.87 81.57 82.63 83.35 84.41 84.67 85.22 86.15 85.45 86.32 87.57 88.88 89.46 88.70 88.54 89.97 90.59 91.40 90.94 91.59 92.55 93.59 93.61 94.00 94.79 94.83 95.06 94.75 94.64 95.55 96.63 97.02 96.78 97.21 97.96 99.52 100.85 101.28 101.12 101.30 102.17 101.69 102.38 103.57 103.00 100.64 99.35 100.54 100.20 100.68 101.00 98.59 95.73 96.84 97.58 96.61 98.08 102.46 105.90 108.25 109.38 108.23 105.94 103.37 100.61 101.59 103.77 102.92 100.69 97.78 91.50 86.76
43.48 43.83 44.06 44.27 44.34 44.52 44.70 44.62 44.93 45.40 45.67 45.86 45.95 45.93 46.26 46.59 46.79 47.00 47.16 47.20 47.46 47.62 47.81 47.77 47.81 47.94 48.09 47.60 47.47 47.53 47.51 47.57 47.44 47.28 47.40 47.38 47.21 47.41 47.88 48.19 48.36 48.54 48.28 47.90 47.17 46.49 46.05 45.35 44.82 44.83 44.83 44.82 44.94 44.96 44.89 44.88 44.67 44.51 44.31 44.37 44.51 44.82 44.41 44.43 43.91 43.44 43.21 43.09 42.76 42.43 42.41 42.15 41.81 41.92 41.92 41.80 41.74 41.68 41.67 41.51 41.03 41.48 41.79 41.18 40.45 40.04 42.23 42.58 41.59 42.20 41.79 41.34 41.41 41.58 42.20 43.04 42.84 41.99 41.90 42.32 43.20 43.30 42.28 42.11 42.13 42.29 42.24 42.84 42.87 43.20 43.44 42.62 41.44 42.08 42.48 43.41 43.95 42.79 43.05 43.39 44.26 46.49 48.47 47.73 46.75 48.67 47.52 45.59 45.27 42.95 43.54 44.80 42.76 43.44 43.73 43.65 43.63 37.10 31.12 30.91 31.47 32.64 35.28 37.41 39.20 41.17 43.53 46.13 45.96 46.09 45.75 45.77 46.29 46.71 49.35 48.63 48.57 48.52 48.63 49.34 49.79 49.60 49.86 49.59 50.21 50.77 50.50 50.31 50.88 50.56 50.44 52.32 51.82 51.92 51.75 51.52 50.80 51.57 52.73 53.81 54.97 54.43 53.42 53.36 56.85 58.97 59.59 60.39 61.27 61.49 60.79 58.62 60.00 58.20 57.19 60.64 63.37 64.18 63.98 61.47 57.20 54.69 53.80 52.96 52.25 53.80 54.08 54.22 55.13 55.99 57.05 57.83 58.06 58.17 58.31 59.15 59.46 59.60 60.02 60.41 61.73 63.70 63.74 60.76 59.67 60.17 61.58 62.39 62.40 62.12 60.94 61.77 61.71 61.03 60.54 60.43 60.77 60.81 60.69 60.94 61.07 61.25 62.34 62.55 61.44 61.35 61.29 60.98 60.81 60.82 60.83 60.67 60.35 60.45 60.74 60.62 63.91 63.18 60.09 59.45 59.48 59.96 60.13 60.33 61.48 59.62 58.18 58.20 58.78 58.25 58.15 59.22 60.06 60.07 58.62 58.42 57.70 58.37 59.03 58.74 58.46 61.62 62.95 62.99 63.46 64.12 64.66 65.32 66.15 66.14 66.63 67.20 67.74 67.43 65.88 63.77 67.48 70.81 72.28 72.54 73.16 73.69 74.33 74.67 74.86 74.65 74.10 73.56 74.46 76.09 77.11 74.57 75.22 78.00 79.79 80.48 80.60 81.36 81.46 80.68 79.45 78.40 78.03 77.54 77.11 77.68 78.34 78.90 80.09 81.76 83.25 84.39 85.55 86.37 86.61 87.41 87.11 87.47 88.76 90.24 91.07 90.59 89.60 90.74 91.54 92.23 92.26 92.62 93.33 93.68 93.91 94.09 93.94 93.80 94.10 93.76 94.14 95.42 96.44 97.36 97.49 97.70 98.45 99.63 101.07 101.55 101.51 101.64 102.85 102.66 102.70 103.82 103.26 101.24 100.22 101.63 103.46 104.35 103.33 100.50 97.00 99.58 100.69 100.34 100.57 102.74 106.60 109.21 110.24 109.37 107.55 106.05 104.24 103.65 103.97 101.51 99.46 95.26 90.08 87.24
43.47 43.79 43.82 43.84 43.80 44.00 44.26 44.47 44.63 45.16 45.60 45.87 45.99 46.03 46.30 46.75 47.09 47.33 47.59 47.74 47.99 48.08 48.20 48.20 48.18 48.56 48.50 47.93 47.80 47.90 47.89 47.74 47.65 47.59 47.78 47.66 47.53 47.69 48.03 48.25 48.29 48.22 47.95 47.62 46.61 46.07 45.84 45.29 45.04 45.14 44.89 45.10 45.26 45.24 45.14 45.18 44.92 44.72 44.86 45.16 45.41 45.33 44.67 44.44 44.10 43.52 43.22 43.13 43.04 42.87 42.33 42.01 42.20 42.16 42.05 41.90 42.01 42.05 41.65 41.41 41.17 41.67 41.61 41.09 40.01 39.99 42.58 42.52 41.90 42.10 41.76 41.76 41.78 41.94 42.71 43.21 42.97 42.53 42.66 42.41 42.69 42.87 41.79 41.46 41.23 41.14 41.22 42.35 43.11 43.20 43.10 43.13 42.48 42.40 43.03 42.95 42.49 42.95 43.91 43.88 43.47 44.44 46.61 45.91 45.16 45.72 45.80 46.92 45.00 44.29 44.49 46.38 45.83 44.71 45.42 45.75 44.15 39.86 34.84 33.93 35.32 36.19 37.04 38.34 38.27 38.89 42.43 46.47 47.58 47.11 45.22 45.76 47.29 47.48 48.51 48.63 48.72 48.86 48.69 49.26 49.38 49.70 49.66 49.60 50.23 50.89 50.96 50.30 50.96 51.39 50.10 51.83 52.26 51.82 51.71 52.14 51.72 52.29 54.37 56.75 57.65 56.94 55.66 54.61 56.82 59.50 61.40 62.98 61.67 61.93 61.08 59.88 61.04 60.07 57.94 61.24 63.12 63.82 63.46 60.93 57.51 55.66 54.88 53.45 51.90 52.52 53.41 54.03 54.74 55.29 56.85 57.62 57.65 57.57 58.04 58.67 58.87 59.56 60.72 61.43 61.40 62.97 63.68 61.84 61.16 60.93 62.07 63.10 63.04 62.40 61.88 62.82 62.38 61.68 61.44 61.19 61.59 61.87 61.92 62.89 62.99 61.89 62.02 61.71 61.88 61.78 61.53 61.37 61.32 61.20 61.33 61.21 60.79 60.86 61.10 60.93 62.33 61.96 60.38 59.90 59.85 60.42 61.21 60.91 61.60 61.07 59.15 58.68 59.46 59.56 59.22 58.89 59.81 60.47 60.23 60.12 59.39 57.73 58.36 58.96 59.71 61.47 63.32 63.98 63.80 63.55 63.99 65.32 66.61 65.40 65.34 65.53 66.56 67.43 63.75 60.11 62.21 69.48 73.92 73.71 74.23 75.16 75.51 75.39 75.50 75.15 74.37 74.38 75.63 75.65 75.81 74.93 75.74 79.44 81.06 81.95 81.73 82.10 82.46 81.74 80.18 79.80 79.33 78.55 77.37 77.75 78.07 78.63 79.77 81.26 82.97 84.85 85.99 87.13 87.96 88.61 88.79 88.77 89.94 91.14 92.21 92.15 91.08 91.16 90.85 91.24 92.21 92.44 92.25 92.54 93.18 93.17 92.76 92.82 92.48 92.97 94.26 95.31 96.19 97.46 98.07 98.72 99.02 99.72 100.98 101.95 102.34 102.37 103.06 103.87 103.98 104.43 103.58 102.26 102.24 102.09 103.82 105.75 104.95 101.23 97.71 99.98 103.20 104.34 103.49 103.06 105.83 107.68 109.37 109.92 108.57 108.47 106.75 103.81 101.55 98.41 94.38 90.68 88.74 87.54
43.45 43.42 43.57 44.00 44.18 44.27 44.69 44.97 45.12 45.35 45.66 45.92 46.24 46.29 46.32 46.78 47.25 47.56 47.83 48.02 48.27 48.32 48.40 48.44 48.48 48.66 48.64 48.42 48.31 48.20 48.18 47.98 47.74 47.89 48.06 48.07 47.97 47.98 48.19 48.12 47.95 47.70 47.38 47.10 46.43 45.99 45.85 45.68 45.40 45.30 45.12 45.37 45.50 45.52 45.47 45.40 45.09 44.90 45.22 45.59 45.67 45.05 44.54 44.41 44.08 43.50 43.24 43.17 42.97 42.58 42.23 42.37 42.44 42.42 42.33 42.11 41.98 42.21 41.96 41.61 41.33 41.27 40.37 39.74 39.56 40.99 42.76 42.90 42.23 42.21 41.79 41.70 41.68 42.33 42.98 43.21 43.02 42.87 42.99 43.15 42.96 42.80 41.94 41.95 41.64 41.27 41.46 42.36 42.67 43.24 43.72 43.68 43.19 42.98 43.58 43.53 43.02 43.55 43.81 44.16 44.38 43.89 44.68 44.22 44.94 45.72 46.23 47.23 46.14 45.77 47.28 46.37 45.22 44.52 45.55 45.87 43.88 41.19 34.81 32.34 31.56 31.47 32.43 33.87 34.61 36.16 41.53 44.58 46.93 46.88 45.37 46.55 48.06 48.29 48.02 48.85 49.57 49.06 49.20 49.35 49.57 50.36 50.25 50.32 50.09 49.91 50.35 50.49 50.53 50.96 51.39 51.79 52.32 52.48 53.64 52.96 53.22 53.30 55.52 57.77 58.34 57.53 56.58 55.25 56.52 58.88 62.23 63.91 61.71 61.94 61.48 60.41 61.57 61.63 58.81 60.15 62.67 63.73 63.92 62.68 59.94 57.18 55.94 54.11 52.41 52.76 54.17 55.92 55.49 55.17 56.45 57.09 57.21 57.62 58.13 58.34 59.36 61.32 62.28 62.56 62.40 63.03 64.15 62.49 62.06 61.99 62.49 63.32 63.70 63.30 63.24 63.49 62.93 62.53 63.10 63.28 63.84 63.71 62.52 64.02 63.92 62.37 62.15 62.20 62.43 62.36 62.14 62.13 62.14 61.90 61.81 61.60 61.59 61.72 61.77 61.47 61.64 61.87 61.08 60.43 60.46 61.84 63.89 63.01 61.60 61.47 60.43 59.25 59.77 60.11 60.08 59.80 59.61 60.58 61.13 60.95 60.36 56.96 57.77 59.19 59.99 61.03 62.40 64.25 64.20 63.44 63.72 64.76 66.11 64.35 64.80 65.80 67.29 68.83 67.09 67.18 68.71 70.68 72.61 73.41 75.09 76.45 76.61 76.56 76.44 75.11 74.17 74.02 75.77 76.86 77.95 76.98 75.97 78.17 81.18 83.13 83.19 82.87 83.22 82.54 81.77 81.22 79.59 78.71 78.23 78.72 78.56 78.45 79.36 81.19 82.68 84.27 85.48 86.63 87.87 88.81 89.46 90.04 90.86 91.71 92.10 91.93 91.55 91.09 89.66 89.70 90.82 91.27 90.96 91.44 91.86 91.80 91.46 91.84 91.96 93.09 93.85 94.30 95.40 96.88 97.65 98.47 99.78 100.37 101.05 101.75 102.42 103.25 103.93 104.65 104.88 105.18 104.33 103.33 103.85 103.76 104.96 106.45 104.88 101.90 98.63 100.85 105.44 107.28 105.54 104.18 106.11 107.43 108.98 110.37 107.82 107.16 106.46 102.19 100.73 99.10 94.14 90.10 88.63 87.66
43.98 44.07 44.22 44.45 44.59 44.70 45.08 45.16 45.41 45.62 45.97 46.23 46.42 46.65 46.52 46.70 47.10 47.66 47.90 48.03 48.16 48.24 48.41 48.57 48.68 48.75 48.86 48.83 48.67 48.52 48.46 48.19 48.04 48.17 48.32 48.33 48.23 48.25 48.37 48.16 47.81 47.49 47.25 47.14 46.58 45.95 46.02 46.06 45.70 45.42 45.32 45.47 45.72 45.96 45.87 45.63 45.28 45.05 45.39 45.75 45.51 44.90 44.53 44.31 44.18 43.63 43.55 43.29 42.94 42.63 42.47 42.58 42.82 42.61 42.35 42.26 42.14 42.31 42.58 41.78 41.13 40.08 38.72 38.47 39.80 41.66 43.23 43.49 42.73 42.73 42.39 41.48 41.50 41.82 42.55 42.81 43.03 42.90 43.13 42.87 43.00 42.39 42.17 41.76 41.59 41.18 41.54 41.91 41.71 42.85 43.81 44.07 44.11 44.20 44.44 43.83 43.30 43.47 43.52 44.23 44.82 44.56 44.87 44.56 45.83 47.05 48.23 49.06 48.59 48.21 46.64 46.98 46.92 44.50 46.16 46.92 43.43 40.57 32.71 31.29 30.96 30.80 31.68 33.36 34.32 35.52 39.91 44.29 44.69 45.97 45.82 47.59 46.39 46.33 46.31 48.71 50.37 49.41 50.13 50.05 50.27 50.68 50.36 50.55 51.04 50.62 50.59 50.83 51.12 52.09 51.52 51.12 51.49 51.94 53.73 54.26 53.95 54.19 55.74 57.78 57.63 57.20 56.97 57.48 58.64 59.27 60.23 60.92 61.40 62.67 63.28 62.56 62.72 62.71 59.97 59.17 61.81 63.55 64.38 63.97 62.07 59.86 57.36 55.97 54.25 53.32 54.57 57.09 57.07 56.79 58.21 57.68 57.69 58.30 59.07 58.85 59.76 61.54 62.84 63.07 62.60 63.27 64.45 63.22 62.83 63.20 63.36 63.88 64.38 64.24 64.34 64.31 63.78 63.49 64.06 64.00 64.28 64.60 62.96 64.20 64.34 62.84 62.52 62.76 63.18 63.04 62.78 62.60 62.64 62.75 62.42 62.17 62.30 62.35 62.30 62.08 62.26 62.41 61.59 61.45 62.89 62.65 63.62 63.94 62.93 61.52 61.48 59.93 59.81 60.40 60.82 60.66 60.12 60.20 61.00 61.25 61.29 59.06 57.32 59.71 60.81 61.32 62.16 62.77 63.40 62.53 62.48 63.19 64.16 64.88 65.47 66.12 67.82 69.32 70.06 70.63 71.76 70.58 70.71 71.75 74.91 76.56 77.30 77.20 76.64 75.07 74.12 73.38 75.26 78.05 79.84 79.12 76.38 76.10 79.05 82.59 83.07 83.35 83.05 81.15 81.38 82.37 79.99 78.71 78.76 79.27 79.29 79.59 79.33 79.72 81.15 82.96 84.10 85.77 87.10 87.90 88.69 89.69 90.58 91.03 90.88 90.33 90.23 90.07 88.57 88.46 89.55 90.26 90.14 90.51 90.32 90.46 91.22 92.08 92.98 92.82 93.31 93.73 94.60 96.03 97.30 98.55 99.99 100.25 100.37 100.45 101.60 102.83 103.67 104.74 104.90 105.78 105.54 105.22 106.00 105.54 105.95 106.82 106.15 104.42 100.62 101.73 106.08 108.20 106.71 105.95 107.48 109.01 109.19 109.54 107.19 102.97 100.12 97.90 96.97 97.49 94.62 90.32 88.91 88.10
44.09 44.33 44.51 44.68 44.95 45.14 45.32 45.38 45.68 45.93 46.25 46.34 46.51 46.87 46.93 46.97 47.11 47.39 47.60 47.88 48.05 48.12 48.28 48.56 48.78 48.91 49.11 49.26 49.08 48.92 48.66 48.37 48.27 48.51 48.70 48.69 48.74 48.71 48.58 48.27 48.00 47.65 47.34 47.16 46.76 46.36 46.37 46.40 45.96 45.49 45.49 45.63 45.98 46.24 46.07 45.87 45.50 45.32 45.59 45.84 45.77 45.28 44.90 44.49 44.29 43.82 43.45 43.57 43.44 43.11 42.85 42.85 42.96 42.69 42.49 42.46 42.21 42.09 41.79 40.31 40.71 40.13 39.48 39.12 40.00 41.47 42.84 43.40 43.71 43.84 42.55 41.74 41.54 41.50 41.59 41.91 42.15 42.02 41.99 41.55 41.71 41.57 41.83 41.17 41.31 41.19 41.63 42.00 42.95 43.68 43.56 43.95 43.90 44.17 45.04 44.40 43.54 43.26 43.26 44.10 44.73 44.70 44.72 44.56 45.19 45.20 47.12 49.92 50.21 49.28 48.47 48.45 45.60 44.80 44.24 43.52 43.70 43.58 35.28 31.42 31.59 31.28 31.17 32.72 33.94 35.09 38.72 44.48 43.61 44.04 44.89 46.58 45.43 45.61 45.88 47.37 49.64 49.53 49.32 49.72 51.36 51.27 50.29 50.10 50.55 50.80 50.51 50.13 50.52 52.27 51.74 52.04 52.12 52.24 53.20 54.78 53.87 54.22 55.75 57.41 56.90 57.51 59.54 60.03 61.47 60.72 60.38 61.10 62.43 63.20 65.19 66.76 65.30 63.60 61.87 60.27 61.08 63.31 65.08 65.61 64.93 63.02 61.40 60.34 57.50 54.68 54.25 55.74 57.23 58.02 59.69 58.12 57.77 58.66 59.31 59.37 59.96 62.19 63.70 63.42 62.64 63.76 64.81 64.43 63.85 63.95 64.13 64.62 65.03 65.14 65.17 65.16 64.66 64.42 64.32 63.64 63.65 63.75 63.64 64.07 64.12 63.18 63.14 63.47 63.57 63.41 63.32 63.23 63.35 63.26 63.18 62.84 62.75 62.88 62.86 62.93 63.01 62.71 61.84 62.18 62.77 61.27 61.18 63.00 63.97 62.40 62.24 61.01 59.94 60.84 61.28 60.99 60.65 60.14 60.52 61.15 61.46 61.69 60.24 59.53 60.37 60.82 61.40 61.74 61.06 60.52 61.47 63.41 64.13 64.57 64.96 65.46 66.52 67.69 68.16 68.71 70.47 70.85 70.50 70.75 72.52 74.88 76.48 76.34 76.50 75.06 73.80 72.76 74.33 76.84 78.09 79.00 79.21 77.99 77.40 79.39 80.42 82.72 82.26 79.83 79.78 81.26 79.51 78.60 79.95 81.44 80.14 80.02 80.00 79.94 80.78 81.42 83.22 84.88 85.31 86.35 87.59 88.35 89.42 89.41 89.63 88.74 88.64 88.58 87.32 87.56 88.44 89.27 89.55 89.62 89.92 90.75 91.84 92.99 94.09 93.88 93.90 94.44 95.30 95.31 96.85 97.90 98.45 98.61 98.84 99.58 101.18 101.52 102.58 103.52 104.72 106.17 106.30 106.35 107.33 107.21 107.37 107.53 107.69 105.37 102.52 101.89 105.84 108.55 108.43 108.20 108.70 109.93 108.74 106.25 104.01 100.09 96.80 95.19 94.00 92.99 91.81 90.36 89.42 88.72
44.00 44.31 44.43 44.73 45.06 45.25 45.41 45.48 45.78 46.05 46.41 46.46 46.61 46.92 47.16 47.38 47.24 47.31 47.53 47.71 47.83 47.89 48.12 48.38 48.73 49.02 49.16 49.20 49.21 49.23 48.95 48.63 48.38 48.71 49.03 49.21 49.31 49.24 48.91 48.39 47.99 47.60 47.35 47.21 46.98 46.77 46.80 46.52 46.16 45.88 45.79 45.90 46.20 46.27 46.00 45.92 45.82 45.83 46.17 46.41 46.25 45.60 45.48 44.89 44.27 43.87 43.83 43.98 43.82 43.43 43.10 42.97 42.99 42.78 42.63 42.48 42.32 42.08 41.60 41.30 41.91 41.50 40.59 39.81 40.88 41.85 42.09 42.75 43.28 43.20 42.65 42.06 41.72 41.98 42.16 42.30 42.07 41.96 41.69 41.50 41.43 41.31 41.27 41.34 41.41 41.17 41.56 41.70 42.48 42.35 42.20 43.61 43.54 43.89 44.32 44.01 43.34 43.51 43.81 43.89 44.44 45.34 45.85 45.35 45.18 45.99 46.93 48.66 48.97 47.34 47.45 46.52 45.07 45.00 45.53 44.78 44.78 45.15 38.68 31.75 31.48 31.44 31.11 32.10 33.14 34.55 37.54 42.61 42.99 44.07 43.96 46.20 45.92 46.04 46.18 47.11 47.83 48.49 49.48 49.65 51.22 52.27 51.31 51.00 50.77 50.68 50.95 50.40 51.29 52.54 52.33 53.12 53.98 54.56 53.18 53.05 53.67 55.03 56.25 57.72 57.23 58.83 61.45 61.65 60.96 60.90 60.63 61.29 62.77 63.06 64.88 69.10 67.06 64.80 64.66 62.55 61.71 63.70 66.71 67.91 67.20 65.24 65.01 65.56 63.53 60.10 55.10 54.95 57.02 57.93 58.95 57.84 57.83 58.60 59.13 60.02 60.26 61.44 62.40 63.64 63.11 63.75 64.51 64.43 64.21 64.37 64.83 65.36 65.73 65.93 66.16 66.16 65.28 64.57 64.81 65.83 64.46 63.95 64.03 64.24 64.53 63.99 63.74 64.14 64.28 63.92 63.89 63.90 63.95 63.72 63.68 63.65 63.57 63.54 63.28 63.42 63.12 62.53 62.02 61.84 61.53 61.45 61.34 61.98 62.85 62.74 62.98 62.35 60.90 61.29 61.53 61.53 61.25 60.80 60.79 61.11 61.69 62.23 62.17 61.35 60.70 60.87 60.88 61.12 61.19 61.16 61.01 62.52 63.53 63.68 64.32 65.08 65.99 66.95 67.58 68.37 69.49 71.35 70.50 70.50 70.90 73.07 74.57 74.70 75.53 75.13 73.21 72.07 73.31 75.06 75.98 76.96 78.37 78.37 77.22 77.74 78.59 80.82 80.99 79.15 78.88 78.85 78.59 78.52 80.18 82.50 80.48 80.21 80.47 80.81 81.23 81.66 82.35 83.22 83.84 85.56 86.80 87.08 88.29 87.80 87.73 87.23 86.87 86.83 86.62 87.07 87.68 88.58 89.04 89.28 90.18 91.25 92.94 94.14 95.44 95.31 95.37 96.15 96.11 95.86 96.22 96.53 97.08 98.05 98.61 98.85 100.36 100.46 101.40 102.72 104.46 105.75 106.86 107.52 108.36 108.71 108.90 108.84 109.01 106.86 104.45 102.18 105.28 108.43 109.51 109.89 110.22 110.83 110.83 110.03 108.08 102.13 96.82 94.68 93.40 92.35 91.27 90.41 89.72 88.93
43.40 43.87 44.26 44.69 45.06 45.39 45.57 45.80 45.91 46.15 46.54 46.70 46.78 47.06 47.26 47.50 47.54 47.49 47.62 47.55 47.72 47.91 48.07 48.32 48.80 49.11 49.16 49.24 49.32 49.29 49.23 48.94 48.83 49.04 49.30 49.66 49.76 49.65 49.39 48.78 48.38 48.02 47.56 47.38 47.45 47.27 46.86 46.47 46.22 46.14 46.09 46.11 46.40 46.39 46.18 46.27 46.26 46.51 46.76 46.82 46.53 46.01 45.73 45.17 44.46 44.18 44.49 44.39 44.13 43.65 43.22 43.18 43.08 42.76 42.60 42.71 42.56 42.43 41.87 42.09 42.12 42.06 40.93 40.33 41.74 42.04 41.66 41.82 42.44 42.78 42.31 41.87 41.66 42.11 43.23 42.82 42.13 42.12 41.86 41.68 41.53 41.49 41.52 41.61 41.71 41.44 41.56 41.54 41.83 41.60 41.64 42.62 43.59 43.73 44.25 44.32 43.54 44.20 44.20 44.36 44.63 45.12 45.48 45.18 45.34 46.39 47.69 46.95 47.65 47.06 46.85 47.11 46.97 46.69 47.21 45.99 46.31 46.32 42.87 33.33 31.58 31.52 31.36 31.20 31.81 34.22 36.71 41.33 43.90 44.16 43.23 45.51 46.34 46.48 46.85 47.03 46.78 47.89 49.59 50.09 51.36 51.60 51.15 51.20 51.42 52.04 51.69 51.83 53.06 52.61 52.10 53.70 56.05 56.14 53.63 53.70 54.22 54.69 55.15 55.85 56.08 59.43 61.40 61.16 61.44 61.44 60.96 61.74 62.59 63.18 64.88 67.34 66.77 65.87 65.36 64.14 63.15 64.50 67.30 68.57 68.16 66.83 66.78 66.86 65.79 62.75 56.24 55.05 55.63 56.09 56.79 57.43 58.06 58.94 59.47 60.43 60.99 61.17 62.00 62.87 63.50 64.07 64.70 65.14 65.08 65.26 65.66 66.37 66.76 67.20 67.33 67.05 66.27 64.98 65.03 65.95 64.75 64.50 64.68 64.87 65.04 64.94 65.45 65.76 65.94 65.10 64.92 65.04 64.91 64.54 64.58 64.77 64.79 64.44 64.32 64.47 63.48 62.56 62.57 63.50 64.15 64.14 62.97 62.39 62.78 63.45 63.62 62.99 61.79 61.61 61.80 61.96 61.41 60.91 60.78 61.15 61.74 62.20 62.23 62.26 62.09 62.65 62.83 63.39 62.80 61.98 61.50 61.05 62.84 63.61 64.54 65.36 66.27 67.21 67.99 68.77 69.40 71.63 70.50 70.50 71.70 74.68 75.21 73.52 74.57 75.25 73.12 72.20 72.90 74.86 76.00 76.62 77.25 77.43 78.10 78.70 79.35 79.45 79.54 78.73 78.46 78.33 78.47 78.50 79.92 82.06 80.77 81.04 81.51 81.66 81.75 82.12 82.72 83.10 83.18 84.28 85.18 86.08 86.97 86.84 86.53 86.03 85.83 86.48 87.21 87.68 88.67 89.57 90.06 90.29 90.73 91.58 93.44 95.19 96.33 96.83 97.22 97.87 97.29 97.57 97.99 97.32 97.71 99.50 100.74 100.12 100.27 100.58 101.70 102.57 104.19 105.30 106.52 107.46 108.42 109.05 109.35 109.50 109.29 107.50 105.44 103.34 104.20 107.80 109.93 111.15 111.87 110.89 108.59 107.73 105.95 101.67 96.99 94.99 93.60 92.55 91.39 90.51 89.76 88.89
41.87 43.54 44.19 44.64 45.11 45.49 45.77 46.08 46.26 46.27 46.76 46.93 46.92 47.21 47.40 47.50 47.53 47.60 47.70 47.77 47.83 48.05 48.21 48.60 48.96 49.15 49.29 49.46 49.36 49.34 49.48 49.01 48.99 49.20 49.52 49.95 50.14 50.07 49.81 49.16 48.82 48.26 47.85 47.59 47.48 47.45 47.06 46.60 46.51 46.59 46.49 46.33 46.42 46.52 46.59 46.73 47.11 47.04 46.71 46.60 46.31 45.63 45.28 45.33 44.81 44.61 44.96 44.99 44.87 44.12 43.40 43.20 43.19 42.94 42.78 42.90 42.63 42.45 42.28 42.38 42.20 42.65 41.28 40.87 42.21 42.16 41.89 41.93 42.24 42.60 42.34 41.81 41.82 41.94 42.22 42.12 42.18 42.32 42.09 41.99 41.98 41.76 41.79 42.29 42.05 41.95 41.64 41.77 42.50 42.68 42.51 42.89 43.30 43.56 44.54 44.65 44.37 44.45 44.30 44.57 44.87 45.25 45.37 45.06 45.71 46.61 46.93 47.34 48.35 48.01 47.30 46.23 46.64 47.01 46.90 46.74 47.73 47.78 46.54 36.40 32.23 31.82 31.92 31.27 31.17 33.04 35.92 39.45 42.35 42.48 43.08 45.71 46.79 46.48 47.09 47.12 46.71 47.30 48.66 49.59 51.13 51.64 50.90 51.49 52.17 52.07 52.50 53.43 53.61 53.53 53.67 55.75 57.39 55.28 53.84 54.65 54.98 55.38 55.16 56.16 56.34 58.78 59.68 59.96 60.63 62.05 61.69 62.05 62.60 63.78 66.25 69.04 68.05 65.68 65.70 65.12 64.48 65.85 67.77 68.02 68.41 68.09 67.69 65.73 62.58 59.90 56.40 55.83 56.17 56.63 57.15 57.78 58.52 59.33 60.29 61.39 61.55 61.58 61.70 62.48 63.55 64.34 65.00 65.47 65.71 66.17 66.84 68.08 68.82 69.01 69.43 68.33 67.30 65.52 65.55 65.56 64.68 64.81 65.06 65.42 65.33 65.67 66.51 66.16 66.25 66.42 67.47 67.95 67.81 66.68 67.24 67.81 66.01 66.31 66.37 65.52 63.97 63.02 63.96 66.32 67.41 67.04 68.17 65.77 63.93 64.46 64.05 63.37 62.59 61.77 62.02 61.98 61.41 61.04 60.94 61.29 61.62 61.91 62.24 62.47 62.76 63.21 63.43 64.35 64.92 63.75 62.64 61.28 61.82 63.27 64.07 64.89 65.64 65.98 66.67 67.68 70.02 71.88 70.51 70.62 72.99 75.26 73.54 71.53 71.72 72.40 71.67 72.18 73.03 75.26 77.57 78.25 78.16 78.90 80.67 81.20 82.04 80.74 79.17 78.70 78.51 78.33 78.38 78.81 80.78 82.21 81.49 82.20 83.06 83.09 82.81 82.93 83.40 83.62 83.04 83.57 84.23 85.10 85.38 85.63 85.92 85.63 86.16 87.72 88.90 89.04 89.44 90.25 91.37 91.93 91.97 91.93 93.63 95.41 97.20 98.35 98.65 99.22 98.53 99.16 99.70 98.94 98.78 99.98 101.67 102.02 101.54 101.55 102.76 103.36 103.94 104.93 106.39 107.44 108.42 108.71 108.88 109.07 109.21 108.44 107.32 105.89 104.42 107.53 110.09 111.75 112.62 111.59 109.55 107.97 104.49 99.85 97.47 95.85 94.39 93.10 91.96 90.92 89.89 89.01
41.16 44.00 44.60 44.85 45.11 45.43 45.72 46.03 46.24 46.42 46.71 46.81 47.03 47.17 47.28 47.44 47.54 47.66 47.77 47.95 48.08 48.17 48.33 48.59 48.92 49.14 49.41 49.52 49.50 49.49 49.57 49.15 49.26 49.54 49.69 50.05 50.25 50.42 50.07 49.62 49.11 48.52 48.24 47.88 47.77 47.65 47.56 47.17 47.41 47.41 47.04 46.84 46.88 46.96 46.98 46.98 47.01 46.74 46.02 45.50 45.22 45.07 44.64 44.78 44.81 44.75 45.54 45.41 45.19 44.27 43.50 43.28 43.39 43.37 43.07 42.86 42.72 42.88 42.79 42.82 42.86 43.87 42.60 41.31 42.89 42.77 42.32 42.37 42.40 42.59 42.43 41.97 41.97 42.06 42.40 42.60 42.65 42.81 42.54 42.33 42.51 43.00 41.92 42.46 43.55 43.67 42.33 42.60 42.41 43.60 43.09 43.13 43.44 43.49 42.85 42.62 42.34 42.28 43.74 44.88 45.22 45.25 45.34 45.07 45.80 46.41 46.84 47.58 47.99 47.83 46.86 46.34 46.65 47.31 46.90 47.53 48.62 48.64 48.35 43.31 34.58 32.20 32.09 32.21 31.01 31.42 34.65 37.30 38.87 41.58 43.37 45.67 46.85 46.47 47.02 47.57 47.50 47.68 48.81 50.40 49.76 50.70 50.30 50.97 52.56 51.96 52.77 53.95 54.67 54.79 55.22 56.64 56.28 54.54 54.44 55.36 55.11 55.82 55.69 56.92 56.33 57.76 58.82 59.16 60.26 60.80 60.98 61.93 62.08 64.14 67.73 66.15 66.52 66.39 66.00 65.96 66.17 67.45 68.78 68.15 68.00 68.73 66.95 61.67 58.14 55.80 54.95 55.17 56.17 57.17 58.00 59.23 59.71 60.56 61.25 62.14 62.78 63.23 63.06 63.57 64.63 65.49 66.08 66.22 66.46 66.96 68.44 69.37 69.87 69.64 70.72 69.17 68.19 66.43 66.47 65.77 65.07 65.67 67.27 68.93 66.51 65.54 66.74 67.38 67.34 66.66 66.58 67.74 68.45 67.88 68.32 68.20 67.29 67.64 67.30 65.86 64.39 63.53 63.52 64.78 65.92 66.39 67.62 65.84 64.57 65.32 64.93 63.97 63.07 62.32 62.11 62.24 62.23 61.65 61.53 61.74 61.63 61.63 62.09 62.66 63.14 63.51 64.11 65.20 66.03 65.59 64.00 62.19 61.12 62.64 63.68 64.40 65.36 65.56 65.87 69.18 71.64 70.73 70.52 71.89 74.84 73.21 71.58 70.55 70.59 71.43 73.20 73.88 74.23 75.46 76.65 78.17 79.71 81.37 82.53 82.44 82.87 82.56 80.74 78.91 78.57 78.57 78.68 79.20 81.44 82.49 81.91 82.81 83.71 84.04 83.65 84.25 85.03 84.82 83.84 83.79 83.96 84.56 85.00 85.43 85.90 86.49 87.18 88.90 90.21 90.52 90.39 90.92 91.64 92.42 92.33 92.16 93.72 95.69 97.47 99.08 99.93 99.96 99.15 99.96 100.68 100.63 100.64 100.62 101.92 103.29 102.84 102.19 103.40 104.44 104.91 105.42 106.45 107.04 107.94 107.81 108.68 108.86 109.11 109.33 108.83 108.30 105.83 107.16 109.97 111.97 113.19 113.78 113.09 112.78 108.76 103.13 100.47 97.96 97.49 96.36 94.03 91.90 90.00 89.28
40.98 43.91 44.84 45.14 45.28 45.45 45.63 45.86 46.06 46.41 46.54 46.69 46.97 47.12 47.23 47.29 47.58 47.71 47.84 48.07 48.24 48.34 48.47 48.66 48.88 49.17 49.40 49.48 49.62 49.56 49.52 49.21 49.39 49.60 49.77 49.98 50.18 50.40 50.19 50.04 49.48 48.84 48.41 48.11 47.83 47.77 47.78 47.73 48.10 48.28 48.14 47.95 47.69 47.40 46.92 46.37 46.03 45.79 45.30 44.88 44.70 44.63 44.38 44.52 44.89 44.88 45.73 45.60 44.81 44.08 43.46 43.29 43.36 43.61 43.40 43.02 42.75 43.02 42.97 42.80 42.84 43.53 43.01 41.24 42.35 42.47 42.77 43.00 42.52 42.93 42.97 42.43 42.33 42.33 42.69 43.02 42.66 42.50 42.64 42.50 42.89 44.33 42.53 43.02 44.10 44.28 43.41 43.27 42.32 43.36 43.24 43.27 43.00 41.72 41.19 41.03 41.00 41.39 44.24 45.54 45.25 44.75 45.16 45.54 45.74 46.06 47.08 47.32 47.90 47.51 46.58 46.10 46.65 47.29 47.47 48.47 49.34 49.54 49.75 49.38 44.64 39.07 37.25 34.76 31.06 31.02 32.80 36.66 38.68 41.86 44.07 45.69 46.99 47.49 47.75 48.22 49.27 49.15 48.97 50.66 51.01 51.11 50.71 51.02 51.38 51.38 52.42 53.82 54.35 54.05 55.68 56.22 56.80 56.17 55.77 56.15 55.95 55.38 55.93 57.53 57.24 58.79 60.32 59.11 59.95 59.89 60.95 61.59 61.45 62.30 63.49 63.84 65.39 66.11 65.95 66.26 67.17 68.01 68.72 68.40 67.97 66.64 63.57 59.03 56.98 55.45 54.94 55.38 56.33 57.28 58.24 59.79 60.44 61.62 61.46 62.07 63.18 63.99 63.97 64.33 64.36 65.16 66.96 66.71 67.05 67.98 69.14 69.46 69.68 69.55 70.76 69.43 67.90 67.54 67.40 66.42 66.82 67.37 71.68 77.06 68.78 66.21 66.43 68.01 69.26 67.21 66.74 68.15 68.48 67.51 66.84 66.89 67.07 67.02 66.73 66.31 64.86 63.98 64.06 64.69 65.32 64.60 64.91 64.89 65.04 65.91 65.00 63.45 62.38 62.38 61.93 62.39 63.02 62.41 62.11 62.45 62.40 62.15 62.21 62.70 63.20 63.98 64.88 65.51 66.65 66.84 64.41 62.47 62.27 62.07 63.82 64.16 65.00 65.82 68.63 71.03 70.63 70.50 70.56 72.38 74.08 71.10 70.89 71.29 72.26 73.28 75.41 75.99 74.80 76.37 77.10 78.06 79.59 80.97 82.47 83.56 84.11 84.61 82.91 79.52 78.48 78.50 78.73 79.37 81.59 82.92 82.55 83.34 84.34 85.06 84.64 85.48 86.46 86.25 84.89 84.55 84.58 84.65 85.01 86.03 86.61 87.70 88.44 89.63 91.18 92.11 92.17 91.44 91.26 91.81 92.50 93.15 94.54 95.80 97.41 99.24 100.69 100.82 100.11 101.27 101.98 102.07 102.14 102.31 102.38 103.78 104.17 103.20 103.51 104.63 105.66 106.33 106.41 106.15 107.01 106.88 107.75 107.76 107.73 108.03 108.18 108.83 107.53 108.23 110.74 112.36 113.58 113.56 111.19 112.20 111.63 109.62 106.41 103.44 104.82 101.77 99.90 96.73 91.73 89.87
40.89 43.64 44.90 45.44 45.82 45.89 45.96 45.98 46.11 46.29 46.49 46.70 46.85 46.96 47.18 47.29 47.56 47.69 47.88 48.25 48.49 48.61 48.72 48.78 48.97 49.26 49.33 49.28 49.58 49.59 49.58 49.47 49.48 49.63 49.97 50.21 50.41 50.71 50.67 50.39 49.70 49.05 48.53 48.24 47.81 47.98 48.09 48.06 48.31 48.17 47.85 47.61 47.19 46.73 46.36 45.88 45.61 45.34 45.16 44.95 44.62 44.59 44.63 44.83 44.93 44.89 45.35 45.70 44.63 44.00 43.62 43.56 43.59 43.79 43.56 43.25 43.03 43.07 43.11 43.36 43.44 42.93 42.65 40.99 41.38 42.02 42.57 42.65 42.41 43.14 43.39 42.81 42.38 42.68 43.09 43.08 42.80 42.67 42.75 42.56 42.82 43.62 42.88 43.38 43.94 44.63 43.41 42.79 42.48 43.57 43.60 43.94 42.68 41.80 42.90 41.95 41.23 41.98 45.14 46.04 44.90 44.95 44.99 45.00 46.21 46.52 47.09 47.29 47.77 47.52 47.02 46.82 46.77 47.34 47.90 49.56 50.34 50.13 50.12 50.54 50.13 50.61 50.10 42.77 31.97 31.00 32.90 37.19 39.81 42.30 43.63 46.06 47.59 48.03 49.11 49.93 50.35 50.26 50.00 51.17 51.87 52.18 50.69 50.43 50.49 51.07 51.92 52.48 53.36 55.05 56.64 56.77 57.23 57.23 56.49 56.43 56.84 56.39 56.65 57.38 57.61 58.15 60.46 59.21 59.10 59.53 60.88 61.56 61.65 61.51 62.67 64.23 66.11 67.62 66.49 66.04 67.30 68.48 68.55 68.56 66.17 62.12 59.50 57.69 57.04 55.73 55.31 55.79 56.66 57.54 58.52 60.06 61.34 61.96 61.57 62.03 62.96 63.45 63.90 64.65 64.72 65.10 66.86 67.26 67.39 68.60 69.02 69.47 70.03 70.40 70.88 70.46 68.62 68.26 67.82 67.25 68.19 69.34 73.63 78.44 69.76 66.79 66.56 67.71 69.49 68.03 67.74 68.69 68.60 67.92 66.70 66.95 67.39 67.34 66.93 66.75 64.96 64.17 64.35 64.64 65.52 65.85 66.48 66.37 65.87 65.53 63.39 62.88 62.83 63.29 63.01 62.83 63.37 63.23 62.79 63.17 63.48 62.94 62.63 62.82 63.55 65.13 66.34 65.96 66.72 66.68 64.42 62.75 63.91 63.50 63.36 63.96 66.23 69.57 70.64 70.54 70.50 70.50 70.50 70.76 71.45 70.96 72.93 74.22 74.62 74.89 76.46 76.19 75.74 76.61 78.08 78.87 79.93 81.44 82.53 84.44 84.78 84.15 82.24 79.82 78.63 78.66 79.05 80.74 82.94 83.19 83.37 84.10 85.29 86.57 86.26 86.53 87.34 86.59 85.47 85.73 86.19 85.87 85.34 86.80 88.07 89.34 90.18 91.00 92.48 93.48 93.70 92.78 92.05 92.43 93.65 94.79 95.66 96.72 97.83 99.37 100.71 101.42 101.54 102.09 103.13 103.43 103.40 103.65 103.28 104.03 104.85 104.31 104.64 105.15 105.73 105.76 105.00 104.01 104.69 105.60 106.20 106.01 104.82 105.97 107.72 108.65 108.21 108.38 110.34 112.09 112.91 112.39 109.60 109.39 111.68 109.83 109.50 109.65 109.46 104.79 102.55 98.54 92.74 90.52
40.68 43.03 44.38 45.10 45.70 45.95 46.14 46.23 46.39 46.49 46.73 46.72 46.79 46.97 47.12 47.24 47.53 47.85 48.13 48.53 48.89 48.93 49.06 49.01 49.11 49.45 48.83 48.89 49.73 49.86 49.99 49.89 49.60 49.63 49.89 50.17 50.39 50.80 50.95 50.56 49.86 49.17 48.58 48.30 48.07 48.09 48.38 48.32 48.51 48.25 47.71 47.20 46.71 46.41 45.87 45.78 45.82 45.70 45.26 45.24 44.98 44.93 44.87 44.75 44.96 45.07 45.18 45.48 44.72 44.03 43.97 43.91 43.86 43.94 43.80 43.61 43.37 43.37 43.53 43.90 43.95 43.11 42.33 40.84 40.80 41.85 42.43 42.69 42.60 43.33 44.04 43.19 42.78 42.95 43.23 43.30 43.25 42.87 42.89 42.71 43.12 43.68 43.34 43.83 44.72 45.13 44.21 43.45 43.51 44.55 44.45 44.39 43.64 43.49 44.46 43.32 41.85 42.16 44.59 45.96 44.69 45.12 44.83 44.36 46.74 47.07 46.95 47.30 47.05 47.26 47.94 48.21 48.28 48.40 48.85 49.57 50.48 50.41 49.85 50.27 49.91 49.22 49.49 46.59 33.34 31.00 31.63 35.94 38.99 42.34 43.93 46.68 48.10 49.48 49.56 51.05 51.60 51.45 52.69 53.23 53.15 51.96 51.94 51.54 51.04 51.45 52.21 52.59 52.86 54.00 56.00 57.25 57.69 57.81 57.26 56.70 57.21 57.57 57.81 57.36 57.19 57.73 59.57 60.21 59.64 59.39 60.61 61.91 62.56 61.60 62.37 63.86 65.28 66.61 67.05 66.65 67.72 68.35 67.47 67.30 63.95 60.58 58.78 56.85 57.35 56.47 55.44 55.90 57.19 57.87 58.49 60.70 61.83 61.72 61.39 62.03 62.43 62.97 63.77 64.46 64.98 65.07 66.40 67.74 67.17 68.46 69.99 71.32 72.64 73.63 72.89 74.14 69.82 68.58 68.68 68.58 68.88 69.92 73.63 77.86 69.48 67.10 67.36 68.24 69.14 68.71 68.16 68.78 68.43 67.90 67.51 67.47 67.43 67.61 67.17 66.32 65.20 64.41 64.76 65.22 66.08 67.53 68.08 67.37 66.16 64.60 63.52 64.00 64.64 64.82 64.58 63.94 64.93 64.97 63.85 63.67 64.25 63.83 63.48 63.70 64.58 65.74 66.63 66.38 67.10 66.78 64.87 63.24 64.66 64.64 63.25 63.91 69.34 70.84 70.52 70.50 70.50 70.50 70.50 70.50 70.52 70.55 71.97 75.20 75.77 74.59 75.72 77.19 77.70 77.81 79.21 79.89 80.57 82.15 83.74 85.31 83.15 81.40 80.17 79.12 78.42 78.60 79.29 80.41 81.81 82.18 83.40 84.56 86.01 87.30 87.24 87.58 88.05 87.36 86.63 87.21 87.51 87.05 86.24 86.78 87.92 89.62 90.77 91.94 92.81 93.37 94.71 94.06 93.23 93.57 94.78 95.11 95.85 97.28 98.57 99.79 100.80 101.23 102.35 102.95 103.78 104.36 104.47 104.86 104.56 104.68 105.18 104.88 105.50 105.73 105.51 104.73 103.52 103.13 101.89 103.42 104.83 104.51 102.56 103.98 107.32 108.13 107.63 107.54 109.27 111.09 111.39 110.49 108.54 106.12 107.32 104.93 106.75 106.24 106.05 101.87 96.74 93.96 91.88 91.03
40.79 42.71 43.46 44.33 44.85 45.46 45.87 46.08 46.26 46.39 46.53 46.75 46.87 47.03 47.09 47.22 47.50 48.00 48.39 48.90 49.18 49.22 49.39 49.33 49.49 49.83 49.75 49.86 49.92 49.97 50.10 50.11 49.96 49.81 49.80 50.04 50.31 50.75 50.83 50.67 50.19 49.27 48.68 48.47 48.40 48.45 48.75 48.68 48.77 48.41 47.87 47.20 46.66 46.56 46.06 46.25 46.49 46.11 45.35 45.26 45.38 45.13 45.10 45.02 45.28 45.14 44.86 45.27 44.74 44.61 44.10 44.06 44.04 43.96 43.82 43.68 43.64 43.53 43.79 44.20 43.94 42.92 42.74 41.81 41.43 41.74 42.40 42.96 42.79 43.51 44.05 43.16 43.09 43.07 43.24 43.19 43.58 43.77 43.70 43.53 44.00 44.05 44.18 43.78 44.46 44.44 44.49 44.48 44.06 44.13 44.21 43.89 43.94 44.20 43.83 43.95 42.77 42.68 45.67 46.35 44.52 45.08 45.35 45.40 46.84 47.16 47.28 46.60 46.76 46.98 47.78 47.65 48.21 48.42 49.07 49.59 49.46 49.66 49.76 50.44 50.45 49.51 49.52 48.05 34.55 31.00 31.40 36.00 38.57 42.10 45.38 48.23 50.81 50.99 49.81 51.01 51.30 51.77 53.63 54.14 53.89 51.92 51.25 51.91 51.27 51.55 52.27 52.59 52.71 53.24 55.36 57.09 57.76 57.23 57.34 57.19 57.56 58.04 57.92 58.18 57.65 59.45 58.78 59.84 60.90 60.61 60.55 61.80 61.88 62.21 63.12 64.44 66.84 67.70 67.59 66.95 66.94 67.05 64.90 63.54 61.16 60.18 58.91 56.80 57.45 57.42 56.17 56.39 57.89 59.28 59.38 60.57 61.15 61.57 60.87 61.29 61.72 62.24 63.23 64.21 64.93 65.55 65.87 66.63 66.98 68.03 69.96 71.08 72.79 74.30 73.73 73.65 70.96 69.21 69.43 69.72 69.08 69.58 73.45 76.63 69.31 67.80 68.61 69.87 69.46 69.82 69.35 69.01 68.77 68.38 68.06 67.62 67.44 67.35 66.86 66.27 65.70 65.11 65.48 65.97 67.64 69.16 70.09 69.11 66.28 64.31 64.61 65.65 66.81 65.79 65.97 64.61 65.23 66.10 65.26 63.92 64.36 64.55 64.63 65.16 65.10 65.52 67.46 67.13 67.25 67.02 65.17 63.77 65.51 65.96 65.43 68.54 70.55 70.50 70.50 70.50 70.50 70.50 70.50 70.50 70.52 71.73 74.24 74.70 73.77 72.55 73.91 77.17 78.65 78.77 80.13 81.39 82.05 83.33 84.36 85.91 85.24 83.84 82.88 80.22 77.98 78.37 79.08 79.66 80.56 81.25 82.64 84.29 85.84 87.12 87.75 88.74 89.11 88.59 88.24 88.81 89.02 88.71 88.12 87.20 87.80 88.43 89.34 91.04 91.55 91.88 94.14 94.54 93.72 92.98 92.91 93.39 95.29 97.06 98.50 99.94 100.15 100.26 102.30 103.56 104.13 104.93 105.38 105.77 105.82 105.73 105.75 105.89 106.52 105.91 105.06 104.14 104.32 103.84 101.15 100.67 102.06 102.47 101.13 103.14 106.61 107.25 106.39 106.39 107.97 110.27 110.20 107.90 105.38 103.10 102.05 100.74 100.63 100.40 99.43 96.65 94.11 92.84 92.14 91.49
41.73 43.18 43.08 43.61 44.40 45.12 45.40 45.52 45.87 46.10 46.30 46.72 47.02 47.22 47.08 47.14 47.51 48.10 48.60 49.04 49.32 49.54 49.74 49.81 49.90 49.97 49.87 49.95 50.00 50.05 50.26 50.30 50.35 50.32 50.16 50.17 50.35 50.62 50.66 50.62 50.05 49.26 48.94 48.81 48.76 48.81 48.89 49.04 48.77 48.20 47.58 46.99 46.68 46.77 46.71 46.39 46.40 46.34 45.54 45.47 45.61 45.52 45.50 45.35 45.40 45.28 44.96 45.10 44.92 45.10 44.36 44.20 44.08 43.92 43.80 43.67 43.57 43.71 43.83 44.74 43.94 42.82 42.84 42.34 42.06 41.72 41.73 42.27 42.76 43.40 44.08 43.35 43.28 43.23 43.38 43.94 44.81 45.44 44.69 43.84 44.05 44.06 43.75 44.10 44.96 44.60 44.92 44.98 44.55 44.45 44.12 43.70 44.08 44.50 44.40 44.76 43.92 43.62 45.26 45.48 44.94 45.85 46.63 46.24 46.57 46.54 46.86 46.91 46.44 46.82 47.10 47.27 47.72 47.57 48.76 48.57 48.39 49.71 50.07 50.39 50.51 49.96 48.73 45.33 33.91 31.00 31.47 35.27 37.75 41.12 45.60 50.99 51.87 51.81 49.96 50.53 51.94 51.69 52.82 53.84 53.47 51.82 50.86 51.52 51.48 51.75 52.30 52.56 52.82 54.22 55.70 56.53 57.30 56.97 56.43 56.69 57.56 57.18 57.92 58.14 58.20 58.98 58.48 59.30 60.12 60.74 61.09 61.92 62.24 63.22 63.45 64.09 64.94 64.60 63.85 63.71 63.83 64.17 62.18 61.01 60.52 59.73 59.13 57.52 57.33 58.40 57.48 57.36 58.44 60.31 60.28 60.11 60.33 61.74 61.00 61.10 61.72 62.50 63.20 63.87 65.34 66.41 66.82 66.71 67.73 68.80 69.58 70.28 70.93 71.98 72.16 71.81 71.13 69.98 70.59 71.00 70.65 70.71 71.67 71.72 69.73 68.95 69.15 69.52 69.61 69.91 69.73 68.93 68.79 68.91 69.33 68.71 68.40 67.16 66.50 67.06 67.12 65.90 65.92 66.96 69.30 70.89 71.18 69.66 66.23 64.46 64.44 64.95 67.02 67.01 67.01 65.47 65.39 66.29 65.93 64.41 64.43 64.86 65.09 65.46 66.00 66.08 66.66 66.81 66.93 67.11 65.42 64.46 66.81 67.87 68.31 70.86 70.50 70.50 70.50 70.50 70.50 70.50 70.50 70.50 70.53 71.78 73.63 72.74 71.16 70.88 72.82 75.93 77.25 77.85 79.56 81.10 82.64 84.10 85.07 86.52 86.56 84.99 82.15 79.09 77.73 78.33 79.07 79.66 80.43 81.31 82.10 83.99 85.08 86.40 87.62 88.97 89.94 89.88 89.26 89.88 90.39 90.51 90.10 89.17 89.74 90.45 90.28 90.81 91.25 91.45 93.45 93.96 93.25 92.17 91.04 92.28 94.86 96.12 96.88 98.63 98.69 99.54 102.16 103.68 104.56 105.17 105.68 105.90 106.26 107.19 106.97 107.33 107.40 106.67 106.10 104.86 105.66 104.92 102.04 99.84 99.30 99.72 102.21 105.31 106.18 105.72 105.77 106.71 108.52 110.99 111.60 108.95 106.28 102.50 100.79 98.81 97.59 97.19 96.25 95.15 93.99 93.17 92.49 92.19
43.24 43.08 43.21 43.50 43.99 44.52 44.87 45.13 45.48 45.64 46.12 46.58 46.96 47.07 46.80 46.91 47.44 48.05 48.62 49.16 49.52 49.83 50.04 50.12 50.20 50.21 50.12 50.15 50.19 50.19 50.34 50.37 50.43 50.48 50.35 50.31 50.34 50.55 50.45 50.57 49.94 49.48 49.08 49.12 49.11 49.00 48.90 48.91 48.33 47.74 47.25 46.99 47.00 47.09 46.78 46.31 46.47 46.51 45.94 45.95 46.28 46.11 45.76 45.60 45.34 45.06 45.06 45.25 44.97 45.30 44.59 44.33 44.16 43.96 43.92 43.77 43.53 43.57 43.39 44.65 44.66 42.81 42.91 41.99 41.83 41.40 40.56 40.22 42.08 43.00 43.13 42.44 42.89 43.15 43.30 43.90 44.08 45.49 45.70 44.63 44.15 44.38 44.16 44.36 44.92 44.85 44.86 45.07 45.09 44.78 44.22 43.97 44.04 44.48 44.82 44.74 44.51 44.51 44.42 45.14 45.51 46.00 46.33 46.13 47.07 47.71 47.02 45.98 46.78 47.07 46.86 46.61 47.03 47.12 48.08 48.50 48.91 49.66 50.64 50.59 50.60 50.02 48.54 45.38 33.98 31.00 32.35 36.54 38.29 40.90 44.30 49.56 49.88 49.16 49.20 49.88 51.41 51.99 52.59 53.58 53.27 51.96 50.88 51.20 52.33 52.58 52.33 52.76 53.15 54.55 55.63 56.35 56.98 56.72 56.35 56.56 57.03 56.48 57.17 57.39 57.56 58.16 58.55 59.16 60.17 60.39 61.10 61.67 62.29 62.97 61.97 61.87 61.74 61.77 61.72 62.03 60.28 60.32 59.85 59.38 58.94 58.25 58.54 57.86 57.59 58.20 58.43 58.64 58.42 58.78 59.13 59.92 60.37 61.46 61.67 62.19 62.49 63.15 63.66 64.21 66.06 66.53 67.56 66.76 67.86 69.66 70.34 70.48 71.16 71.76 72.20 71.59 70.99 70.92 71.41 71.63 71.95 71.66 71.51 71.12 70.54 69.85 70.08 70.64 70.48 69.93 69.62 69.10 68.82 68.82 69.25 68.61 67.88 67.17 66.69 67.18 67.59 66.50 67.09 68.75 70.75 71.61 71.63 69.57 66.07 64.56 64.53 64.67 66.44 68.35 67.59 66.41 65.94 66.37 66.71 65.67 65.27 66.38 66.42 66.05 66.38 66.33 66.16 65.32 65.83 66.56 65.92 65.52 68.66 69.03 70.26 70.69 70.50 70.50 70.50 70.50 70.50 70.50 70.50 70.50 70.50 70.60 71.83 71.35 71.03 71.48 72.12 73.63 74.62 75.95 77.49 79.14 81.39 82.97 84.65 85.90 85.99 85.17 80.91 77.96 77.57 78.24 79.02 79.95 81.54 83.06 83.83 85.05 85.44 86.50 87.89 89.33 90.49 90.98 90.20 90.52 90.76 91.20 91.22 90.86 91.46 92.59 92.70 93.07 93.67 93.26 93.50 93.41 92.35 90.92 90.04 91.30 93.52 93.96 95.07 96.72 97.15 98.92 101.60 103.26 104.60 105.48 105.92 106.25 106.97 107.87 108.01 107.98 107.88 107.30 106.20 105.20 106.20 107.13 105.91 103.49 99.47 99.70 103.48 104.83 104.57 105.33 107.01 107.54 108.50 110.47 111.20 109.13 106.33 106.37 103.03 100.03 98.65 97.13 96.10 95.41 94.61 93.81 93.30 93.05
43.41 42.86 43.09 43.21 43.54 44.10 44.63 44.91 45.23 45.27 45.72 46.09 46.35 46.50 46.44 46.64 47.19 47.93 48.57 49.02 49.43 49.82 50.13 50.30 50.55 50.61 50.53 50.52 50.44 50.44 50.48 50.46 50.57 50.33 50.25 50.28 50.25 50.44 50.51 50.60 50.24 49.90 49.47 49.32 49.27 49.14 48.94 48.67 47.91 47.24 46.98 46.85 47.14 47.24 46.68 46.07 46.34 46.52 46.26 46.61 47.11 46.85 46.12 45.84 45.49 45.26 45.17 45.25 44.97 44.99 44.75 44.28 44.18 44.09 44.24 44.14 44.00 43.79 43.83 44.85 45.23 43.16 43.22 42.45 42.22 41.92 41.68 41.82 42.90 42.89 42.82 43.06 43.93 42.83 42.91 43.25 43.61 45.32 45.85 45.57 44.85 45.03 44.90 44.68 45.31 45.31 45.17 45.34 45.38 44.77 44.63 44.08 43.92 45.42 46.39 46.11 45.65 45.07 45.35 45.79 45.60 45.90 46.37 46.28 46.56 47.61 46.40 45.11 48.12 47.28 46.67 46.31 46.63 47.06 47.78 48.45 48.53 49.33 49.61 49.49 49.31 49.72 49.68 45.73 33.12 31.09 34.17 37.01 39.27 41.18 44.47 49.03 49.11 48.69 48.62 49.43 51.06 52.57 52.21 52.78 52.94 51.92 50.88 50.79 51.71 53.17 52.81 53.00 53.29 53.97 55.27 55.87 55.92 56.22 55.79 55.25 55.58 55.93 56.80 57.66 57.49 57.77 58.60 59.78 60.14 60.40 61.23 61.56 62.57 63.18 60.84 59.94 60.26 60.75 60.05 60.27 59.23 59.20 59.31 58.91 58.65 57.76 59.10 58.08 57.99 58.23 59.29 60.06 59.34 59.07 59.39 59.46 60.06 60.61 62.60 64.15 63.45 63.56 63.93 64.42 66.06 66.63 67.55 66.57 67.75 70.27 70.25 70.41 71.81 72.75 72.60 72.25 71.70 71.55 71.69 72.86 73.48 72.92 72.12 71.51 70.98 70.15 69.96 70.48 70.67 70.16 70.01 70.15 69.52 69.15 68.62 67.95 67.84 67.96 67.72 67.69 67.78 67.36 68.82 69.68 71.29 71.93 70.53 68.16 65.87 64.72 64.52 65.13 66.29 69.04 68.85 67.66 67.25 68.26 67.68 65.84 65.01 66.43 67.65 66.60 67.06 67.12 66.29 61.79 63.98 66.13 65.44 65.98 69.69 70.09 71.93 70.50 70.50 70.50 70.50 70.50 70.50 70.50 70.50 70.50 70.50 70.50 70.58 70.98 73.88 75.43 74.41 74.42 74.25 75.02 76.54 77.49 79.06 81.12 81.61 81.87 83.04 83.85 80.23 77.26 77.52 78.17 78.93 79.98 81.85 83.57 84.83 85.99 86.55 87.05 88.24 89.53 90.56 91.36 91.24 90.72 89.78 90.10 91.35 91.84 92.47 93.73 94.65 95.41 95.73 95.27 94.81 94.45 91.81 89.56 89.42 90.25 91.73 92.43 93.49 94.90 96.34 98.94 101.52 103.44 104.80 105.48 106.28 106.63 107.08 107.39 106.99 106.95 107.55 107.00 105.23 104.45 104.91 105.80 106.06 104.29 99.45 100.38 102.74 103.33 104.42 106.35 108.04 108.84 108.85 109.61 110.39 110.04 109.08 108.84 104.10 101.37 99.86 98.18 97.62 97.38 96.63 95.24 94.39 94.06
42.59 42.41 42.72 42.93 43.42 43.97 44.29 44.71 44.82 44.94 45.44 45.53 45.61 45.97 46.15 46.42 47.14 47.80 48.31 48.70 49.09 49.69 50.22 50.55 50.79 50.83 50.91 50.91 50.71 50.44 50.48 50.46 50.51 50.35 50.24 50.29 50.52 50.64 50.65 50.73 50.61 50.40 49.93 49.53 49.16 48.67 48.44 48.09 47.43 47.05 46.91 46.94 47.01 47.16 46.82 46.68 46.79 46.99 47.11 47.36 47.44 47.30 46.48 45.88 45.73 45.46 45.24 45.12 44.88 44.66 45.00 44.42 44.24 44.08 43.97 45.16 45.59 44.35 44.11 43.92 44.09 43.31 42.87 43.15 43.10 42.50 42.20 42.74 43.10 43.36 43.04 43.38 44.50 42.78 42.68 43.29 43.75 45.31 45.53 45.93 45.39 45.39 45.71 45.35 45.42 45.51 45.28 45.30 45.36 44.91 44.03 43.36 43.70 45.57 45.46 45.55 46.18 44.72 45.34 45.72 45.68 45.49 46.22 46.39 46.30 46.56 46.14 45.31 46.11 47.83 48.38 47.20 47.02 47.30 47.90 48.66 48.27 48.47 49.14 49.12 48.69 49.17 49.67 42.92 31.96 31.24 35.32 36.97 38.86 40.37 42.38 45.96 47.23 47.27 47.80 49.37 50.91 52.78 52.14 52.37 52.32 51.72 50.51 50.52 51.15 52.67 53.74 53.73 53.71 54.05 54.64 55.15 55.40 55.91 55.61 55.01 55.95 56.28 56.79 57.25 57.44 58.38 58.88 58.91 59.19 59.89 61.50 61.09 60.90 61.53 60.32 59.60 59.82 60.75 60.12 59.76 58.97 58.54 59.58 59.57 58.71 57.85 58.61 58.83 58.47 58.53 59.61 60.38 59.68 59.37 59.98 59.80 60.27 60.73 62.34 64.20 63.94 63.64 64.11 64.52 66.10 67.00 67.68 67.27 67.30 68.65 69.07 70.05 71.84 72.35 72.35 72.49 72.27 72.47 72.44 73.54 74.62 73.97 72.47 72.61 72.37 71.84 71.87 71.18 71.39 70.86 70.49 71.15 71.57 71.10 69.53 68.87 68.92 69.28 68.70 68.03 67.43 67.39 69.24 70.48 71.62 70.80 66.98 65.67 65.26 64.91 64.82 65.55 66.52 69.28 69.96 69.10 68.28 68.78 68.50 66.70 66.37 67.43 66.54 65.48 68.18 68.46 66.30 60.97 62.89 66.46 65.99 66.63 69.42 71.02 72.95 70.50 70.50 70.50 70.50 70.50 70.50 70.50 70.50 70.50 70.50 70.50 70.50 71.85 74.67 74.92 74.58 75.60 75.80 75.20 76.00 77.39 79.50 80.08 78.88 78.08 78.14 78.51 77.58 77.31 77.48 78.13 78.94 80.21 82.00 83.56 84.97 86.38 87.44 87.93 88.61 89.40 90.33 91.17 91.78 90.87 89.36 88.56 88.97 89.11 90.84 93.05 95.01 95.78 96.13 94.77 93.21 93.92 90.27 88.57 89.05 90.07 91.57 92.30 93.19 93.90 95.61 97.93 100.34 102.87 104.28 104.90 105.61 106.09 106.42 105.82 104.81 104.65 106.54 106.04 104.47 103.61 103.45 104.24 104.98 103.48 99.16 99.81 102.34 104.20 105.29 106.23 107.81 109.23 109.29 109.18 111.02 112.26 111.47 109.88 106.54 102.77 100.87 99.91 101.46 102.49 101.71 98.66 96.15 95.30
42.93 42.87 43.19 43.29 43.64 43.94 43.96 44.19 44.37 45.04 45.29 45.06 45.45 45.64 46.03 46.55 47.13 47.71 48.12 48.39 48.94 49.71 50.22 50.41 50.48 50.60 50.85 50.93 50.72 50.44 50.33 50.28 50.35 50.34 50.41 50.67 50.80 50.69 50.51 50.63 50.56 50.40 49.79 49.14 48.58 48.37 48.19 48.04 47.77 47.20 47.04 46.86 46.85 46.91 46.98 47.19 47.35 47.35 47.65 48.51 47.75 47.85 46.98 46.12 45.72 45.75 45.71 45.14 44.84 44.54 44.76 44.90 44.68 44.72 44.92 44.93 44.85 45.11 44.11 43.61 43.59 43.45 43.39 43.81 42.84 42.07 41.74 42.39 42.94 43.37 43.51 43.03 43.45 42.83 42.75 43.32 43.63 45.05 45.61 45.51 45.36 45.81 46.15 45.46 45.30 45.58 45.81 44.34 45.28 45.16 43.80 43.70 44.67 45.22 45.60 45.84 46.77 46.49 45.44 46.08 45.29 45.24 45.80 46.78 46.52 46.51 46.71 46.28 47.50 50.62 48.56 47.54 46.09 47.04 48.24 48.39 48.14 48.57 48.54 48.47 48.85 49.52 49.19 38.50 31.62 32.23 35.70 36.75 38.38 39.70 40.79 42.77 44.06 45.01 46.88 48.34 50.63 52.50 51.82 52.42 51.69 50.96 50.23 50.54 50.72 52.04 53.24 53.11 54.51 54.05 53.93 53.87 54.92 55.83 55.17 55.37 57.51 57.03 57.02 57.06 57.80 59.13 59.30 58.29 58.02 58.90 60.36 61.50 61.46 60.96 60.04 58.74 58.39 59.07 59.18 58.93 58.68 57.80 58.73 58.33 57.69 57.38 57.65 58.08 58.84 59.34 59.40 60.25 59.65 59.85 61.88 61.01 60.22 60.84 61.82 63.83 64.46 63.94 64.32 64.89 65.81 67.02 67.87 67.22 66.80 68.45 69.06 70.06 71.28 73.25 74.16 73.62 74.29 74.12 73.08 73.62 74.61 74.11 72.67 72.40 72.70 74.68 73.34 72.23 73.10 72.40 72.13 71.73 71.30 70.57 70.28 69.93 71.04 73.56 69.88 68.38 67.49 67.69 69.51 71.30 72.52 70.74 65.99 65.38 65.40 65.21 65.38 66.80 67.74 70.00 71.42 70.34 69.04 69.03 68.35 67.48 67.58 67.53 61.59 62.63 68.51 68.85 63.18 60.21 62.39 66.28 66.87 67.31 68.67 69.73 72.39 70.57 70.50 70.50 70.62 70.55 70.50 70.50 70.50 70.50 70.50 70.50 70.50 71.59 72.46 73.21 74.91 77.08 78.32 77.68 77.62 78.68 80.82 81.84 81.24 80.03 78.54 76.98 76.53 76.98 77.43 79.11 80.25 81.25 82.89 84.19 85.35 86.62 87.43 87.84 88.28 88.99 89.37 90.31 91.11 90.60 89.73 88.24 87.67 86.77 87.39 89.83 92.83 93.75 93.94 91.37 88.90 90.59 88.32 88.06 88.77 89.76 91.29 93.34 94.83 94.90 95.80 96.98 97.97 100.15 102.32 103.67 103.89 103.81 105.42 104.47 102.58 103.08 106.10 106.41 105.12 104.35 103.20 102.71 104.10 102.82 99.71 100.82 102.59 104.65 105.57 106.20 106.93 108.38 108.54 109.13 111.98 113.49 112.34 109.60 107.77 103.99 102.21 102.35 105.11 106.19 105.73 101.72 98.36 96.89
43.12 43.44 43.90 44.16 44.17 44.29 44.38 44.24 44.02 44.71 44.76 44.81 45.46 45.67 46.11 46.74 47.25 47.58 47.86 48.24 48.77 49.37 49.68 49.70 49.68 49.94 50.40 50.80 50.60 50.43 50.31 50.39 50.38 50.40 50.45 50.74 50.81 50.75 50.64 50.66 50.59 50.19 49.51 48.84 48.39 48.34 48.41 48.34 48.04 47.58 47.22 47.04 47.03 47.04 47.37 47.98 48.21 48.11 48.67 48.99 49.02 48.92 47.17 46.36 45.90 45.86 45.68 45.11 44.88 44.84 45.19 45.28 45.26 44.66 44.79 44.69 45.03 46.44 45.73 44.68 44.47 43.49 43.31 43.71 43.03 42.10 42.23 43.01 43.45 43.63 43.84 43.30 43.40 42.99 42.47 43.50 43.95 44.95 45.94 45.55 45.79 46.16 46.04 45.25 45.07 45.78 46.45 43.81 44.58 45.22 44.62 44.51 45.52 46.39 46.76 45.26 44.91 45.08 45.22 45.56 45.45 45.90 45.69 46.35 46.40 47.28 46.78 46.44 48.18 46.87 46.01 46.68 46.19 47.22 48.17 48.15 47.06 48.20 48.37 48.05 49.03 50.09 47.08 34.87 31.50 33.98 36.35 37.55 39.54 40.18 40.81 42.81 44.63 46.20 47.51 49.24 51.53 52.52 51.17 51.74 51.17 50.28 49.30 49.10 49.77 51.73 52.68 52.34 53.10 52.73 53.24 53.24 53.75 54.88 55.09 55.24 57.18 57.06 57.21 56.90 57.47 58.42 58.89 58.06 58.32 58.63 58.46 59.25 62.71 61.21 60.03 59.04 58.42 58.31 58.49 58.08 58.07 57.57 57.30 56.89 57.03 57.24 57.45 57.81 58.94 59.97 59.17 59.29 59.21 59.55 60.74 60.70 60.37 60.76 61.89 63.35 64.10 64.20 64.40 65.08 65.60 66.52 68.17 67.37 66.03 68.15 68.78 70.26 71.27 73.33 74.58 74.83 76.68 76.37 74.18 74.09 74.93 74.31 73.23 72.86 72.80 74.67 73.24 72.48 73.29 73.43 73.30 72.47 71.62 71.13 71.03 70.76 71.85 74.66 70.51 69.12 68.31 67.90 69.40 71.50 72.13 68.86 65.64 65.28 65.41 65.45 65.98 68.93 70.57 71.08 72.27 71.37 70.14 69.72 68.53 68.18 68.36 66.58 59.31 60.67 68.25 69.63 64.28 61.28 64.29 66.41 65.59 66.71 68.78 69.78 72.30 71.17 70.51 70.51 70.56 70.52 70.50 70.50 70.50 70.50 70.50 70.50 70.50 70.59 70.93 72.19 74.41 76.21 77.03 77.49 77.90 78.92 81.15 82.00 82.26 81.49 80.29 77.36 76.43 76.68 77.26 80.74 83.62 82.36 83.36 85.00 86.12 86.30 86.40 86.50 87.35 88.41 88.33 89.19 89.72 89.56 88.65 88.68 88.49 86.20 85.62 85.88 87.30 88.40 88.60 87.66 86.92 87.15 87.36 87.93 88.76 89.62 91.17 95.54 96.98 97.32 98.23 99.65 99.73 100.27 101.38 102.86 102.54 101.79 103.38 102.60 101.41 104.11 105.41 105.64 105.63 105.02 103.92 102.44 102.38 101.53 99.64 102.26 103.48 105.04 106.48 106.57 105.83 106.56 107.10 108.37 110.45 113.00 112.47 109.28 107.68 105.70 105.27 106.41 105.96 104.90 104.32 102.68 99.45 98.29
41.93 42.07 43.86 44.61 44.72 44.68 44.89 44.78 44.37 44.19 44.50 44.68 45.10 45.72 46.16 46.63 47.12 47.25 47.43 48.10 48.54 48.82 49.05 48.84 48.96 49.38 50.05 50.67 50.57 50.34 50.17 50.31 50.33 50.42 50.32 50.51 50.53 50.62 50.77 50.69 50.61 50.30 49.69 49.15 49.23 49.07 48.91 48.76 48.22 47.94 47.36 47.35 47.24 47.40 47.95 48.80 49.48 49.08 49.26 49.47 49.43 49.25 47.82 46.89 46.12 46.04 45.82 45.48 45.34 45.49 45.72 45.69 45.34 44.63 44.55 44.84 45.85 46.90 46.38 45.32 44.74 43.98 43.77 43.10 43.02 42.89 43.47 43.86 44.35 43.86 43.99 43.39 43.19 42.99 42.51 42.89 43.84 44.71 46.09 46.38 46.35 46.12 45.26 44.60 44.82 45.86 45.59 44.09 44.57 45.51 46.36 46.59 46.41 47.77 47.00 45.74 45.83 45.74 46.40 46.26 46.10 45.64 45.74 45.57 45.57 47.23 46.61 45.89 46.10 46.11 45.97 46.06 46.23 47.10 46.93 46.70 46.87 47.46 48.09 48.10 47.69 46.57 40.10 32.22 32.05 35.89 36.48 38.19 38.49 39.15 40.16 42.33 44.45 46.26 47.84 49.65 51.76 53.00 52.86 51.53 49.65 48.74 48.86 50.09 50.55 50.96 51.61 51.78 52.25 52.79 53.64 53.24 53.18 53.92 55.04 55.41 55.87 56.74 57.80 57.22 57.86 58.75 58.97 58.66 57.86 57.18 57.16 59.23 61.02 61.22 59.22 59.06 58.85 58.05 57.22 56.84 56.98 57.19 56.89 56.71 57.12 57.63 57.88 58.66 59.09 59.77 59.56 59.22 59.17 59.46 59.97 60.52 60.90 61.50 62.73 63.16 63.41 64.16 64.50 65.13 65.58 66.38 68.00 68.02 66.78 68.19 68.55 70.07 71.58 72.72 76.18 78.42 78.92 76.34 74.15 74.48 74.45 74.34 74.36 73.21 73.27 74.78 73.94 73.27 73.72 74.40 74.83 74.11 73.80 73.11 72.81 72.85 73.81 74.11 70.57 69.50 68.86 68.27 68.78 70.08 69.28 66.96 65.71 65.58 65.78 65.75 66.27 68.71 71.92 72.33 72.56 71.34 70.78 70.50 69.13 68.81 69.28 66.24 60.18 65.85 70.07 69.52 68.99 68.01 67.82 64.12 62.54 66.33 69.95 71.47 73.30 71.50 70.62 70.58 70.50 70.51 70.56 70.51 70.50 70.50 70.50 70.50 70.50 70.50 70.50 70.65 71.85 72.63 73.82 75.48 77.05 79.33 80.35 79.04 78.12 77.26 76.75 76.30 76.13 76.29 76.96 80.07 84.74 83.98 84.37 85.62 86.45 86.06 85.01 85.53 87.12 87.67 87.43 87.73 88.11 88.26 87.79 88.77 89.76 87.30 85.18 84.70 84.62 84.82 85.33 86.32 86.53 86.95 87.87 89.37 90.51 91.10 92.34 97.06 99.31 99.69 100.41 101.75 102.23 102.99 103.43 103.77 102.82 101.30 100.54 99.39 99.38 100.82 101.11 102.00 104.24 103.45 103.47 102.37 100.54 99.13 101.02 103.72 105.34 105.95 106.86 105.57 103.88 104.30 105.76 106.69 108.33 111.12 112.75 111.72 110.36 108.46 109.42 109.38 106.73 104.57 103.09 101.43 100.24 99.82
43.31 41.70 42.89 44.55 44.98 44.97 45.00 45.23 45.05 44.41 44.80 45.16 45.21 45.69 46.04 46.36 46.61 46.86 47.28 47.63 47.98 48.10 48.40 48.40 48.52 49.20 49.90 50.36 50.34 50.09 49.95 50.18 50.26 50.30 50.30 50.38 50.50 50.55 50.66 50.62 50.63 50.24 49.89 49.82 50.24 50.31 49.94 49.27 48.53 48.25 47.70 47.50 47.70 48.02 48.66 49.25 49.91 49.51 49.43 49.36 49.42 48.99 47.74 47.24 46.71 46.17 45.71 45.40 45.41 45.85 46.02 45.51 45.49 44.98 45.16 45.26 45.62 46.20 46.95 45.69 44.83 43.89 43.61 43.52 43.85 43.07 44.10 44.28 44.46 43.73 43.71 43.63 43.56 43.56 43.27 42.85 43.22 44.42 45.27 46.17 45.15 44.36 43.70 43.84 43.91 44.49 44.19 44.05 44.76 45.64 46.89 47.39 46.86 47.65 46.67 46.43 46.55 46.76 47.03 46.94 46.59 45.94 45.93 46.64 47.03 45.42 45.50 44.54 45.20 45.44 45.63 46.18 46.39 46.52 46.14 46.02 46.71 47.43 47.35 47.55 46.98 43.18 33.45 31.50 33.75 36.54 37.36 39.79 38.16 37.83 39.32 41.39 43.36 45.27 48.04 50.19 52.78 55.42 54.38 52.00 49.24 48.95 50.62 51.65 52.78 51.42 51.36 52.41 52.38 52.93 53.08 53.80 54.62 54.59 54.89 56.08 57.17 57.40 58.04 57.80 58.77 59.92 59.35 59.33 58.08 56.95 56.61 57.69 57.29 58.74 59.46 59.41 58.50 57.22 56.53 56.92 56.75 57.01 56.41 56.69 57.53 57.88 58.31 59.64 60.61 59.84 59.40 59.78 60.19 60.49 60.49 60.69 62.40 63.62 64.32 63.74 63.51 63.91 64.48 65.60 66.01 66.39 67.64 68.28 66.87 67.96 68.36 69.53 71.03 71.13 72.99 75.03 75.41 74.64 73.86 74.91 74.13 73.64 74.14 73.46 73.67 74.92 74.39 74.10 74.69 76.23 75.60 74.33 74.08 74.25 74.73 74.86 75.48 75.67 71.04 69.28 68.92 68.29 67.97 68.48 67.15 66.37 65.94 65.66 66.06 66.05 66.94 69.55 72.61 72.73 71.73 71.03 71.31 70.80 68.87 69.53 70.59 70.67 69.97 71.72 70.40 69.80 70.07 69.87 68.68 62.99 62.35 68.00 71.31 72.17 73.41 71.15 70.54 70.52 70.51 70.59 71.01 70.58 70.50 70.50 70.50 70.50 70.50 70.50 70.50 70.86 71.83 72.98 74.76 77.17 78.59 80.38 80.52 78.85 78.04 78.09 77.12 76.16 75.88 76.17 78.12 81.81 84.82 84.45 85.36 86.20 86.00 85.07 84.37 85.54 86.66 86.87 86.26 86.51 86.43 86.42 87.56 89.06 90.27 88.00 85.48 84.66 84.02 83.96 84.54 85.15 85.56 86.68 89.99 94.39 95.63 97.04 96.74 98.53 99.94 99.40 100.06 101.81 103.10 103.40 103.28 103.53 102.76 101.75 101.46 99.19 96.42 96.42 96.75 98.68 101.15 100.39 100.73 101.08 100.19 98.98 101.74 104.37 106.61 106.80 104.91 103.42 104.36 105.23 105.78 106.26 107.37 109.77 111.80 113.19 112.21 111.14 112.49 112.02 109.77 107.76 104.85 102.72 102.79 101.27
42.38 41.66 42.29 43.24 44.63 45.06 45.16 45.30 45.44 45.14 44.61 45.23 45.42 45.56 45.83 46.14 46.30 46.74 47.19 47.25 47.48 47.56 47.94 48.15 48.62 49.24 49.70 50.07 50.01 49.76 49.82 49.97 50.12 50.30 50.36 50.45 50.66 50.63 50.64 50.63 50.63 50.50 50.35 50.31 50.61 50.76 50.77 50.16 49.66 49.08 48.24 48.16 48.43 48.92 49.35 49.49 49.63 49.47 49.42 49.23 48.93 48.15 47.46 47.37 46.63 46.13 45.70 45.52 45.75 46.01 46.04 45.45 45.36 45.25 45.22 45.29 46.04 45.84 46.36 46.18 44.63 43.83 44.02 44.03 43.88 42.59 44.09 44.53 44.13 43.90 44.13 43.97 43.59 43.69 43.46 43.25 42.56 43.94 44.31 44.49 43.72 43.72 44.38 44.23 44.61 46.00 46.39 46.39 46.82 46.14 45.75 46.61 46.64 46.42 46.73 46.32 46.68 47.65 47.13 47.78 47.93 47.04 48.71 48.61 48.35 47.04 45.56 43.88 43.61 44.35 44.66 45.05 46.54 44.79 46.10 46.88 46.73 47.22 46.98 46.79 46.49 41.59 32.33 31.80 35.42 36.61 38.00 40.28 38.55 37.93 39.07 40.45 43.27 45.86 47.98 49.91 52.15 53.54 54.37 53.08 48.89 48.94 50.93 52.05 53.16 51.91 51.71 52.99 54.25 54.01 53.56 55.42 58.14 56.17 55.18 55.90 57.75 58.43 58.12 58.09 58.35 58.39 58.07 58.88 58.81 57.68 56.68 56.20 55.99 57.16 58.40 59.06 58.47 56.89 56.83 57.35 56.65 56.53 56.30 56.87 57.18 57.59 57.83 59.94 61.60 59.60 59.13 60.04 60.80 61.49 62.12 62.43 63.79 63.79 63.64 63.47 63.82 64.07 64.26 65.87 66.29 65.96 67.04 67.27 66.57 67.43 68.01 68.78 70.01 70.57 71.37 72.48 73.50 73.15 73.23 74.70 74.87 74.11 74.54 74.68 74.92 76.41 75.20 75.18 74.97 75.90 76.11 74.81 74.54 74.99 74.92 73.98 73.09 72.13 70.66 69.45 68.90 67.95 67.48 67.02 66.62 66.35 66.20 66.25 66.44 66.46 67.40 69.21 71.59 71.25 70.73 71.66 72.59 71.87 69.69 70.99 72.19 72.69 73.31 72.17 70.79 70.51 70.63 70.19 69.43 68.56 67.95 69.89 71.38 72.14 71.19 70.78 70.51 70.57 70.65 70.67 70.65 70.52 70.50 70.50 70.50 70.50 70.50 70.50 70.50 71.22 72.97 74.51 76.00 77.71 79.79 81.14 82.09 82.43 82.13 81.22 78.63 76.07 75.86 76.32 80.52 84.04 84.25 83.58 84.83 85.79 85.29 83.88 83.60 85.02 86.12 86.55 85.24 84.77 84.89 86.03 87.96 89.26 90.40 88.57 86.79 85.64 83.52 83.53 84.02 84.55 85.05 86.41 90.76 96.82 99.00 99.60 98.88 99.27 99.34 97.76 98.78 101.32 102.39 102.02 102.06 102.06 101.14 99.64 99.18 97.07 95.30 94.91 95.33 96.28 97.44 97.67 97.89 98.14 98.23 100.20 102.64 103.89 105.44 104.95 103.01 104.19 106.44 107.91 108.48 107.75 107.81 109.72 111.22 113.11 113.50 113.04 114.06 113.16 110.82 108.03 105.37 105.29 105.83 103.10
41.83 42.31 42.61 43.00 44.46 45.08 45.21 45.30 45.52 45.56 44.99 45.02 45.38 45.76 46.08 46.17 46.17 46.57 46.94 47.03 47.17 47.30 47.66 48.08 48.54 48.98 49.38 49.64 49.42 49.15 49.47 49.59 49.80 50.10 50.30 50.37 50.63 50.64 50.61 50.64 50.67 50.73 50.69 50.56 50.68 50.89 51.09 50.82 50.59 49.78 48.92 48.74 48.83 49.61 50.01 49.73 49.36 48.91 48.92 48.93 48.24 47.43 46.97 46.74 46.77 46.36 45.90 45.75 46.02 46.16 45.87 45.31 45.26 45.78 45.62 45.17 45.61 46.43 46.72 45.63 44.22 44.11 43.87 43.71 43.29 42.88 44.15 45.07 44.23 43.70 44.49 44.24 43.71 43.51 43.55 43.03 42.39 43.71 44.67 45.14 44.20 44.23 44.51 44.03 44.69 45.19 46.39 47.30 47.09 46.52 46.08 47.29 46.92 46.50 46.21 45.57 45.91 46.45 47.52 48.55 47.60 47.47 47.99 46.65 45.91 46.37 46.83 45.38 44.58 43.99 43.62 42.98 44.48 45.12 48.57 49.03 47.64 46.48 46.89 46.73 45.86 38.42 31.50 32.59 36.54 36.31 38.23 40.80 39.85 38.15 39.37 41.12 43.57 46.30 47.80 50.02 52.53 52.79 53.23 54.81 49.32 48.84 50.36 51.08 51.12 51.42 52.18 54.08 55.67 55.10 55.02 55.81 56.56 55.69 55.33 56.02 58.19 59.66 59.73 59.17 58.55 58.24 58.48 59.56 60.43 59.85 57.55 56.41 55.94 57.40 58.06 58.43 58.49 56.58 56.36 56.63 57.12 57.06 56.67 57.27 57.37 57.84 58.97 59.71 61.74 60.11 59.61 61.31 61.31 62.15 63.12 62.91 63.92 63.69 63.68 63.61 64.45 64.88 64.49 65.26 65.68 65.98 67.76 67.48 66.45 67.43 67.89 68.93 69.74 70.19 71.09 72.26 72.83 72.46 72.14 73.63 74.33 74.11 73.99 74.33 74.41 75.36 76.06 75.78 75.18 76.06 76.66 74.86 74.26 73.82 73.06 72.56 72.11 72.12 71.45 69.73 68.30 67.74 67.39 67.02 66.57 66.31 66.11 66.49 66.69 66.69 67.44 68.35 69.34 70.28 71.55 72.35 73.36 72.54 70.59 71.80 72.02 71.30 71.98 72.60 71.30 71.11 70.69 70.35 70.70 70.80 70.86 71.17 72.44 72.78 71.06 70.51 70.56 71.36 71.64 71.75 70.81 70.50 70.50 70.50 70.50 70.50 70.50 70.50 70.50 71.34 72.68 73.66 75.33 77.29 79.03 80.45 81.23 81.93 81.54 79.46 76.58 75.68 75.71 75.86 77.38 80.81 82.47 82.39 84.21 85.30 84.60 82.83 82.93 84.87 86.39 86.23 84.31 83.54 84.29 86.16 87.89 89.77 91.19 90.51 87.65 84.76 83.08 83.32 83.91 84.39 84.89 86.09 88.87 93.73 97.24 98.67 97.66 97.97 98.34 96.25 97.61 100.01 100.57 99.80 100.23 100.30 99.88 98.07 97.79 95.81 94.37 94.43 94.67 94.90 95.78 96.10 96.74 96.64 97.05 99.33 100.87 101.83 102.81 102.15 103.47 105.79 107.20 109.26 110.65 110.39 109.45 110.96 112.72 113.79 114.00 114.16 114.25 111.99 109.30 108.40 107.49 109.44 109.32 106.34
42.07 43.48 42.52 43.16 44.12 44.87 45.34 45.45 45.56 45.63 45.41 45.15 45.31 45.75 46.06 46.04 45.96 46.25 46.63 46.68 46.83 46.97 47.38 47.64 48.13 48.56 48.98 49.13 48.89 49.09 49.47 49.78 49.98 50.19 50.43 50.42 50.57 50.76 50.73 50.74 50.78 50.89 50.86 50.79 50.86 51.05 50.97 50.51 50.21 49.69 49.51 49.66 49.82 50.07 49.81 49.18 48.78 48.36 48.22 48.17 47.61 47.14 46.99 47.17 47.42 46.49 46.13 46.08 46.18 46.32 45.98 45.37 45.47 45.78 45.99 45.45 45.74 46.99 46.80 45.94 44.69 44.46 43.96 43.63 43.36 44.18 43.92 43.24 43.33 43.57 44.73 44.59 44.25 43.58 43.82 43.15 43.36 44.09 44.64 45.28 45.31 45.89 45.00 44.26 45.23 45.25 46.23 47.23 46.95 47.57 47.61 47.65 46.89 47.23 47.29 46.69 46.83 45.92 47.69 47.41 46.92 47.17 48.19 47.10 45.75 45.52 46.69 45.94 44.68 43.50 42.85 42.27 41.82 42.24 45.58 46.84 47.94 47.17 45.87 46.12 44.88 36.91 31.55 34.28 37.12 36.06 38.22 40.94 40.92 38.64 39.51 41.14 42.83 45.30 47.48 49.10 51.07 51.03 51.40 52.24 50.39 49.39 49.10 49.98 50.20 50.71 51.55 54.02 56.25 55.86 55.38 54.76 54.80 54.86 55.37 56.85 58.72 59.76 60.13 59.99 59.30 58.35 58.44 59.02 60.16 60.98 58.48 56.19 55.69 56.20 56.61 56.43 57.18 56.40 55.79 55.91 56.50 57.11 57.60 57.86 58.43 58.34 58.62 59.55 59.99 59.42 59.51 59.97 60.77 61.71 62.44 62.39 63.41 63.83 63.86 63.59 64.90 64.88 64.14 64.74 65.14 65.64 67.08 67.77 66.95 67.55 67.93 68.85 69.41 69.43 69.94 70.64 70.29 70.41 71.45 72.55 72.44 72.83 73.28 73.77 74.33 75.32 77.31 76.65 75.63 76.12 76.60 75.58 74.84 73.95 73.63 73.08 72.86 72.93 71.36 69.71 68.69 68.02 67.43 67.05 66.70 66.54 66.50 66.77 67.00 67.10 68.68 70.29 71.26 72.93 73.26 73.45 74.17 73.75 72.18 72.56 72.20 69.18 71.45 72.88 71.86 71.66 70.82 71.40 72.40 72.63 72.88 73.02 73.74 73.98 72.30 71.37 71.68 71.37 72.48 72.90 71.52 70.68 70.50 70.50 70.50 70.50 70.50 70.50 70.50 70.77 71.92 73.24 75.04 75.72 76.85 78.65 78.80 79.58 78.88 77.53 76.16 75.39 75.36 75.68 76.30 77.41 79.44 82.19 84.20 84.75 83.22 81.93 82.90 84.84 85.73 85.10 83.46 82.89 85.01 86.30 87.96 90.32 91.22 90.41 86.52 83.39 82.74 83.17 83.65 84.03 84.80 86.80 89.68 92.71 94.84 96.71 96.65 95.96 97.42 95.19 95.95 97.75 98.33 97.59 97.51 98.25 98.60 97.80 95.73 94.90 93.26 93.56 94.35 94.76 95.85 96.19 97.47 99.50 99.77 99.30 99.26 100.16 100.92 101.61 103.97 106.63 108.36 110.70 112.15 112.31 110.93 111.27 113.11 113.30 112.61 113.81 114.89 113.65 111.78 112.05 110.87 111.97 113.20 109.61
42.54 43.17 42.50 42.37 42.73 44.28 45.16 45.48 45.53 45.69 45.67 45.30 45.12 45.51 45.68 45.77 46.01 46.15 46.37 46.56 46.97 47.29 47.35 47.49 48.00 48.31 48.61 48.69 48.83 49.22 49.49 49.90 50.11 50.34 50.53 50.52 50.71 50.96 50.97 51.02 51.05 51.02 50.94 51.05 51.04 51.13 51.15 50.80 50.84 50.74 50.42 50.34 50.47 50.02 49.48 48.99 48.80 48.44 47.93 47.64 47.59 47.31 47.02 46.84 46.90 46.55 46.34 46.38 46.50 46.34 46.13 45.73 46.10 46.84 46.65 46.23 46.64 46.83 46.16 46.18 45.59 44.70 43.94 43.52 43.89 45.76 44.12 43.18 43.43 43.76 44.03 43.83 43.92 44.09 43.94 43.60 43.81 44.41 44.86 45.88 46.49 46.25 45.64 45.00 46.15 47.16 47.43 47.02 47.20 47.29 47.26 47.46 47.22 47.48 47.85 47.13 47.73 46.39 46.54 46.28 47.28 47.30 46.99 47.16 46.45 46.18 45.56 46.14 44.90 44.24 42.10 41.95 42.64 42.51 42.27 44.34 47.00 46.57 44.94 45.58 43.03 34.41 32.08 35.79 36.55 35.38 37.57 40.92 41.51 39.38 39.54 40.88 42.93 44.75 46.94 48.57 47.83 47.90 50.13 52.31 51.14 50.15 49.73 50.04 50.27 50.55 51.20 52.43 54.61 55.85 56.04 55.83 55.23 55.14 55.28 57.17 59.05 59.74 59.39 59.65 59.44 57.91 56.78 57.18 58.15 59.26 58.44 56.10 55.73 56.20 56.19 55.88 56.36 55.63 55.63 56.51 56.69 56.64 57.90 58.51 58.55 59.00 58.89 59.29 59.24 59.68 60.09 60.64 60.85 61.18 61.90 61.97 62.72 63.78 64.66 63.80 63.98 64.21 63.80 63.76 64.81 65.16 65.60 66.23 66.10 67.79 69.12 69.69 70.24 69.50 69.60 69.21 68.26 69.22 71.33 73.14 73.33 73.42 73.54 73.81 74.53 75.71 77.47 77.06 76.61 76.72 76.76 76.54 75.66 74.73 74.46 73.84 73.69 73.91 72.35 71.79 70.06 68.54 67.88 67.47 67.03 66.88 67.04 67.23 67.42 68.32 71.89 75.26 75.23 75.19 75.04 75.04 75.35 75.16 73.34 72.64 73.51 71.96 72.50 73.21 72.70 72.08 71.86 72.64 73.66 74.74 75.14 74.97 74.90 75.29 74.60 73.43 74.52 74.25 73.83 74.04 72.80 70.81 70.50 70.50 70.50 70.50 70.50 70.50 70.50 70.69 72.06 73.09 74.04 73.62 74.56 76.01 75.90 76.80 76.13 76.89 78.41 77.26 75.69 75.33 75.94 76.83 78.72 81.08 83.11 84.17 82.38 81.21 82.50 83.92 84.60 84.01 82.50 82.14 84.36 86.54 88.72 90.39 89.56 89.58 87.11 83.64 82.61 83.40 83.78 84.12 84.88 86.95 91.57 95.41 95.91 96.19 94.34 93.86 96.02 94.03 93.63 94.51 96.15 95.92 94.84 95.43 96.05 96.70 94.54 92.98 92.88 93.95 94.78 95.97 98.50 97.81 98.08 100.42 102.61 103.17 102.30 102.01 103.23 101.73 102.85 104.57 106.28 108.29 110.43 111.86 110.89 110.49 111.67 111.45 111.51 112.38 114.08 114.48 113.89 114.11 113.49 114.31 115.13 113.97
42.93 43.48 43.29 43.31 42.66 44.18 44.99 45.30 45.60 45.80 45.91 45.71 45.39 45.73 45.96 46.10 46.37 46.66 46.88 46.80 47.01 47.33 47.42 47.43 47.52 48.01 48.39 48.41 48.79 49.19 49.35 49.89 50.14 50.54 50.67 50.73 50.89 51.08 51.14 51.19 51.38 51.14 51.28 51.65 51.78 51.92 51.76 51.61 51.24 50.84 50.39 50.01 50.14 49.70 49.24 48.68 48.39 48.14 47.94 47.73 47.53 47.21 46.91 46.80 46.69 46.58 46.52 46.58 46.61 46.33 46.39 46.28 46.34 47.38 47.36 46.89 46.90 47.19 46.54 45.42 45.24 44.88 44.08 43.75 44.45 45.55 44.59 43.54 43.87 44.33 44.48 44.60 43.98 44.24 44.18 43.97 43.69 44.14 44.64 46.06 46.33 46.25 45.05 44.66 46.23 47.69 48.10 47.89 47.57 47.39 47.76 48.23 47.38 47.31 46.95 47.65 46.65 46.19 46.80 46.55 47.19 46.71 46.81 47.53 46.64 47.28 46.47 46.12 45.63 44.74 43.10 43.84 43.74 44.00 43.37 42.48 43.27 44.16 44.67 45.17 41.62 32.70 32.71 36.06 35.69 35.16 36.83 40.68 41.55 39.74 39.93 40.65 42.86 44.97 46.32 46.89 46.35 48.21 50.17 51.33 51.53 50.59 50.55 50.52 50.46 50.73 51.08 51.31 52.74 54.43 54.98 55.55 55.96 55.30 55.75 57.47 59.61 59.01 57.72 58.25 58.09 56.89 55.76 55.79 56.35 56.60 55.91 55.01 55.96 55.83 55.19 55.55 55.33 55.27 55.98 57.28 57.05 56.70 57.19 57.94 58.34 59.13 59.06 59.17 59.32 60.11 60.65 60.99 61.21 61.35 62.17 62.84 62.97 63.23 64.42 63.64 63.29 63.64 63.20 63.25 64.04 64.33 64.91 65.33 65.00 66.89 68.29 68.51 69.34 69.02 69.11 67.92 68.26 69.36 70.68 73.22 74.30 74.42 74.92 75.28 75.12 75.91 77.71 78.46 79.15 78.70 77.81 76.62 75.91 75.62 75.16 74.53 74.30 74.97 74.47 72.92 71.45 69.82 69.04 68.80 68.11 67.29 67.18 67.22 67.69 68.72 71.60 74.23 74.62 75.62 75.76 75.50 76.03 76.69 74.82 73.23 75.76 74.84 73.46 73.80 73.12 72.40 73.06 73.98 74.64 75.59 76.47 76.52 76.47 76.65 75.46 75.02 75.17 73.99 74.24 73.64 72.94 70.97 70.50 70.50 70.50 70.50 70.50 70.50 70.50 70.52 70.77 71.66 72.37 71.87 71.60 72.97 73.76 74.84 76.05 77.88 80.53 80.85 77.23 75.04 75.60 77.51 80.75 82.63 83.27 82.57 81.44 80.22 81.71 83.89 84.82 83.03 81.31 82.33 84.63 86.43 89.17 89.89 87.53 88.63 88.52 85.82 82.88 84.03 84.22 84.51 84.97 85.86 90.32 92.67 93.12 94.70 92.67 92.10 93.96 92.31 91.36 91.88 93.00 93.04 92.61 92.67 93.31 93.08 92.33 92.08 92.56 93.70 94.89 96.68 100.70 101.40 99.40 100.00 102.08 104.30 104.20 103.67 104.86 103.17 103.44 105.11 105.75 106.67 108.40 109.89 109.97 109.14 109.77 109.87 110.44 111.56 113.30 113.99 113.72 113.66 114.34 114.85 115.02 116.04
43.10 43.72 43.85 43.67 42.74 44.39 44.65 44.06 44.92 45.61 45.99 45.97 45.74 45.86 46.13 46.18 46.32 46.50 46.91 47.25 47.38 47.35 47.46 47.57 47.58 47.79 48.21 48.40 48.84 49.34 49.58 50.05 50.41 50.78 50.97 51.05 51.20 51.21 51.45 51.69 51.86 51.90 51.99 51.96 51.63 51.50 51.30 51.36 51.07 50.47 49.87 49.44 49.38 49.33 48.73 48.44 48.26 47.98 47.86 47.78 47.33 47.24 47.16 47.15 47.00 46.82 46.72 46.73 46.63 46.46 46.64 46.83 46.49 46.36 46.77 47.11 46.67 46.53 45.78 45.02 44.60 44.28 44.03 43.67 43.86 44.43 44.76 44.21 45.09 46.46 44.63 44.81 44.19 44.01 44.18 44.11 44.01 44.30 44.58 45.67 46.29 45.56 45.39 45.52 47.66 48.77 47.75 48.10 47.50 47.16 47.72 48.75 47.30 47.19 48.14 48.94 47.10 47.67 46.29 47.22 46.77 46.69 47.26 47.00 45.88 46.81 46.50 46.23 45.96 45.17 45.14 44.77 44.59 45.00 44.37 43.53 40.76 42.28 43.83 43.82 39.68 32.39 33.91 37.03 35.44 35.04 36.10 40.15 41.29 40.67 40.40 40.68 41.76 43.93 44.87 44.91 46.48 48.01 49.14 50.99 52.18 51.18 50.67 50.67 51.04 51.46 50.85 51.13 52.81 54.54 54.90 54.96 56.79 56.44 55.94 57.25 59.23 58.90 57.43 57.03 56.57 55.23 54.94 55.40 55.66 55.01 54.31 53.90 54.70 55.02 54.84 55.23 55.08 55.57 56.07 56.93 56.75 56.85 57.10 58.03 58.73 59.54 60.01 59.79 60.80 61.70 61.30 61.79 62.00 62.30 62.27 62.43 61.98 61.57 62.30 62.08 62.48 62.88 62.94 63.31 63.68 64.16 64.71 64.82 65.00 66.01 66.49 66.83 67.53 67.51 67.96 68.07 69.08 70.61 71.17 72.80 74.39 75.41 77.05 79.43 76.41 75.70 78.08 79.53 79.69 79.72 79.43 77.41 76.66 76.61 75.96 75.19 74.96 75.33 75.30 73.66 73.34 72.92 72.97 71.29 68.86 67.93 67.71 67.64 67.85 69.27 72.47 73.07 73.93 75.46 73.97 73.11 74.48 77.38 77.01 76.36 76.45 73.29 70.51 72.13 73.35 73.27 74.13 74.72 75.61 76.41 77.35 78.51 78.28 78.14 76.36 76.14 74.71 72.78 71.67 70.85 70.96 70.74 70.50 70.50 70.50 70.50 70.50 70.50 70.50 70.50 70.52 70.57 70.64 70.65 71.23 72.68 75.06 77.22 79.19 80.23 80.38 78.42 76.14 74.98 75.91 79.90 83.63 82.74 82.52 81.11 80.27 79.42 81.31 83.08 84.11 82.34 80.55 82.64 84.84 86.43 87.12 87.84 86.20 85.39 85.40 84.22 82.63 83.34 83.88 84.37 85.00 85.55 87.82 88.31 89.52 91.58 90.37 89.81 89.97 89.25 89.05 89.55 90.05 90.57 90.88 91.04 91.58 92.09 93.23 94.49 94.11 94.69 97.15 97.01 99.94 100.94 102.29 104.37 105.10 103.00 103.69 106.16 106.00 104.36 105.10 106.25 107.57 107.64 108.98 109.38 109.27 107.99 108.08 108.46 108.90 110.14 111.48 112.43 112.74 112.46 112.65 112.48 112.95 114.68
43.48 43.77 43.78 44.00 43.25 43.26 43.21 42.90 44.29 45.72 46.13 46.35 46.25 46.14 45.99 45.90 46.10 46.47 46.62 47.05 47.34 47.35 47.45 47.66 47.94 47.99 48.44 48.68 49.17 49.50 49.90 50.17 50.58 50.75 51.05 51.26 51.57 51.87 52.12 52.30 51.91 51.74 51.97 51.88 51.59 51.52 51.32 51.08 50.78 50.34 49.81 49.50 49.55 49.42 48.70 48.46 48.32 47.96 47.74 47.81 47.46 47.21 47.26 47.21 47.26 47.22 47.02 46.75 46.48 46.31 46.25 46.65 46.28 46.03 46.06 47.06 46.70 45.89 45.28 44.88 44.66 44.36 44.00 43.19 43.35 43.59 43.95 43.71 44.62 45.76 44.91 45.23 45.00 44.23 44.46 43.88 44.45 44.16 44.55 45.60 46.30 45.47 46.47 47.93 49.32 49.65 48.03 47.34 47.57 48.45 48.53 48.03 46.88 47.72 47.83 47.16 47.84 50.18 47.19 47.89 47.37 47.25 47.28 46.78 46.45 46.92 45.87 45.99 45.88 46.23 45.69 45.68 46.23 45.57 44.64 44.22 42.88 40.62 42.04 42.30 37.23 32.02 34.03 36.27 35.13 34.74 35.54 39.52 41.04 41.41 41.35 40.95 41.86 43.41 44.73 45.57 46.56 48.13 49.61 51.59 52.35 51.68 51.03 50.62 51.18 51.77 51.30 51.34 52.67 54.20 55.56 56.17 56.91 57.51 56.17 56.67 58.60 57.00 55.28 55.29 55.04 54.49 54.58 54.82 55.53 54.24 53.51 53.37 54.03 55.71 57.67 58.13 56.99 55.96 56.05 56.77 56.60 56.91 57.38 58.01 59.93 60.09 59.90 60.48 63.00 63.44 61.17 60.78 61.91 62.09 62.39 62.03 60.97 61.03 61.81 62.66 62.83 62.47 62.87 63.50 63.94 63.88 64.37 64.60 65.20 66.93 67.54 66.58 67.10 68.45 69.27 69.99 71.56 72.80 73.61 74.32 75.00 75.89 75.51 75.69 76.16 76.37 78.19 79.18 79.45 79.65 80.46 78.72 77.54 76.94 76.44 75.34 74.99 75.41 76.26 74.52 74.36 74.65 74.62 71.02 68.90 68.68 68.19 67.97 68.30 70.74 74.71 76.00 75.96 74.10 72.36 72.34 73.41 76.42 77.33 78.61 77.23 71.28 68.01 70.33 73.54 73.81 75.02 76.61 77.20 78.36 78.48 79.66 79.92 79.00 77.38 76.57 74.51 72.92 71.20 70.51 70.50 70.55 71.09 70.76 70.50 70.50 70.50 70.50 70.50 70.50 70.50 70.51 70.87 71.96 73.81 75.45 75.77 78.60 80.63 82.24 81.29 77.99 76.03 74.84 75.46 80.05 83.31 81.57 81.30 80.39 79.04 78.36 79.98 81.42 82.12 80.80 80.42 82.49 84.94 85.82 85.28 84.87 84.70 82.96 82.24 82.44 82.99 83.44 84.27 84.83 84.86 85.00 85.51 85.70 86.81 87.87 87.81 88.24 88.72 90.06 90.51 90.80 90.57 91.72 92.57 92.42 92.99 94.60 95.11 96.81 95.86 96.37 99.12 99.97 99.19 99.15 103.64 106.68 104.27 101.11 102.68 106.05 106.84 106.09 107.76 107.73 108.78 107.93 108.54 107.86 108.64 107.45 106.61 106.61 107.50 108.78 109.82 110.55 110.39 110.07 110.20 110.88 111.75 113.73
43.93 43.98 44.29 44.91 44.66 43.76 43.47 43.66 43.60 45.14 45.86 46.12 46.40 46.32 46.23 46.19 46.29 46.44 46.56 46.78 46.95 47.16 47.20 47.65 47.92 48.25 48.85 49.10 49.38 49.60 50.03 50.39 50.74 50.91 51.14 51.46 52.01 52.26 52.15 51.99 51.98 52.04 52.23 52.31 52.03 51.79 51.52 51.17 50.89 50.55 50.16 49.81 49.68 49.36 48.82 48.52 48.47 48.31 48.08 48.03 47.80 47.34 47.21 47.17 47.27 47.15 46.98 46.67 46.44 46.23 46.41 46.82 46.72 46.32 46.31 47.23 46.50 45.84 45.41 44.78 44.71 45.05 43.03 42.58 43.70 43.58 43.66 43.34 43.74 44.77 44.69 44.93 44.80 44.53 45.77 44.24 44.21 44.58 44.96 46.05 46.76 46.48 47.43 48.48 49.39 49.69 48.66 47.66 47.86 49.88 49.53 48.11 47.57 48.85 47.40 47.75 48.04 49.18 47.35 46.52 47.00 46.52 47.29 47.06 46.68 46.40 45.90 46.09 46.33 46.46 46.26 46.14 46.60 46.54 45.45 44.11 43.32 41.33 42.74 42.03 35.17 31.87 34.22 34.63 34.37 34.34 34.95 38.48 40.58 41.30 41.59 41.21 42.14 43.62 45.03 45.82 46.39 47.89 49.07 51.06 51.74 51.50 51.41 50.93 51.09 51.19 50.96 51.37 52.57 53.89 55.19 55.87 56.38 56.61 56.13 55.50 56.63 54.90 54.77 55.27 55.01 54.36 54.01 54.04 54.30 53.39 53.11 53.51 54.12 55.05 58.09 59.70 58.42 56.22 56.81 57.10 56.83 57.54 58.19 58.59 60.83 60.81 60.41 60.50 61.97 62.33 61.76 60.95 62.12 61.75 62.15 61.67 61.65 61.96 62.67 63.08 62.43 62.26 62.66 63.22 63.88 63.93 64.05 64.51 65.14 67.27 68.89 67.78 67.29 68.36 69.08 70.53 71.78 73.37 74.41 74.34 74.96 75.16 74.01 72.79 75.27 77.00 78.27 79.02 79.51 79.94 81.66 79.91 78.52 77.82 76.70 75.43 75.13 75.16 75.66 75.54 75.07 74.70 73.34 70.41 69.22 69.17 68.75 68.26 68.40 69.75 74.76 77.74 73.32 71.53 72.01 72.44 72.97 75.39 76.83 79.18 79.44 75.19 72.25 73.57 73.99 74.10 75.47 77.72 79.01 80.16 79.68 81.01 81.39 80.24 78.16 76.25 75.72 73.96 71.69 70.60 70.56 71.10 72.63 71.12 70.52 70.50 70.50 70.50 70.50 70.50 70.50 70.65 72.03 73.69 74.76 76.31 76.21 76.78 79.68 82.26 83.01 81.05 77.34 74.31 74.79 78.64 82.72 80.22 79.78 79.59 78.69 78.43 79.02 79.72 80.27 79.47 80.24 82.24 83.62 83.56 83.62 82.79 82.63 81.97 81.71 81.37 82.27 82.94 83.89 84.17 84.43 85.35 86.34 86.82 87.40 88.48 89.51 90.82 91.22 92.90 93.72 94.29 94.16 96.06 96.30 95.10 94.97 97.30 97.78 99.45 97.92 98.90 101.35 103.28 102.71 99.64 101.11 102.50 100.55 100.48 101.96 104.59 106.52 107.68 108.93 109.17 107.64 106.26 105.72 105.46 107.00 106.77 105.60 105.42 106.90 109.02 109.74 110.03 108.76 108.44 109.02 110.02 111.04 112.90
43.60 44.08 44.65 45.53 45.30 45.25 44.51 44.79 43.64 43.47 44.01 45.07 46.16 46.30 46.32 46.38 46.51 46.55 46.60 46.78 46.85 47.04 47.24 47.60 47.92 48.33 48.80 49.09 49.38 49.63 50.03 50.48 50.79 50.92 51.39 51.69 51.87 51.98 52.14 52.21 52.38 52.45 52.69 52.75 52.53 52.15 51.76 51.26 50.99 50.88 50.55 50.21 49.79 49.49 49.47 48.97 48.85 48.63 48.49 48.27 47.97 47.83 47.47 47.44 47.29 47.00 46.94 46.64 46.51 46.53 46.45 46.64 47.37 47.05 46.90 48.11 46.92 46.08 45.59 44.87 44.82 45.14 42.69 42.90 43.96 44.04 44.01 43.76 43.79 44.40 45.61 45.93 45.48 44.60 45.58 44.20 44.89 47.22 48.00 47.86 47.29 47.98 47.55 48.31 48.78 49.12 49.02 48.68 49.74 48.92 47.35 47.15 47.92 47.08 47.57 47.71 47.66 47.24 46.97 46.46 47.48 48.81 48.85 46.89 46.26 45.75 45.85 45.92 46.42 46.69 46.85 46.17 46.47 46.60 45.70 43.27 41.22 42.12 44.37 42.04 33.09 31.79 34.27 34.41 34.33 34.38 34.83 37.30 39.70 40.85 41.66 41.63 42.14 43.39 44.68 45.70 46.12 47.21 48.62 50.67 51.54 51.92 51.66 50.33 50.25 50.30 50.60 51.19 52.54 52.96 54.01 55.23 56.07 56.83 56.67 55.85 54.92 54.53 54.52 54.72 54.28 53.71 53.52 53.18 53.46 53.78 53.61 53.81 54.12 54.44 55.13 56.51 57.45 56.73 56.88 56.82 57.21 58.15 58.27 58.85 60.01 60.89 61.29 62.01 61.90 62.21 61.93 61.16 61.08 61.16 61.66 61.18 61.13 61.55 62.01 62.30 61.82 62.18 62.42 63.02 63.75 64.28 63.88 64.69 65.20 67.05 69.45 68.37 68.25 67.92 68.08 68.92 70.16 72.49 72.78 73.25 74.54 73.83 72.53 72.01 74.03 75.81 77.53 78.80 79.40 80.33 82.03 80.54 79.16 78.83 77.32 75.95 75.62 75.42 75.50 76.12 75.60 74.07 71.83 70.21 69.69 69.62 69.09 68.62 68.68 69.39 72.25 74.70 71.37 71.46 72.00 72.53 73.05 74.37 75.78 79.79 80.50 78.81 77.88 75.78 74.56 75.23 76.26 77.49 80.02 81.71 81.30 82.48 82.24 80.66 78.03 76.82 76.98 75.82 72.81 71.22 71.18 71.70 73.36 73.04 71.34 70.53 70.50 70.50 70.50 70.50 70.50 70.56 71.36 73.05 74.25 76.20 77.62 75.73 77.74 80.21 81.73 80.08 75.47 73.65 75.05 80.01 81.72 78.90 77.89 77.74 77.54 78.32 78.28 78.21 78.77 78.79 79.35 80.59 81.16 81.35 81.42 81.04 80.54 80.22 80.40 81.16 82.97 82.99 83.96 85.89 86.85 86.88 86.82 87.82 88.87 89.67 91.15 93.15 93.52 94.44 96.11 96.68 96.23 97.77 98.65 96.88 97.71 99.93 100.79 101.65 99.65 99.85 102.36 104.26 104.11 101.43 100.59 99.00 99.47 100.50 102.20 104.88 106.23 107.55 108.66 109.20 105.98 104.05 103.16 103.26 104.45 105.24 104.81 104.86 106.27 108.25 108.55 108.56 107.44 108.20 110.10 111.60 112.40 112.72
42.21 42.97 43.92 45.21 45.60 45.68 45.12 44.90 45.01 43.97 43.39 44.64 46.00 46.22 46.33 46.45 46.52 46.80 46.87 46.89 46.67 46.98 47.30 47.55 47.90 48.31 48.63 48.91 49.25 49.72 50.20 50.62 50.77 51.13 51.47 51.56 51.83 51.94 52.22 52.47 52.81 52.85 53.03 53.17 52.93 52.62 52.21 51.62 51.36 51.09 50.64 50.36 50.27 50.29 50.16 49.66 49.40 48.92 48.52 48.39 47.94 47.77 47.49 47.25 47.12 46.90 46.81 46.72 46.58 46.67 46.46 46.51 47.02 46.97 47.65 48.73 47.69 46.87 46.08 45.42 45.06 44.85 42.46 42.88 44.36 44.68 44.57 44.11 43.85 44.32 46.84 47.09 45.65 44.65 44.89 44.06 46.03 47.94 48.90 48.72 47.77 48.11 48.07 48.47 48.56 48.82 48.87 48.05 47.87 47.31 46.83 47.28 47.93 48.90 48.99 47.91 47.75 47.50 47.50 46.93 47.41 47.69 47.79 45.92 45.24 45.08 45.50 45.89 46.46 46.45 46.24 46.32 46.75 46.43 45.67 42.79 41.58 43.23 44.85 39.97 32.11 31.69 33.70 34.17 34.35 34.51 34.68 34.82 37.86 39.96 41.52 42.21 42.72 44.15 45.05 45.11 45.88 47.32 49.14 50.55 51.59 51.61 50.67 50.40 50.27 50.11 50.33 50.86 52.71 53.80 53.87 56.05 56.81 57.51 56.82 55.31 54.63 54.33 54.50 54.00 53.49 53.48 53.62 53.58 53.56 53.71 53.54 53.65 55.40 56.20 55.02 54.64 55.14 55.01 55.46 56.47 57.33 58.99 58.90 59.98 60.92 61.84 62.05 62.39 61.77 61.87 62.27 62.04 60.93 61.12 60.48 60.95 60.52 60.68 61.20 61.16 61.77 62.95 62.61 62.85 63.60 64.79 64.03 64.37 65.14 66.95 68.46 68.66 69.04 68.38 68.94 69.39 69.79 72.36 71.34 71.58 72.44 72.38 71.45 71.53 72.74 74.51 76.53 78.39 79.35 80.25 80.68 80.17 79.04 78.97 78.94 77.12 76.13 75.62 75.59 76.53 76.87 74.49 71.59 70.48 69.77 69.33 69.20 69.33 69.30 69.44 70.18 70.89 71.43 72.29 72.31 72.54 72.92 73.55 75.22 78.95 78.95 78.04 76.64 75.03 75.35 76.36 77.66 79.26 80.37 82.41 83.15 83.60 83.22 81.50 78.77 78.30 78.13 77.75 74.91 72.66 72.15 71.35 71.01 72.23 72.42 70.65 70.50 70.50 70.50 70.50 70.50 70.51 70.65 71.49 73.47 75.73 77.32 75.42 74.55 76.31 78.79 76.50 73.40 74.30 78.46 81.95 79.22 77.24 75.93 75.99 76.97 77.28 77.46 78.61 78.83 78.75 78.97 79.70 79.51 79.82 79.88 80.06 80.10 81.01 83.63 84.41 84.98 83.79 84.47 87.91 88.91 88.33 87.53 88.75 90.38 91.79 91.84 93.85 95.14 95.84 97.09 97.05 97.23 98.53 99.97 99.14 99.10 99.92 101.18 102.54 101.86 100.97 102.49 104.60 103.88 102.45 101.68 99.08 99.69 101.34 102.80 104.18 105.63 106.82 108.25 109.52 106.66 102.34 101.74 101.95 103.69 105.27 104.03 104.31 105.70 107.53 107.49 106.52 106.71 108.31 110.68 112.97 115.42 115.51
42.56 42.26 43.49 44.11 45.55 45.88 45.74 45.19 45.73 45.40 45.07 44.11 45.16 44.62 44.56 45.30 46.41 46.95 47.01 46.66 46.30 46.72 47.20 47.66 47.95 48.49 48.86 49.06 49.36 49.67 50.13 50.53 50.79 51.10 51.42 51.68 52.04 52.16 52.42 52.80 53.19 53.39 53.37 53.49 53.27 52.88 52.48 52.02 51.90 51.27 50.83 50.52 50.73 50.71 50.36 50.09 49.69 49.18 48.72 48.45 47.90 47.50 47.32 47.09 47.09 46.90 46.80 46.79 46.66 46.56 46.59 46.62 46.62 46.74 47.37 47.99 47.26 46.57 46.33 46.23 45.85 45.39 42.92 43.01 45.10 45.38 44.96 44.48 43.85 44.57 46.25 46.85 44.84 44.72 44.79 44.13 47.05 48.93 48.77 48.78 48.26 48.41 47.75 47.58 48.31 48.93 49.17 47.93 47.65 48.50 48.61 47.80 48.08 49.54 49.01 48.42 47.62 47.95 48.25 47.59 47.77 46.92 47.26 47.12 47.31 46.59 45.28 45.37 46.19 46.54 46.40 46.31 46.46 45.67 44.32 42.59 42.50 43.87 44.63 38.12 31.69 31.55 32.83 34.35 34.66 34.74 34.79 34.90 35.90 37.89 40.42 42.24 42.86 43.72 43.85 44.47 45.12 46.83 48.72 50.26 51.80 51.37 51.02 50.86 50.61 50.21 50.51 51.44 52.65 53.36 54.32 56.25 56.97 57.35 56.66 54.72 54.00 54.10 53.33 53.08 53.16 52.73 52.76 52.97 54.41 53.59 53.44 53.26 53.88 56.91 56.52 54.85 55.14 54.33 54.44 55.49 57.12 59.59 60.24 61.57 62.14 62.73 62.63 62.62 62.39 62.48 62.09 61.57 61.05 61.04 61.02 61.77 61.19 60.29 60.27 60.33 62.02 63.15 63.86 63.00 63.46 65.60 64.70 64.55 65.57 67.17 69.16 69.52 69.76 69.44 70.13 71.56 71.67 72.85 71.55 71.09 71.08 71.28 71.34 71.63 72.17 73.36 75.39 77.74 79.21 79.93 80.53 79.96 79.41 79.09 79.62 78.43 77.25 76.25 76.19 76.63 76.58 74.29 71.81 70.89 70.19 69.62 69.56 69.94 69.86 69.82 70.18 70.82 71.29 71.90 72.46 72.85 73.15 73.74 74.23 75.45 76.47 76.67 76.46 75.52 76.22 77.39 79.39 81.20 81.80 82.66 84.61 84.77 83.78 81.62 79.63 79.49 79.67 78.38 75.55 73.72 73.65 71.90 70.67 70.63 71.08 70.58 70.50 70.50 70.50 70.50 70.50 70.50 70.50 71.02 73.36 75.14 76.14 75.45 73.35 73.67 74.04 73.43 74.28 78.59 82.90 80.84 76.79 75.87 75.67 76.32 77.83 78.05 78.25 78.77 79.24 79.00 79.70 80.60 80.57 80.23 80.60 81.62 81.52 82.36 83.24 84.41 85.66 84.12 84.58 87.10 88.77 88.88 88.82 89.12 90.06 92.71 93.58 94.87 96.98 97.09 95.84 94.73 95.21 97.34 98.90 98.81 97.95 98.28 99.78 101.84 103.14 103.07 103.16 104.62 104.29 101.21 99.91 99.34 100.10 101.65 103.14 104.08 104.63 106.17 107.83 108.87 107.61 102.52 101.00 101.72 104.38 105.37 103.36 103.36 105.16 106.74 107.17 106.36 107.22 108.98 110.22 111.94 114.86 116.34
42.85 42.70 43.94 44.04 45.54 45.88 45.82 45.50 45.98 46.13 46.18 45.46 44.36 43.93 44.62 44.02 44.73 46.21 46.41 45.96 46.29 46.88 47.24 47.60 47.89 48.68 49.26 49.25 49.53 49.84 50.54 50.67 50.74 51.12 51.60 51.74 51.97 52.21 52.50 52.81 53.29 53.82 53.76 53.81 53.61 53.20 52.67 52.39 52.07 51.39 50.99 50.89 51.14 51.24 50.55 50.16 49.68 49.10 48.73 48.40 48.02 47.52 47.50 47.40 47.18 47.02 46.86 46.88 46.79 46.63 47.01 47.24 46.72 46.57 46.63 47.06 46.51 46.68 47.27 47.35 46.41 45.92 44.50 44.01 45.37 45.31 44.88 44.87 44.50 44.70 44.89 45.02 45.05 44.77 44.42 43.81 46.03 48.30 48.89 48.33 47.48 48.04 47.18 47.18 48.11 48.53 48.93 48.92 48.51 48.11 48.07 47.46 47.57 49.51 48.43 48.06 48.03 47.47 47.65 46.82 45.90 46.02 48.81 49.02 48.06 48.23 46.49 44.59 45.04 45.79 46.56 46.34 45.16 43.34 42.95 42.68 43.96 44.22 44.46 39.14 31.74 31.50 31.91 34.07 34.97 35.12 35.03 34.92 35.33 35.75 38.05 41.02 42.11 43.23 43.76 43.97 44.45 45.72 47.35 49.48 50.85 51.05 51.48 51.35 50.55 50.76 52.25 53.51 53.63 54.13 54.68 55.76 56.53 56.65 56.12 54.73 53.72 53.23 52.54 50.97 51.74 52.24 52.85 52.73 53.68 53.68 53.53 53.25 53.66 55.70 56.66 55.75 54.82 54.59 54.77 54.67 55.45 58.77 60.99 61.62 61.85 62.81 62.74 62.90 62.81 63.12 62.34 60.94 60.92 61.05 61.36 61.24 60.32 60.06 60.08 60.20 60.79 61.70 62.13 62.17 63.10 64.62 64.67 64.99 65.96 67.38 69.30 70.47 70.68 70.83 70.88 72.04 73.27 73.93 73.25 72.19 71.38 71.60 72.00 72.57 73.22 73.57 74.31 76.55 78.51 78.90 80.21 80.57 80.63 80.67 80.29 79.33 78.30 77.52 76.40 75.55 75.27 73.97 74.28 72.79 70.95 70.57 70.99 70.37 70.37 70.39 70.61 71.47 72.19 72.69 73.25 73.67 74.06 74.83 75.14 76.08 77.20 77.50 76.88 76.01 76.94 78.20 80.37 82.89 83.96 83.73 85.48 85.64 84.07 81.92 81.74 81.16 80.35 78.57 75.42 74.85 75.85 73.53 70.85 70.50 70.51 70.50 70.50 70.50 70.50 70.50 70.50 70.50 70.50 70.59 72.23 73.83 75.30 76.16 73.80 71.93 72.16 73.29 76.79 82.39 83.27 78.45 74.86 76.24 77.45 78.41 78.63 78.88 79.25 79.37 79.74 80.09 80.97 81.15 80.97 81.65 82.33 82.40 82.64 83.00 83.91 83.23 83.40 83.78 84.39 86.13 88.46 89.76 90.46 90.76 90.35 91.72 93.63 95.76 97.47 96.76 94.48 93.20 93.58 95.17 95.90 95.99 97.04 98.34 99.62 101.22 102.95 104.37 104.64 104.98 104.17 101.92 99.46 99.20 99.69 100.86 102.48 103.69 104.14 105.28 106.68 106.47 106.10 102.64 100.38 102.22 104.65 104.11 102.37 102.40 103.69 104.71 104.62 105.73 108.37 110.89 112.55 113.11 114.18 115.93
42.44 42.86 43.67 44.16 45.14 45.68 45.95 45.85 46.15 46.33 46.43 46.59 46.23 45.65 46.14 45.82 44.45 44.53 45.29 45.60 46.16 46.82 47.34 47.69 48.09 48.72 49.28 49.39 49.70 49.94 50.29 50.52 50.70 51.22 51.72 51.88 52.07 52.29 52.53 52.93 53.39 53.81 54.14 54.07 53.80 53.47 53.05 52.73 52.33 51.98 51.78 51.55 51.74 51.48 50.72 50.18 49.51 49.00 48.65 48.38 48.29 47.92 47.69 47.42 47.23 46.93 46.83 46.86 47.08 47.25 47.63 47.80 47.14 46.78 46.46 46.46 46.48 46.70 47.36 47.89 47.48 45.96 45.28 44.56 45.47 45.25 45.22 45.31 45.22 45.12 45.24 45.08 45.27 45.10 44.99 44.17 46.82 47.75 47.21 46.93 48.10 47.87 47.94 48.77 49.11 48.16 49.10 48.28 47.36 47.26 47.60 48.40 48.37 50.59 48.72 48.34 49.54 48.64 48.21 46.80 45.24 46.05 49.18 49.37 48.02 46.95 45.19 44.37 44.34 45.64 46.34 46.12 44.01 43.11 44.15 44.58 44.50 44.89 44.87 42.39 35.09 31.64 31.62 33.21 34.52 35.19 35.40 34.53 35.12 35.28 36.28 39.14 41.61 42.80 43.40 43.46 44.18 45.52 47.64 48.94 49.66 50.69 50.93 50.99 50.64 51.02 51.89 52.65 52.83 53.63 54.68 55.65 56.32 56.13 55.45 54.28 53.93 53.24 52.09 49.88 49.37 51.30 52.89 52.99 53.07 53.74 54.07 54.89 55.28 54.24 55.01 57.32 58.34 57.95 53.97 53.86 54.81 57.27 60.50 60.28 59.89 62.35 62.35 63.15 63.30 63.21 62.19 60.57 60.69 60.74 61.22 60.55 59.79 60.22 60.07 60.34 60.51 61.01 61.43 62.02 62.88 64.21 64.62 65.18 66.40 67.60 68.88 70.38 71.27 71.82 71.84 72.10 73.52 74.64 74.28 72.88 72.48 72.51 72.87 73.37 74.08 74.24 74.13 75.58 78.61 78.63 79.84 81.17 82.03 83.32 81.20 80.32 79.56 78.16 76.61 75.40 74.78 74.47 75.65 75.06 72.47 71.02 70.42 70.40 70.70 70.92 71.21 73.03 74.72 75.04 74.97 74.84 75.50 76.74 77.52 80.34 80.95 79.23 77.28 76.67 77.35 78.62 80.42 83.16 85.17 85.38 86.09 85.72 83.95 83.65 83.90 82.48 79.71 77.84 75.65 77.08 77.82 75.01 71.67 70.66 70.52 70.50 70.50 70.50 70.50 70.50 70.50 70.50 70.50 70.50 71.00 73.35 74.90 76.12 74.03 70.89 71.42 74.48 79.89 82.93 83.23 79.02 75.24 78.00 79.29 80.19 80.29 80.36 81.26 81.64 81.67 82.21 82.55 81.84 82.09 83.03 84.20 83.50 83.78 84.27 86.03 84.31 83.41 84.06 84.82 86.01 89.48 90.87 91.99 92.64 91.97 92.61 93.48 96.06 97.07 95.39 93.19 92.38 92.30 92.78 93.33 93.89 96.37 99.33 100.69 100.80 101.79 103.27 104.00 104.97 102.92 100.81 99.08 99.06 99.46 100.89 103.55 103.93 103.48 104.31 104.13 103.23 102.30 100.63 99.73 100.56 102.13 102.75 102.59 101.30 101.87 102.47 103.75 106.31 107.94 110.13 112.08 113.64 115.64 116.79
42.12 43.13 44.12 44.43 44.73 45.46 46.06 45.93 46.32 46.55 46.77 46.77 46.87 46.85 46.67 46.12 44.96 45.34 46.48 46.50 46.37 46.76 47.28 47.76 48.24 48.55 48.78 49.10 49.35 49.69 50.10 50.48 50.90 51.28 51.69 51.94 52.09 52.18 52.52 52.93 53.32 53.71 54.07 54.13 54.04 53.74 53.40 53.04 52.78 52.88 53.01 52.83 52.42 51.37 50.88 50.18 49.50 49.00 48.66 48.20 48.41 48.02 47.82 47.62 47.30 46.93 46.97 47.03 47.09 48.15 48.50 47.66 47.35 47.01 46.72 47.29 48.00 47.77 47.64 47.54 47.31 45.84 45.26 45.36 46.45 45.90 45.56 45.89 46.54 45.98 45.99 45.21 45.80 45.65 45.56 46.02 47.41 47.57 47.73 47.67 49.04 48.85 48.45 48.60 49.60 49.06 50.17 49.80 48.13 47.69 48.18 48.65 48.43 48.05 48.18 48.24 49.08 49.27 49.17 47.89 46.20 47.02 49.81 48.61 46.01 45.69 45.22 44.30 44.12 44.71 45.72 45.17 42.94 43.67 44.74 45.83 45.51 45.43 45.34 45.39 40.87 32.81 31.51 31.97 33.71 34.60 35.21 34.85 35.13 35.77 36.67 38.28 40.67 41.71 42.05 42.22 45.46 49.46 51.53 50.40 49.91 50.62 50.07 50.06 50.83 50.22 50.39 51.65 52.54 53.41 54.62 55.59 56.13 55.80 55.24 54.16 53.69 53.42 52.94 51.20 49.77 50.42 51.57 52.81 53.18 53.67 54.33 55.23 54.71 55.38 54.17 56.23 57.85 55.04 53.35 53.73 54.67 55.75 56.61 57.24 57.93 59.87 62.00 63.65 63.91 63.44 62.16 60.35 59.21 59.59 60.84 60.41 60.23 60.49 60.37 60.53 60.54 61.07 61.68 62.84 63.56 64.28 64.64 65.24 66.51 68.04 69.16 70.20 70.87 71.49 72.30 72.53 73.17 74.43 74.39 74.14 74.18 74.08 73.88 74.08 74.41 74.74 75.36 75.88 78.00 79.13 79.26 81.27 82.48 82.51 82.16 81.06 80.22 78.57 77.93 76.87 75.00 74.92 77.08 78.07 75.60 72.24 70.95 70.87 71.26 71.68 72.22 75.50 78.78 78.75 77.23 77.63 77.99 78.88 80.88 82.79 82.11 79.08 77.98 77.67 78.57 79.19 80.41 82.99 85.21 86.62 87.08 86.71 85.71 84.99 83.19 81.53 79.66 76.85 77.06 79.16 79.44 76.14 73.82 71.70 70.70 70.50 70.50 70.50 70.50 70.50 70.50 70.50 70.50 70.50 70.55 71.69 73.90 74.88 72.77 70.74 71.71 74.17 77.95 79.69 81.01 77.83 75.03 77.20 78.79 79.52 80.37 81.63 83.05 83.61 83.17 83.82 84.09 83.03 83.42 84.24 85.72 85.35 85.23 85.41 86.71 86.21 84.08 84.80 87.10 87.82 90.27 92.35 92.79 94.09 94.26 94.24 95.00 96.45 96.73 95.94 92.85 91.66 91.40 91.83 92.38 92.95 95.56 98.86 99.67 99.84 100.89 101.68 102.42 103.48 100.81 98.95 98.17 98.74 99.94 102.25 103.80 102.80 102.47 103.76 102.66 101.13 99.94 99.15 99.21 99.34 100.08 101.23 101.43 101.32 102.27 103.25 104.61 105.37 106.73 109.84 111.93 113.74 115.28 115.68
42.34 44.27 45.13 45.21 45.36 45.78 46.06 46.03 46.42 46.84 47.14 47.19 47.12 47.15 47.08 46.68 45.25 45.39 46.71 46.82 46.82 47.00 47.35 47.66 48.03 48.22 48.41 48.74 49.23 49.69 50.04 50.48 50.93 51.27 51.60 51.78 52.12 52.40 52.62 52.92 53.31 53.55 53.95 54.07 54.14 53.98 53.80 53.55 53.43 53.39 53.26 53.03 52.43 51.37 50.74 50.05 49.66 49.19 48.77 48.33 48.07 47.90 47.89 47.66 47.39 47.06 47.07 47.13 47.34 48.15 48.17 47.31 47.12 47.01 46.99 47.74 48.31 48.37 47.96 47.26 46.49 45.92 44.49 45.53 45.89 45.81 46.09 46.75 46.37 46.22 47.20 46.15 45.55 46.09 46.65 46.31 47.45 47.85 48.19 47.85 48.82 49.15 48.75 49.36 50.04 50.20 49.69 48.76 49.55 49.61 48.80 49.26 49.37 48.19 48.62 49.36 49.08 48.91 48.33 48.67 48.94 48.34 48.68 47.75 45.76 45.47 45.21 44.91 44.77 44.67 44.78 43.67 43.47 44.45 45.09 46.23 46.28 46.44 45.27 44.05 42.79 36.93 32.12 31.55 32.46 33.88 34.59 35.18 35.24 35.68 36.10 37.46 38.97 41.76 42.82 42.18 44.34 48.48 52.00 51.31 49.68 50.31 49.98 50.73 50.82 49.53 50.13 51.35 52.33 52.87 53.44 54.80 55.33 55.10 54.77 54.04 53.72 53.36 53.33 52.40 50.75 51.98 52.13 52.52 53.59 54.11 54.65 55.48 55.88 54.22 52.40 52.98 53.00 52.53 52.81 53.20 54.13 55.12 55.96 56.75 57.51 58.14 60.38 63.04 63.55 62.42 61.04 58.40 57.44 58.29 58.99 60.31 60.58 61.06 61.54 60.91 60.89 61.53 62.13 63.08 63.80 64.72 65.28 65.43 66.88 68.09 69.18 69.70 69.73 70.48 71.75 72.79 73.35 73.72 74.62 75.90 76.26 76.49 76.35 76.06 75.70 76.82 78.58 79.43 78.91 78.70 78.64 79.83 80.96 81.34 82.66 81.67 80.05 78.08 78.15 78.41 75.92 75.25 75.96 77.87 77.89 74.99 73.07 71.92 71.78 72.23 73.92 76.61 81.39 81.97 80.32 81.12 81.65 81.37 83.69 83.45 81.03 78.98 78.85 78.50 80.55 81.01 81.47 82.94 85.34 87.38 88.00 87.63 86.53 85.22 84.22 83.18 81.01 77.67 79.07 81.12 80.86 77.37 74.34 72.40 70.66 70.50 70.50 70.50 70.50 70.50 70.50 70.50 70.51 70.55 70.50 70.66 72.34 72.48 70.84 71.24 71.31 71.68 72.54 73.61 74.29 74.56 74.97 75.79 76.78 78.08 79.92 81.78 83.71 84.77 84.78 85.50 85.98 84.26 84.85 84.97 86.74 87.10 86.63 86.86 87.13 87.87 85.43 86.00 89.33 89.82 90.03 91.75 93.39 95.23 96.11 95.95 96.45 97.10 97.44 95.73 92.54 91.34 90.82 91.12 91.79 92.74 95.39 97.49 98.93 99.12 100.01 100.36 99.86 99.90 98.40 97.89 98.03 98.96 101.00 102.71 102.33 101.65 101.99 103.52 102.30 100.10 98.84 98.38 98.59 98.88 99.20 99.79 100.65 101.91 103.13 104.95 107.41 108.15 107.33 108.96 111.30 113.95 114.47 113.66
42.53 44.60 45.67 45.78 46.04 46.05 46.11 46.26 46.68 47.13 47.43 47.51 47.54 47.53 47.46 47.40 46.43 45.15 45.70 46.47 46.57 46.66 47.03 47.30 47.54 47.94 48.67 48.95 49.47 49.82 50.09 50.43 50.90 51.12 51.33 51.65 52.00 52.30 52.58 52.89 53.20 53.41 53.59 53.91 54.03 54.01 54.00 53.86 53.74 53.40 52.95 52.58 52.26 51.55 50.64 50.02 49.67 49.21 48.87 48.62 48.30 48.07 48.05 47.73 47.46 47.22 47.37 47.46 47.49 47.99 48.33 47.67 47.51 47.25 47.48 48.03 47.72 48.05 48.32 46.99 46.41 46.21 44.89 44.80 45.50 45.70 46.28 47.67 47.24 46.70 47.65 47.22 46.43 46.43 46.13 45.83 47.10 48.25 48.32 48.77 48.59 49.31 48.95 49.58 49.30 49.73 48.59 49.15 49.34 49.70 48.63 48.87 48.39 47.96 49.93 50.32 49.38 50.04 48.11 49.18 48.51 46.41 46.63 46.65 46.35 45.13 44.59 45.05 45.80 45.10 44.03 43.43 44.51 44.77 45.45 46.15 46.29 46.58 46.14 45.20 44.19 42.44 35.52 31.68 31.66 32.50 33.49 34.48 35.51 35.99 35.63 37.10 37.59 40.14 43.26 42.96 44.60 48.47 49.60 48.75 47.55 48.58 47.75 49.84 50.97 50.69 50.85 51.40 51.76 52.26 53.15 54.15 54.34 54.62 54.24 53.48 53.45 53.30 53.59 53.11 50.96 52.53 53.65 53.75 53.57 53.84 54.42 53.55 53.33 52.97 51.85 51.50 51.82 52.36 52.77 53.06 53.52 54.17 54.85 55.34 56.10 57.03 58.36 59.43 59.41 58.58 58.50 57.64 57.86 58.12 58.38 59.34 60.63 61.16 61.37 60.49 60.88 61.43 61.98 63.10 63.64 64.45 65.18 66.03 66.94 67.30 69.08 69.11 68.69 69.50 71.38 73.22 73.77 74.63 75.09 75.79 76.94 77.76 77.59 77.83 77.79 77.22 77.77 78.88 79.30 79.22 79.22 78.47 80.09 81.21 81.64 82.00 80.72 78.23 77.54 77.42 76.72 76.01 75.68 77.14 78.85 77.16 75.01 73.28 72.81 73.11 74.57 78.10 83.09 84.41 83.10 83.36 83.88 83.80 84.61 81.76 79.82 80.20 80.19 79.84 81.66 82.53 82.55 83.87 85.78 87.90 89.02 88.35 87.44 86.78 85.48 83.32 80.16 78.46 79.92 82.84 81.54 77.72 75.47 74.92 71.28 70.50 70.50 70.50 70.50 70.50 70.50 70.52 70.54 70.60 70.50 70.50 70.54 70.54 71.06 72.61 71.98 71.91 71.98 72.55 73.47 74.75 76.64 77.44 77.55 78.06 79.93 81.08 82.54 84.36 85.92 86.71 87.35 85.87 86.45 86.64 88.06 88.56 88.29 88.73 88.59 89.31 86.92 87.38 89.96 91.06 91.08 92.38 94.15 95.61 96.86 96.96 96.87 97.09 96.64 95.81 92.88 91.08 90.19 90.42 91.69 93.00 95.74 97.77 99.23 98.62 98.64 98.63 97.51 97.05 97.23 97.26 98.35 99.89 100.84 101.39 100.99 101.47 102.94 103.70 101.88 99.15 97.46 97.55 97.97 98.60 99.21 99.69 100.63 101.81 103.30 105.97 108.12 110.41 109.91 109.20 111.71 114.52 114.01 111.25
42.92 43.55 45.22 45.16 45.80 46.11 46.19 46.45 46.86 47.38 47.74 47.90 48.00 48.01 47.80 47.68 47.43 45.91 44.70 45.28 45.76 46.62 46.86 46.85 47.42 48.33 48.86 49.13 49.48 49.85 50.08 50.42 50.68 51.04 51.31 51.63 51.87 52.13 52.40 52.62 52.85 53.08 53.27 53.75 54.08 54.20 54.13 54.02 53.23 52.52 52.22 52.09 51.82 51.32 50.47 49.93 49.50 49.41 48.94 48.63 48.50 48.29 48.73 47.98 47.53 47.35 47.53 47.43 47.59 48.30 48.32 47.81 47.67 47.27 47.61 47.97 47.28 47.47 47.32 46.75 46.64 45.66 45.01 44.86 45.36 45.88 46.15 46.61 47.73 47.16 48.00 47.99 47.05 46.71 46.61 46.31 46.99 47.99 48.14 48.79 48.79 48.83 48.58 49.44 48.68 47.98 47.85 50.30 49.53 47.48 48.55 49.32 49.47 48.91 49.41 49.98 49.47 50.86 49.89 49.30 47.99 46.21 47.35 47.93 47.53 46.01 44.84 44.88 45.30 45.05 44.40 44.55 44.77 45.19 45.75 46.63 46.25 46.34 46.68 45.71 44.84 44.81 41.60 35.44 32.72 32.14 32.85 33.92 35.15 35.65 35.57 36.89 36.75 37.71 41.44 43.36 44.22 46.71 46.29 45.96 45.85 46.23 46.67 48.91 51.48 52.37 51.15 50.69 50.99 51.49 52.25 53.27 52.75 53.08 52.91 52.78 52.99 53.16 53.69 53.15 50.80 52.92 54.10 53.74 52.63 52.38 52.87 52.29 52.03 52.89 51.71 51.31 51.77 52.39 52.74 53.11 53.09 53.45 54.10 54.60 55.34 56.49 57.12 57.90 57.49 56.85 55.95 56.40 57.51 58.01 58.88 58.91 59.50 61.01 61.13 60.85 61.18 61.60 62.34 63.54 64.13 64.70 65.23 66.77 67.26 67.05 68.37 68.43 68.90 69.83 71.29 72.76 73.83 75.06 75.95 76.74 77.53 78.32 78.04 77.66 77.15 76.79 76.92 78.02 79.12 80.00 79.93 78.39 79.50 81.76 80.75 80.77 81.02 78.50 77.46 77.38 76.51 77.15 75.83 75.34 74.94 73.98 73.39 72.96 73.32 73.87 75.42 79.45 83.03 84.78 85.23 85.46 85.80 85.83 84.05 80.86 81.46 82.38 81.72 81.03 82.96 83.74 83.88 85.38 86.46 88.36 89.58 88.65 87.22 85.85 83.84 81.00 80.05 81.37 81.99 83.90 82.26 78.63 78.36 76.87 72.07 70.50 70.50 70.50 70.50 70.50 70.50 70.60 70.84 70.83 70.50 70.51 70.52 70.50 71.13 72.26 71.96 71.81 72.49 73.27 75.01 77.30 79.50 79.15 79.36 78.23 80.54 82.27 83.20 84.14 85.98 87.55 88.47 87.58 87.85 88.37 88.03 88.30 89.25 89.44 89.58 89.66 88.60 88.78 90.59 92.43 92.63 92.92 93.46 94.40 95.92 96.01 95.52 95.03 93.56 92.50 90.47 89.60 89.46 89.95 91.87 94.07 96.03 97.05 98.55 98.37 97.32 97.25 96.85 96.93 97.19 97.46 99.52 101.62 100.38 99.79 100.51 101.66 103.39 102.98 101.60 98.46 96.52 97.23 97.99 98.49 98.84 99.27 100.33 101.27 102.76 105.03 107.03 110.14 111.45 110.85 112.30 114.58 113.88 110.50
44.30 43.03 44.00 45.30 46.25 46.34 46.25 46.51 47.05 47.57 47.95 48.20 48.32 48.32 48.19 48.04 47.81 46.26 44.64 45.45 46.32 46.51 46.66 46.48 47.74 48.53 48.90 49.10 49.45 49.82 50.10 50.38 50.71 51.13 51.28 51.54 51.85 52.10 52.25 52.30 52.65 53.00 53.37 53.50 53.48 53.68 53.57 53.14 52.64 52.24 51.82 51.70 51.18 50.94 50.31 49.92 49.53 49.32 49.21 48.62 48.21 48.09 48.59 48.18 47.76 47.84 48.05 48.09 48.07 48.11 48.03 47.65 47.54 47.33 47.56 47.99 47.32 46.79 46.38 46.44 46.97 45.44 44.30 44.43 45.45 45.89 46.31 46.51 47.64 47.22 47.92 47.70 46.35 46.05 46.55 47.13 46.95 47.41 48.62 49.41 49.40 48.94 48.31 48.38 48.67 47.97 47.13 48.44 49.02 48.25 48.21 49.21 49.40 49.24 48.73 49.16 49.39 52.69 52.03 51.04 49.13 48.63 48.95 48.15 46.74 45.67 45.03 44.79 44.93 45.31 45.37 46.17 48.28 46.11 45.45 45.66 45.84 46.48 47.15 45.70 44.68 44.98 44.95 42.61 36.59 33.34 32.42 32.97 33.64 34.07 35.60 36.12 36.05 36.42 38.11 42.30 43.51 43.85 44.68 45.32 45.83 45.27 46.30 47.44 48.75 50.01 49.54 49.63 50.48 51.03 51.03 52.17 52.29 52.71 52.33 52.38 52.57 52.48 51.98 50.59 49.85 51.52 52.00 51.41 51.75 52.31 52.01 51.93 51.31 50.77 50.65 50.69 51.51 51.82 52.05 52.59 52.59 53.16 53.77 54.61 55.05 55.68 56.18 56.85 57.90 56.41 55.31 55.37 56.13 57.83 59.98 60.06 60.10 60.19 61.36 61.83 62.53 63.52 64.09 64.92 65.39 66.20 66.50 67.36 67.55 67.40 69.43 70.31 70.23 71.23 71.92 72.93 74.41 74.71 76.29 77.60 79.19 80.25 78.94 78.95 78.17 77.55 78.01 78.50 79.16 79.57 79.80 79.32 79.96 81.26 80.80 80.26 80.60 80.75 79.51 77.54 76.41 78.59 77.76 75.25 74.33 73.69 73.47 73.13 73.75 74.51 75.76 77.68 79.75 82.20 84.95 86.04 86.32 84.88 82.84 81.48 82.68 84.45 83.10 81.69 84.13 85.21 85.86 86.52 87.87 89.40 89.68 88.06 86.96 85.19 82.24 81.66 83.28 84.31 84.27 84.69 82.84 80.39 80.41 75.90 71.29 70.58 70.51 70.50 70.50 70.50 70.50 70.52 70.63 70.72 70.62 70.74 70.83 70.56 71.04 71.96 72.42 72.52 73.54 76.32 78.44 80.02 81.03 80.22 79.90 79.28 80.31 82.16 83.84 85.09 86.36 87.71 88.95 89.27 89.23 87.90 86.49 86.80 88.12 88.30 89.23 89.49 89.95 90.14 91.30 92.18 92.02 91.75 91.98 93.43 95.37 94.82 93.78 93.77 91.59 90.29 89.35 88.75 88.89 89.38 90.80 92.62 94.82 96.03 97.74 97.98 96.34 96.55 97.67 99.04 98.81 99.25 101.04 100.91 99.09 99.18 100.44 101.21 100.62 98.47 98.14 96.77 96.16 96.93 97.78 98.31 98.46 98.80 100.02 101.26 102.49 104.43 106.98 109.16 110.56 112.71 112.77 113.96 112.91 109.55
45.32 43.33 43.39 45.35 46.29 46.27 46.22 46.64 47.09 47.49 48.00 48.37 48.49 48.55 48.49 48.46 48.37 47.19 44.96 45.80 46.17 46.32 46.84 47.77 48.09 48.63 48.81 49.00 49.28 49.63 50.04 50.41 50.71 51.04 51.33 51.45 51.70 51.84 52.13 52.27 52.37 52.62 52.85 53.01 52.90 52.91 52.79 52.47 52.09 51.98 51.62 51.27 51.00 50.76 50.25 50.00 49.76 49.44 49.24 48.85 48.32 48.14 48.32 48.42 48.01 48.10 48.22 48.25 48.14 47.87 47.78 47.61 47.51 47.36 47.03 47.04 46.78 46.63 46.34 46.35 45.70 44.28 44.00 44.23 45.24 45.75 46.73 47.42 48.28 48.29 48.15 47.18 46.79 46.62 46.50 47.39 46.85 47.44 48.62 49.37 49.16 48.18 47.41 48.29 48.92 48.32 47.71 48.44 48.25 48.07 48.00 48.57 49.42 49.26 49.77 50.61 50.79 52.04 51.46 50.55 50.04 50.03 50.26 48.97 47.22 46.43 45.70 45.27 45.35 46.35 45.84 50.31 54.75 48.03 45.84 45.43 46.13 46.56 47.10 46.83 46.36 46.07 45.95 45.74 42.34 37.63 33.99 32.35 32.55 33.77 34.79 35.19 35.74 36.67 37.63 40.68 43.86 43.46 43.92 45.07 46.37 45.54 45.81 45.94 47.21 49.42 49.91 49.12 50.07 50.84 50.78 50.89 51.58 52.42 52.43 52.28 52.39 51.86 49.29 48.69 49.96 50.58 50.47 50.68 51.34 52.24 53.77 51.38 50.10 50.53 50.30 50.88 51.58 51.82 51.65 51.95 52.23 53.17 53.98 55.50 56.35 55.77 55.71 56.51 57.28 55.65 55.18 57.86 60.24 58.63 58.73 59.29 59.92 60.25 62.09 62.79 63.18 63.94 64.03 65.02 65.26 66.42 66.48 66.25 66.75 67.89 70.00 70.19 70.55 70.98 70.86 72.38 73.81 73.87 75.28 77.21 78.92 79.42 79.21 81.38 80.51 78.94 79.54 80.33 80.09 79.44 79.70 80.85 81.54 81.85 81.59 80.74 80.55 81.29 81.09 78.04 78.09 79.96 80.73 76.96 75.43 75.08 74.52 73.97 74.12 75.18 76.89 79.88 82.75 83.52 86.85 87.14 86.15 85.06 83.36 82.58 83.88 85.64 84.01 82.16 83.54 86.31 88.10 88.75 89.59 90.72 90.06 88.01 86.35 83.91 82.46 84.34 86.22 86.83 85.29 84.19 82.08 81.25 79.19 73.21 70.97 71.64 70.97 70.53 70.50 70.50 70.50 70.50 70.50 70.53 70.52 70.53 70.54 70.71 71.72 71.82 71.99 72.25 73.04 75.24 79.46 82.43 82.42 81.73 80.96 81.00 81.83 82.52 82.99 84.59 86.33 87.11 88.10 89.21 88.85 86.03 85.14 85.83 87.02 87.07 88.46 88.86 90.75 91.41 90.90 90.34 90.17 90.32 91.92 93.69 94.18 92.66 91.78 91.87 90.57 89.70 88.91 88.32 88.33 88.72 89.62 90.99 92.91 95.47 97.43 96.16 94.51 96.06 98.14 99.29 97.71 98.53 100.14 99.11 97.47 98.34 100.00 99.41 97.10 95.31 95.21 95.38 95.73 96.37 97.24 97.62 97.93 98.53 99.75 101.20 102.52 104.38 105.52 106.31 108.60 111.15 111.19 111.83 111.46 108.67
47.03 44.01 43.23 45.39 46.33 46.23 46.39 46.76 47.09 47.38 47.90 48.40 48.68 48.96 49.28 49.57 49.56 48.21 45.03 44.75 45.55 46.72 47.16 48.56 47.94 48.29 48.80 48.82 49.10 49.43 49.94 50.36 50.60 50.95 51.24 51.39 51.48 51.63 51.80 52.02 51.98 52.29 52.39 52.37 52.17 52.24 52.16 51.80 51.69 51.62 51.39 50.91 50.75 50.56 50.26 49.96 49.75 49.48 49.22 49.00 48.53 48.37 48.30 48.24 48.23 48.24 48.20 48.17 48.03 47.77 47.58 47.54 47.08 46.69 46.53 46.64 47.04 46.45 46.19 45.59 44.88 44.98 44.10 44.54 46.18 46.40 46.64 47.88 48.99 48.52 47.99 47.96 48.43 48.67 47.96 47.69 47.69 48.18 47.67 48.14 48.75 47.92 48.70 48.44 47.35 47.72 48.86 49.12 47.18 46.79 47.02 47.87 47.57 47.55 50.93 53.16 50.50 50.33 50.51 50.60 49.95 49.48 49.58 48.17 47.73 47.29 46.89 46.59 46.01 46.37 46.85 46.09 47.21 46.90 45.80 45.45 45.84 45.51 46.17 46.54 46.60 46.97 46.70 46.82 45.19 41.99 37.90 34.07 32.53 32.96 33.41 33.69 35.14 35.79 36.44 39.61 43.46 43.98 43.59 44.36 44.59 45.08 45.59 46.28 46.68 48.54 49.91 49.09 49.90 50.11 50.76 50.45 51.06 51.70 52.21 52.04 52.15 51.32 48.12 48.73 50.14 50.20 50.13 50.32 50.94 51.89 52.03 49.48 48.92 50.38 51.35 51.35 51.57 51.78 51.89 51.85 51.94 52.21 53.50 54.74 54.43 54.55 54.84 55.70 55.81 54.23 55.62 61.17 60.99 58.68 57.74 57.87 58.62 60.46 62.50 63.40 63.84 64.10 63.95 64.84 65.03 66.41 66.48 65.89 67.01 69.01 69.95 70.17 71.10 71.13 71.91 73.15 73.92 74.37 74.74 75.50 78.65 79.59 80.13 81.04 81.04 79.93 80.09 81.53 81.56 79.58 79.29 80.95 82.47 81.83 82.01 81.40 80.90 81.34 81.45 80.14 80.96 80.66 80.66 77.63 75.82 76.28 76.34 75.20 74.87 76.17 79.73 83.49 85.51 85.74 87.68 88.17 86.97 85.09 83.59 83.61 84.56 86.47 85.17 83.62 84.44 85.67 88.64 90.13 91.07 91.62 89.95 87.62 85.55 84.36 85.07 86.15 86.98 87.09 84.28 81.38 79.45 78.75 75.69 72.63 73.81 75.61 73.71 71.15 70.52 70.50 70.50 70.50 70.50 70.50 70.50 70.50 70.50 70.62 71.04 71.28 71.52 71.78 72.58 74.08 77.84 81.71 82.35 82.19 82.59 82.88 83.70 84.84 84.76 85.16 85.73 85.98 86.89 88.14 87.92 85.47 84.42 84.54 85.57 86.48 87.28 88.09 90.27 90.66 89.04 88.57 88.82 89.75 92.04 94.04 93.29 91.24 90.03 89.51 89.19 88.97 89.21 88.05 87.76 88.33 89.16 90.00 91.67 95.13 96.48 94.26 93.88 95.20 95.31 95.35 94.54 95.70 98.82 98.10 96.13 97.25 99.02 97.06 94.88 93.99 94.55 94.92 95.16 95.78 96.60 96.77 97.27 98.12 99.61 101.52 102.03 103.17 104.20 105.64 107.26 109.12 110.86 109.97 109.77 107.41
47.51 44.87 43.89 45.59 46.17 46.15 46.41 46.75 47.07 47.26 47.76 48.57 49.41 50.11 50.16 50.18 50.00 48.80 45.61 44.60 45.87 46.12 46.93 48.38 47.73 48.06 48.71 48.73 49.03 49.42 49.89 50.29 50.62 50.98 51.17 51.18 51.34 51.47 51.53 51.67 51.73 51.78 51.77 51.78 51.71 51.81 51.73 51.44 51.46 51.36 51.03 50.71 50.38 50.22 50.13 49.80 49.66 49.42 48.94 48.81 48.67 48.33 48.02 48.17 48.38 48.47 48.29 48.21 48.09 47.71 47.20 47.31 47.07 46.78 46.73 47.19 47.20 46.15 45.69 45.20 45.45 46.02 44.76 45.35 46.69 47.02 48.12 49.23 48.77 47.51 47.59 49.25 49.17 49.64 49.05 47.09 47.89 49.69 48.97 48.06 48.05 47.87 49.04 47.34 46.68 47.27 49.05 48.76 46.64 45.51 46.25 46.81 47.27 48.19 49.37 50.47 51.60 51.23 50.94 49.92 50.18 50.23 49.42 48.47 48.24 47.42 46.52 46.32 45.67 47.02 47.47 46.21 46.65 45.72 45.46 45.58 46.22 45.64 45.74 45.80 46.33 46.52 46.71 47.57 45.59 44.02 43.58 40.50 35.02 33.46 33.23 32.66 33.34 34.55 35.48 37.97 41.61 44.27 44.24 44.20 44.31 44.52 45.07 46.02 46.62 48.41 49.83 49.01 49.58 49.74 50.27 50.61 50.93 51.74 51.78 51.55 51.52 50.16 47.27 48.77 49.75 49.65 49.29 48.72 50.02 50.31 49.41 48.95 49.29 49.51 50.64 52.32 52.38 52.35 52.25 52.18 52.02 51.80 52.40 53.22 53.72 54.02 54.44 54.94 54.35 53.60 54.24 55.85 56.66 56.82 56.88 57.69 58.56 60.18 61.18 62.32 63.39 63.51 63.93 64.43 64.62 66.51 66.22 65.92 67.60 69.23 69.99 71.10 72.14 71.64 72.56 73.58 74.14 75.04 75.48 76.23 78.75 79.77 80.34 81.01 81.92 81.19 80.84 80.64 80.70 80.60 80.45 80.29 81.06 81.57 81.96 81.81 81.51 81.45 81.01 79.35 80.86 79.72 79.62 78.26 77.17 77.06 76.92 75.74 75.92 76.77 79.82 83.76 86.42 88.08 89.44 89.14 87.48 85.04 84.82 85.76 85.68 87.47 86.23 85.60 86.50 86.84 88.19 90.12 91.66 91.91 90.10 87.49 85.72 86.98 84.87 83.86 84.12 85.26 84.13 80.84 77.20 74.62 72.65 74.72 78.63 79.47 78.08 74.36 71.00 70.50 70.50 70.50 70.50 70.50 70.50 70.50 70.50 70.58 70.57 70.55 70.59 71.14 72.44 74.90 78.50 81.44 81.15 81.11 82.62 83.26 83.62 85.15 85.83 85.11 84.84 84.90 85.93 87.15 86.55 84.96 83.54 83.27 83.74 84.50 85.55 88.29 89.78 89.29 87.60 87.33 88.72 90.10 92.01 93.28 92.42 90.67 89.47 88.64 88.12 88.39 90.67 88.06 87.26 87.89 88.63 89.37 91.01 94.78 94.66 92.66 93.96 94.66 92.79 92.73 93.07 94.00 96.99 96.78 95.30 95.93 96.60 94.93 93.49 93.78 94.43 94.35 94.78 95.51 96.46 96.57 96.85 97.71 99.06 102.05 103.50 102.83 104.26 105.04 106.74 109.32 111.21 108.73 107.87 106.10
47.61 45.19 43.76 45.03 45.50 45.84 46.21 46.63 47.04 47.17 47.60 48.36 48.95 49.57 49.92 49.98 49.74 48.96 46.86 44.64 44.87 45.25 46.74 48.26 48.33 48.40 48.89 48.85 49.22 49.68 50.09 50.46 50.80 50.98 51.00 50.99 51.02 51.12 51.39 51.36 51.45 51.49 51.39 51.50 51.44 51.33 51.33 51.24 51.06 50.92 50.81 50.62 50.26 49.97 49.87 49.67 49.57 49.16 48.77 48.69 48.96 48.58 48.29 48.43 48.49 48.41 48.35 48.32 48.19 47.79 47.25 47.54 47.53 47.13 47.04 46.99 46.70 46.69 46.21 46.11 45.78 46.26 46.48 46.91 47.10 47.46 47.81 48.30 47.57 46.76 47.48 47.87 48.64 49.43 49.05 47.81 47.98 50.20 49.00 48.46 48.23 47.40 47.75 47.11 46.83 46.93 47.52 47.25 46.78 46.51 48.18 49.02 48.45 49.51 49.73 49.74 49.16 49.95 50.85 50.33 49.73 49.71 49.66 49.23 49.31 48.57 47.05 45.97 45.78 47.93 48.62 47.10 45.97 45.53 45.43 45.45 45.61 45.47 45.73 45.48 45.68 45.88 46.48 47.11 46.41 45.82 46.06 45.47 40.71 35.22 34.85 34.38 32.75 33.88 37.03 38.18 39.74 43.41 44.52 44.54 44.65 44.54 44.96 45.67 46.70 48.22 48.89 48.49 48.88 49.25 49.48 49.55 50.52 51.21 50.94 51.30 51.35 49.34 47.16 48.43 49.21 49.17 48.22 47.44 48.02 47.49 48.54 49.43 50.01 50.23 50.88 51.57 52.29 52.28 52.71 52.66 52.53 52.30 51.99 52.54 53.07 53.62 54.27 54.04 54.72 54.13 53.94 54.38 55.54 55.87 57.12 58.90 59.79 60.19 60.75 61.67 62.30 62.77 63.04 64.42 65.14 66.01 66.07 66.84 68.41 69.12 70.94 71.19 72.47 72.68 73.11 74.25 74.87 75.36 75.97 78.23 80.23 79.51 80.08 80.78 81.72 81.47 81.26 81.01 81.09 82.25 83.38 83.54 82.45 81.25 81.62 81.87 81.54 80.84 80.71 79.64 78.81 78.71 78.37 77.67 76.92 76.54 76.70 76.99 76.98 77.07 77.85 80.17 83.68 88.18 89.66 88.51 86.94 85.26 85.91 87.44 86.86 88.08 88.40 87.65 88.07 89.11 88.84 90.67 92.09 91.81 90.28 88.04 87.52 88.14 84.10 81.07 80.73 82.83 83.90 81.63 76.37 73.28 73.89 77.16 76.84 76.91 78.97 75.30 71.01 70.50 70.50 70.50 70.50 70.50 70.50 70.50 70.50 70.50 70.51 70.50 70.50 70.89 73.10 76.87 79.85 80.95 79.97 80.24 81.71 81.82 82.90 84.76 84.87 83.82 83.35 84.34 85.57 86.99 86.62 84.77 82.86 82.58 82.91 83.27 84.60 87.22 88.27 88.05 86.52 87.32 89.55 91.33 92.12 91.78 91.58 90.57 90.57 88.66 87.41 87.91 90.27 87.33 86.71 87.40 88.11 89.04 90.35 92.94 92.36 91.94 93.79 93.51 91.94 91.94 92.17 93.08 95.78 95.71 94.35 94.41 94.33 93.66 93.05 93.64 93.97 94.36 95.47 95.70 96.25 96.30 96.47 97.38 98.58 100.41 102.05 102.20 103.47 104.97 106.79 109.57 111.09 108.32 105.94 104.41
47.79 46.52 43.56 44.08 45.25 45.76 45.80 46.33 46.62 46.84 47.31 47.93 48.50 48.93 49.85 49.99 49.46 48.93 47.39 45.30 45.09 45.53 46.18 47.72 48.96 49.12 49.34 49.15 49.36 49.77 50.22 50.51 50.78 50.96 50.96 50.86 50.76 50.81 50.98 51.25 51.32 51.25 51.11 51.18 51.09 51.06 51.02 50.95 50.77 50.73 50.66 50.33 50.05 49.93 49.79 49.48 49.39 49.06 48.76 48.70 49.05 49.07 48.67 48.59 48.64 48.44 48.27 48.07 48.07 47.86 47.79 47.97 47.82 47.44 47.43 47.13 47.13 47.22 46.78 46.41 46.12 46.22 47.00 48.30 47.81 48.05 47.95 48.39 47.69 47.15 47.77 47.65 48.27 49.46 49.39 47.89 48.88 49.53 47.97 48.50 48.53 47.12 47.05 47.33 47.34 47.54 47.27 47.08 47.52 48.27 49.57 50.54 49.67 50.30 50.06 49.42 49.11 50.56 51.00 50.54 50.24 49.81 49.54 49.61 49.14 48.31 46.84 45.98 46.23 47.80 48.87 48.98 47.18 45.64 45.55 45.74 45.91 45.84 45.51 45.24 45.67 45.77 46.21 47.02 46.91 45.95 45.56 45.71 44.20 38.71 35.53 34.86 33.71 33.61 36.92 37.38 37.99 41.28 43.98 44.60 44.98 44.74 45.03 45.61 46.48 48.07 48.55 48.45 49.00 49.92 50.26 49.63 50.10 50.52 50.47 50.91 50.44 49.28 47.09 47.82 48.46 48.51 47.45 47.61 48.14 48.65 49.27 50.07 50.57 50.99 51.29 51.57 52.01 52.51 52.97 53.14 53.61 53.83 54.00 54.50 54.26 53.68 53.83 54.24 55.27 54.39 54.42 54.29 54.91 55.64 56.70 58.49 60.48 60.53 60.42 61.17 60.75 60.81 62.49 63.47 64.75 66.03 67.52 68.51 69.96 69.70 70.65 72.15 74.24 73.23 72.90 74.04 74.64 74.58 74.98 77.72 80.15 78.61 78.54 78.19 80.82 81.38 81.86 82.54 82.03 81.63 81.65 82.67 82.52 81.35 81.32 81.40 81.50 79.63 78.42 79.39 78.94 78.53 77.77 77.18 76.91 78.41 79.76 81.12 79.46 80.21 79.50 80.75 84.52 89.05 89.42 87.59 86.19 86.36 87.30 88.65 88.47 88.94 90.40 89.41 90.23 90.80 90.06 91.14 92.67 92.26 90.33 89.30 89.58 87.76 82.88 80.53 79.77 79.64 79.42 77.35 74.61 74.18 77.32 78.33 75.04 73.01 73.11 71.62 70.53 70.65 70.65 70.50 70.50 70.50 70.50 70.50 70.50 70.50 70.50 70.50 70.51 71.21 73.41 75.96 78.96 78.71 77.98 79.80 80.17 80.51 82.44 83.90 83.40 82.41 82.41 84.31 85.95 86.52 86.19 84.21 82.30 81.74 82.13 82.46 83.47 84.86 85.97 85.97 85.57 87.51 90.04 90.51 90.96 90.37 89.60 89.78 89.75 87.70 86.84 86.97 88.22 86.26 86.26 86.98 87.74 88.90 90.75 92.43 91.28 91.93 93.74 92.91 91.40 91.23 91.54 92.56 95.27 94.73 93.57 93.46 93.33 93.27 92.71 92.98 93.28 94.16 96.56 96.00 95.09 95.46 96.03 96.98 98.36 99.49 101.01 102.96 104.19 107.38 108.89 109.87 109.80 107.10 104.38 102.91
46.52 47.09 45.90 44.07 43.47 43.92 45.08 46.35 46.79 47.01 47.30 47.82 48.29 48.70 49.45 49.30 48.97 48.34 47.44 46.75 46.40 44.91 45.22 47.34 48.50 49.29 49.78 49.57 49.60 49.97 50.38 50.48 50.74 50.76 50.73 50.59 50.55 50.61 50.82 51.10 51.05 51.10 50.92 50.99 50.79 50.84 50.70 50.70 50.67 50.89 50.87 50.33 50.17 49.89 49.79 49.43 49.34 49.08 49.03 48.83 48.98 49.46 49.07 48.84 48.87 48.45 48.32 48.25 48.35 48.64 48.56 48.45 48.12 47.83 47.56 47.40 47.31 46.85 46.95 46.79 46.61 46.47 46.70 47.74 48.09 47.17 47.25 47.75 48.39 47.76 48.41 47.69 47.52 49.51 49.73 48.44 49.67 49.05 49.00 49.88 48.88 47.23 47.21 48.41 48.48 47.98 47.45 47.36 48.07 50.02 50.56 51.01 49.46 51.00 51.15 50.12 49.33 49.43 49.35 50.40 50.39 49.38 47.57 48.12 48.61 46.92 46.14 45.93 46.15 47.72 49.41 48.04 46.70 45.66 45.75 45.73 45.97 46.25 46.29 45.88 45.86 45.48 45.29 46.48 46.12 45.58 45.34 45.34 44.73 42.71 37.49 35.48 34.68 34.41 37.17 37.92 37.30 39.03 42.38 44.46 45.29 45.22 45.11 45.30 45.82 47.31 48.20 48.80 49.59 50.10 50.44 49.51 48.87 49.46 50.34 50.28 48.93 48.39 47.48 47.14 47.42 47.58 47.32 48.41 49.35 49.77 50.10 50.45 50.98 51.30 51.24 51.55 51.68 52.13 52.86 53.84 54.77 54.67 55.17 55.97 56.25 54.45 53.73 53.98 54.29 54.03 54.56 54.80 54.98 55.94 56.38 57.16 58.26 58.81 59.79 60.04 60.13 60.73 61.93 63.04 64.70 65.34 66.60 67.82 68.45 68.71 70.26 71.50 72.60 72.11 73.03 74.03 74.63 74.84 74.94 75.41 75.48 75.71 76.42 75.25 79.65 81.21 81.86 83.83 83.95 82.41 82.25 82.89 81.57 80.83 81.05 81.51 81.11 79.20 76.69 77.39 78.90 78.75 78.26 77.55 78.88 82.54 84.12 85.04 83.32 84.54 84.33 84.52 87.65 90.32 89.58 87.92 86.67 87.27 88.68 89.60 89.77 89.71 91.87 91.33 92.04 92.15 91.22 91.42 92.02 91.94 90.30 89.53 88.44 85.45 83.29 83.88 83.20 78.92 76.47 74.59 74.00 76.14 80.35 81.29 77.09 73.36 71.29 70.65 70.91 71.08 70.63 70.53 70.50 70.50 70.50 70.50 70.50 70.50 70.50 70.50 70.50 70.73 72.23 75.01 77.49 76.19 76.29 77.57 78.82 80.22 82.04 82.41 81.31 81.09 82.84 84.22 85.64 85.62 85.73 85.00 82.72 81.27 81.48 81.84 82.30 83.12 83.57 83.89 85.53 88.25 89.48 88.32 90.04 90.24 88.37 88.55 88.45 86.77 85.90 85.36 85.60 85.44 85.84 86.72 87.62 88.84 90.22 90.82 90.51 91.32 92.29 92.08 91.19 90.97 91.49 92.33 93.28 93.33 92.99 92.85 92.82 92.76 92.32 92.57 92.70 93.45 95.03 94.70 94.32 94.96 95.52 96.43 97.74 99.22 101.86 104.12 105.46 108.59 108.81 109.30 108.03 105.71 103.21 101.87
46.54 45.61 44.98 46.62 45.30 44.10 44.01 45.49 46.98 47.19 47.51 47.88 48.18 48.57 48.98 49.00 48.93 48.57 48.02 47.46 46.99 45.20 44.96 46.30 47.15 49.01 49.79 49.82 50.01 50.05 50.34 50.62 50.61 50.60 50.57 50.32 50.35 50.46 50.82 51.07 51.02 50.96 50.79 50.85 50.66 50.73 50.50 50.36 50.33 50.28 50.59 50.43 50.10 49.68 49.65 49.45 49.39 49.29 49.24 48.99 49.05 49.07 49.18 48.72 48.62 48.40 48.38 48.52 48.61 48.88 48.22 48.05 48.15 47.83 47.36 47.30 47.88 47.50 47.32 47.06 46.87 46.85 46.79 47.11 47.42 47.45 48.36 48.79 49.09 48.23 48.66 47.97 47.42 49.25 49.66 49.28 48.91 46.81 48.65 48.52 47.57 47.36 48.72 50.33 48.45 47.62 47.66 47.78 47.46 49.46 50.84 50.00 47.75 48.90 49.99 50.27 49.32 48.76 49.14 50.53 50.47 49.91 49.39 49.07 48.64 46.69 45.97 45.83 46.09 46.65 48.23 48.04 46.58 46.02 45.55 45.53 46.20 47.37 47.22 47.04 46.84 45.53 45.49 47.20 46.62 46.27 46.18 45.73 45.13 43.38 39.28 36.43 35.59 35.58 37.23 38.24 37.44 37.54 40.89 45.03 45.56 45.47 45.52 45.49 45.65 46.42 47.55 48.43 48.37 49.18 49.50 50.83 49.86 48.71 49.35 48.25 47.35 50.19 50.35 48.41 47.12 48.05 48.99 49.42 49.77 49.93 50.27 50.60 50.94 51.27 51.27 51.33 51.68 52.22 52.55 53.22 54.32 54.10 54.51 55.09 55.71 55.14 54.29 54.51 54.80 54.54 54.79 55.07 55.20 55.63 56.25 56.86 57.75 58.16 58.70 59.38 59.89 60.72 61.89 63.72 65.90 65.48 65.32 66.72 67.86 68.39 69.55 69.99 71.10 71.01 72.49 73.35 74.11 74.96 75.18 73.97 73.43 74.02 75.42 75.63 78.90 80.54 81.48 82.20 82.80 82.46 82.20 82.36 81.25 80.77 80.46 81.61 83.15 80.34 76.81 77.19 79.13 80.70 79.56 79.35 80.63 83.53 86.12 86.68 86.12 87.05 87.60 87.77 89.66 90.96 89.53 88.16 87.45 87.98 89.45 90.61 90.56 90.46 92.37 92.78 93.19 92.23 91.33 91.12 90.47 90.13 88.69 87.28 86.64 86.00 85.69 84.46 82.62 79.45 75.92 75.50 76.86 78.88 79.55 81.32 79.11 74.98 71.71 71.60 72.50 72.46 71.80 70.98 70.50 70.50 70.50 70.50 70.50 70.50 70.50 70.50 70.50 70.50 70.89 73.32 75.14 74.63 75.23 78.06 80.29 81.34 82.14 80.79 79.77 79.86 81.37 83.94 85.10 84.41 84.49 84.92 82.95 80.92 81.11 81.21 81.55 82.11 82.28 83.12 85.33 87.75 88.30 86.92 88.62 88.49 87.52 86.94 87.61 86.63 84.57 84.27 85.03 85.42 85.94 86.81 87.59 88.35 89.09 89.42 89.95 90.33 90.45 90.37 90.11 90.32 90.84 91.58 92.41 92.28 92.11 92.18 92.21 92.12 92.02 92.21 92.32 92.60 93.06 93.45 93.88 94.59 95.18 96.18 97.27 99.07 101.80 104.66 104.82 105.66 106.22 107.46 106.57 105.29 102.52 101.25
47.10 46.02 45.22 47.82 46.61 46.29 45.53 44.28 45.94 47.37 47.50 47.85 48.12 48.47 48.78 48.91 48.96 48.75 48.36 47.91 47.29 45.82 46.11 46.21 46.13 48.54 49.38 49.87 50.17 50.20 50.14 50.49 50.42 50.31 50.34 50.11 50.03 50.36 50.70 50.99 50.94 50.83 50.84 50.75 50.49 50.34 50.17 50.14 50.21 49.92 49.94 49.87 49.91 49.59 49.46 49.52 49.40 49.31 49.17 48.83 48.80 48.74 48.85 48.72 48.57 48.46 48.49 48.52 48.48 48.71 48.39 48.18 48.37 48.45 47.69 47.61 48.36 48.99 48.10 47.66 47.22 47.12 47.05 47.26 47.85 48.33 48.69 48.57 48.19 48.14 48.64 48.34 47.66 49.32 48.65 49.64 48.52 47.55 49.45 49.42 48.72 48.62 49.82 48.94 47.48 48.84 48.85 48.26 47.84 49.42 49.93 48.60 47.19 47.91 49.10 50.84 50.02 49.15 49.58 49.86 49.84 49.96 50.04 50.09 48.02 47.85 46.66 46.17 46.21 46.58 48.27 48.21 46.44 45.71 45.47 45.48 45.89 46.61 47.07 47.42 47.09 45.76 45.83 46.76 47.59 46.87 46.34 46.58 45.24 42.40 40.49 39.45 37.20 37.67 37.42 37.59 37.35 37.06 38.52 43.05 45.67 45.57 45.57 45.68 45.87 46.29 47.15 47.00 47.40 48.50 48.65 48.64 48.27 46.38 46.65 46.72 48.66 51.55 52.08 51.19 49.03 49.22 49.59 49.73 49.82 49.84 50.19 50.89 50.96 51.17 51.29 51.33 51.92 52.26 52.31 52.61 53.56 54.35 54.66 55.31 54.67 55.29 55.44 55.58 55.52 54.99 55.33 55.77 55.88 55.50 56.06 56.77 57.46 57.89 58.24 58.77 59.54 60.47 61.42 63.28 65.67 65.15 64.46 65.87 67.68 68.56 69.17 70.80 71.71 70.43 71.05 72.32 73.81 74.71 74.85 73.18 73.77 74.32 75.86 77.53 78.81 79.62 80.96 82.08 82.28 81.14 80.78 81.34 81.22 81.34 79.66 80.10 80.35 78.91 77.01 76.34 76.73 77.78 77.82 79.73 81.73 83.46 84.61 85.57 85.65 86.46 87.42 88.59 90.03 90.72 89.55 88.81 88.71 88.86 89.85 91.47 91.36 91.71 93.18 93.48 92.75 90.80 89.92 90.32 90.13 89.49 86.72 84.23 83.13 84.67 84.25 82.53 79.44 76.92 76.21 77.21 79.43 80.93 81.12 82.03 80.86 76.50 71.81 72.31 73.43 73.28 72.87 71.13 70.50 70.50 70.50 70.50 70.50 70.50 70.50 70.50 70.50 70.50 70.56 71.91 73.21 73.56 74.58 77.47 80.19 80.80 81.78 80.50 79.16 79.08 80.24 83.67 84.19 83.02 82.97 83.90 82.05 80.35 80.07 80.10 80.88 81.37 81.55 82.19 83.45 85.31 86.64 85.33 86.17 86.31 85.90 85.51 85.48 84.91 83.55 83.98 84.68 85.09 85.78 86.54 87.11 87.81 88.50 88.73 89.32 89.60 89.54 89.43 89.36 89.60 89.96 90.71 91.42 91.56 91.34 91.65 91.71 91.62 91.63 91.64 91.86 92.11 92.47 92.76 93.29 94.09 94.85 96.25 97.51 99.18 101.32 103.71 103.28 102.77 103.40 104.53 105.60 104.90 102.09 100.35
47.29 46.98 47.05 47.47 46.97 47.18 46.62 45.56 44.80 47.03 47.65 47.89 48.17 48.46 48.63 48.79 48.97 48.97 48.53 48.10 47.63 47.10 47.10 46.19 46.24 48.03 49.12 49.77 50.06 50.15 50.21 50.37 50.21 50.03 49.82 49.70 50.01 50.39 50.67 50.98 50.91 50.68 50.67 50.61 50.47 50.23 50.09 49.87 49.84 49.77 49.79 49.89 49.85 49.62 49.36 49.19 49.32 49.24 48.99 48.73 48.72 48.77 48.75 48.82 49.06 48.93 48.98 49.15 48.21 48.09 48.40 48.28 48.40 48.27 48.34 48.17 48.24 48.46 48.46 48.22 47.55 47.12 47.03 47.87 48.31 48.11 47.82 47.94 47.66 48.30 48.46 48.28 47.96 48.56 47.91 49.27 47.89 47.97 49.81 49.99 49.24 49.17 48.78 49.15 49.01 49.77 49.11 48.51 48.16 49.95 49.71 48.00 47.24 47.31 48.11 52.94 53.20 49.24 49.00 48.95 49.45 49.62 50.06 49.71 50.10 48.89 46.82 46.61 46.24 46.94 48.67 48.33 46.53 45.86 45.79 45.87 46.33 46.32 46.84 47.93 47.81 46.68 46.45 46.31 47.67 49.37 47.86 48.36 45.79 42.32 41.10 41.92 41.56 39.58 38.47 37.30 37.02 37.00 37.21 39.67 44.36 45.91 46.03 46.37 46.48 46.68 46.49 46.39 47.35 47.96 48.07 48.12 46.66 45.09 45.55 47.68 50.00 51.53 52.04 51.53 50.28 49.75 49.84 49.67 49.54 49.61 49.83 50.22 50.50 50.69 51.07 51.46 51.83 52.17 52.35 52.71 53.68 54.60 54.82 55.15 55.52 56.32 57.16 56.96 56.49 55.57 56.61 57.12 56.90 56.16 56.04 56.47 57.15 57.78 58.28 58.86 59.64 60.60 61.56 62.64 64.88 64.48 65.03 65.87 67.02 68.49 69.32 70.46 70.94 71.28 71.02 71.81 72.68 73.42 73.26 72.38 74.19 74.35 74.61 77.11 78.70 79.43 80.54 81.59 82.37 82.21 80.36 79.68 79.45 80.58 79.83 79.48 80.14 78.57 77.06 75.71 75.39 75.79 76.60 78.53 83.46 85.80 85.28 85.05 83.95 83.83 86.39 87.44 88.19 90.02 89.65 89.53 89.62 90.18 90.89 92.02 92.09 92.77 93.54 92.67 91.46 90.47 88.40 88.80 88.63 89.29 86.45 83.99 81.92 81.17 80.25 78.83 77.95 78.63 78.71 78.03 79.00 80.93 83.19 83.00 81.44 76.52 72.21 73.32 73.85 73.43 72.69 71.06 70.54 70.50 70.50 70.50 70.50 70.50 70.50 70.50 70.50 70.50 70.51 70.88 72.01 72.34 73.47 75.99 78.55 79.74 81.22 80.50 78.66 78.50 79.75 83.20 83.50 82.04 82.04 83.52 81.53 79.43 79.09 78.95 80.17 80.52 80.62 81.22 81.58 82.33 83.47 83.56 83.69 83.80 83.54 82.84 83.04 83.51 83.21 83.65 84.25 85.05 85.65 86.26 86.71 87.28 87.84 88.38 88.74 88.71 88.49 88.46 88.59 88.78 89.07 89.71 90.20 90.48 90.46 90.77 90.92 91.10 91.21 91.24 91.49 91.69 91.95 92.38 92.85 93.68 94.68 96.62 97.84 99.19 100.58 101.73 101.96 101.26 101.45 103.31 105.50 102.96 100.82 99.43
47.16 47.20 47.76 47.39 47.29 47.18 47.06 46.39 44.73 46.15 47.43 47.84 48.03 48.31 48.50 48.74 48.99 48.98 48.54 48.18 48.20 47.82 47.61 46.39 46.03 47.17 48.82 49.68 49.80 49.57 50.15 50.20 49.69 49.59 49.58 49.87 50.27 50.42 50.75 51.08 50.91 50.67 50.58 50.47 50.34 50.34 50.16 49.90 49.77 49.60 49.52 49.56 49.35 49.31 49.39 49.01 49.21 49.05 48.95 48.98 48.85 48.78 48.86 48.87 49.14 49.09 49.55 49.38 48.22 48.39 48.52 48.31 48.35 48.69 48.73 48.33 48.01 48.14 47.97 47.79 47.46 47.37 47.45 47.89 48.38 47.71 47.62 48.07 48.62 48.82 48.40 48.60 48.93 48.71 47.54 48.43 48.31 47.81 49.06 49.56 48.95 49.15 49.36 49.02 49.95 49.38 49.23 48.51 48.31 49.38 49.87 48.57 47.72 47.83 48.24 52.61 55.08 49.07 48.68 48.54 49.13 49.90 48.44 47.58 49.48 49.44 48.46 47.15 46.39 47.29 48.65 49.19 47.36 46.47 46.46 45.87 46.24 46.17 46.43 47.98 48.80 47.26 46.50 46.10 47.13 48.55 47.96 45.98 43.86 40.99 40.37 43.26 45.60 43.45 40.71 38.35 37.18 37.00 37.00 37.58 42.10 45.92 45.93 45.94 46.02 45.79 44.60 45.38 46.72 47.14 46.71 45.31 44.25 44.69 46.87 48.34 48.55 50.59 52.01 51.55 51.13 50.45 49.75 49.49 49.36 49.44 49.64 49.85 50.07 50.19 50.86 51.61 51.66 52.02 52.32 52.96 53.85 55.08 55.58 55.39 55.99 56.71 57.71 57.71 56.44 55.93 57.79 58.47 58.19 57.26 56.53 56.65 57.25 58.06 58.72 59.11 59.51 60.21 62.13 63.34 65.08 64.67 65.16 65.57 66.48 67.65 68.27 69.64 70.96 72.45 72.51 72.29 71.67 71.85 71.75 73.87 76.69 76.51 76.57 77.42 77.39 78.30 79.00 80.46 82.53 84.47 80.81 78.78 78.86 79.68 79.50 79.02 79.50 79.84 78.38 77.09 74.87 75.07 76.60 79.81 84.60 85.87 85.48 86.08 83.13 80.84 82.02 82.62 84.10 87.34 87.49 88.74 89.88 90.99 91.96 92.71 93.03 93.35 92.84 91.22 89.74 88.99 86.80 86.74 86.93 87.48 87.08 85.67 84.10 81.41 79.08 79.40 78.79 79.60 79.87 80.45 80.27 80.78 81.92 80.33 77.72 75.33 73.11 73.28 73.94 73.61 73.38 72.00 70.89 70.50 70.50 70.50 70.50 70.50 70.50 70.50 70.50 70.50 70.50 70.51 70.83 71.11 73.03 75.00 77.51 79.29 80.78 80.12 77.97 77.78 79.72 82.58 82.54 81.21 81.87 82.30 81.19 79.16 78.46 78.55 79.80 79.99 79.46 79.74 79.75 80.07 80.65 81.39 81.94 82.13 82.72 82.95 84.15 84.74 84.09 84.06 84.40 84.98 85.67 86.19 86.52 86.84 87.44 87.80 88.06 87.93 87.83 87.76 87.89 88.01 88.56 89.02 89.49 90.03 90.22 90.55 90.70 90.54 90.66 90.61 91.03 91.20 91.56 92.05 92.60 93.35 94.59 96.06 96.97 98.07 99.45 100.06 99.98 99.80 100.08 102.65 104.90 100.98 99.20 98.26
47.39 46.85 46.75 46.97 47.29 47.31 47.25 46.56 44.91 45.89 47.39 47.75 47.96 48.25 48.38 48.65 48.89 48.91 48.62 48.42 48.26 47.89 47.41 46.42 46.07 46.52 47.92 48.91 49.13 49.59 50.02 49.69 48.99 49.17 49.56 49.86 50.13 50.38 50.77 51.01 50.89 50.64 50.38 50.35 50.26 50.16 50.05 49.80 49.77 49.57 49.42 49.33 49.10 49.18 49.32 48.94 48.94 49.09 49.08 49.14 49.10 49.07 49.25 49.00 49.21 49.02 48.75 48.74 48.30 48.70 48.83 48.84 48.84 49.20 48.75 48.20 47.89 48.01 47.97 47.97 47.74 47.60 47.56 48.30 48.74 48.53 47.94 48.41 48.81 48.44 48.58 48.76 49.12 49.15 47.95 48.57 48.52 48.89 49.10 49.22 49.46 49.90 49.08 48.06 48.84 48.92 48.38 48.38 48.54 49.94 49.12 48.67 48.71 48.37 47.33 48.35 50.81 48.34 47.77 48.26 48.74 49.29 47.33 46.68 47.01 47.40 48.09 46.87 46.42 46.89 46.90 46.90 46.84 46.65 46.24 46.06 46.27 46.64 47.06 48.03 49.19 48.10 46.92 46.23 46.85 46.91 45.86 43.85 41.43 40.63 41.49 44.28 50.01 47.50 43.13 40.07 37.71 37.01 37.00 37.10 39.44 43.80 44.82 44.79 45.05 44.17 42.56 43.98 45.27 44.32 43.61 43.09 44.18 45.77 47.02 49.02 49.38 50.84 52.39 52.25 52.48 51.47 49.76 49.23 49.09 49.24 49.34 49.62 49.76 49.97 50.51 51.55 51.54 51.96 52.27 52.97 54.12 55.73 56.48 55.81 55.92 56.40 56.87 57.18 55.56 55.49 57.59 58.50 58.07 57.46 56.78 56.96 57.36 57.85 58.46 59.06 59.64 60.28 61.02 62.71 63.68 63.96 64.24 65.01 65.64 66.74 67.15 68.57 70.65 71.97 72.53 72.53 71.27 71.32 73.31 76.94 77.14 76.93 77.02 76.12 75.71 76.64 77.34 78.84 80.80 80.97 79.15 78.25 78.59 78.67 78.89 78.73 78.71 78.26 77.37 75.76 74.57 75.28 77.79 82.14 84.70 82.68 81.11 80.53 78.97 78.77 79.51 80.62 81.89 84.05 86.05 86.88 89.70 91.86 92.93 93.46 93.64 92.78 91.73 90.40 88.77 87.70 86.75 85.61 84.85 85.00 84.95 83.95 83.07 80.90 80.25 82.84 81.52 80.97 82.96 83.69 83.63 83.92 82.74 78.85 76.32 74.92 73.56 73.49 74.38 73.31 73.14 72.34 70.89 70.50 70.50 70.50 70.50 70.50 70.50 70.50 70.50 70.50 70.50 70.50 70.50 70.67 72.43 73.91 76.25 79.60 80.88 79.97 77.60 77.22 79.11 80.71 81.40 80.40 80.42 79.97 79.12 78.63 77.60 77.91 78.67 78.63 78.35 78.68 79.39 80.53 81.01 81.69 82.86 83.40 84.69 85.04 85.92 86.50 86.06 85.49 85.11 85.18 85.90 86.21 86.60 86.73 87.17 87.28 87.48 87.32 87.22 87.17 87.31 87.62 88.29 88.80 89.19 89.43 89.75 90.46 90.47 90.02 90.07 90.09 90.59 91.04 91.39 91.88 92.50 93.21 94.26 95.33 96.25 97.12 98.04 98.58 98.53 98.70 98.84 100.00 102.05 100.96 98.86 97.44
47.69 47.14 47.15 47.24 47.53 47.47 47.33 46.28 44.71 45.92 47.52 47.66 47.82 48.17 48.37 48.63 48.93 49.07 48.83 48.56 48.26 47.95 47.70 47.10 46.61 46.36 47.11 47.83 48.89 49.84 49.71 49.06 48.78 49.31 49.68 49.73 49.87 50.33 50.64 50.87 50.75 50.63 50.36 50.29 50.24 50.04 49.89 49.89 49.78 49.53 49.55 49.53 49.55 49.34 49.48 49.34 49.46 49.35 49.40 49.38 49.16 49.19 49.31 49.14 49.16 49.09 48.60 48.46 48.46 48.91 49.20 49.23 48.78 48.80 48.91 48.38 47.98 48.45 49.29 49.08 48.26 47.76 47.70 48.79 49.23 49.09 48.71 49.18 48.71 48.67 48.67 49.50 50.35 49.48 48.21 49.29 49.53 48.95 48.68 48.31 49.03 48.91 48.19 48.35 48.41 48.15 48.55 48.16 48.08 49.12 48.32 48.18 49.84 49.40 47.51 48.31 49.13 48.47 48.24 49.40 50.02 49.25 47.97 47.05 47.17 47.59 48.46 47.44 46.78 47.09 46.62 46.58 46.60 46.27 45.88 46.08 46.37 47.01 47.13 47.08 47.60 47.42 46.82 46.50 47.30 46.62 45.89 43.84 41.77 41.74 43.21 46.39 54.98 51.42 44.03 42.38 38.99 37.15 37.00 37.00 37.86 41.26 43.31 43.44 43.38 42.20 41.90 43.00 44.00 42.86 43.05 44.89 46.79 47.70 47.78 49.11 50.03 50.49 51.72 52.29 52.03 50.27 49.32 48.93 49.08 49.12 49.22 49.47 49.77 50.26 50.83 50.95 51.38 51.73 52.44 53.30 54.56 55.71 56.64 56.32 55.67 55.52 55.81 56.34 55.37 54.81 55.47 56.56 57.22 56.75 56.50 56.99 57.66 58.06 58.54 59.10 59.58 60.30 61.28 62.84 63.82 63.04 63.46 64.65 65.34 66.36 67.08 67.82 69.44 71.22 71.78 71.59 71.49 71.30 73.35 76.16 76.74 75.87 75.54 74.38 75.21 77.25 77.12 77.67 78.20 78.75 77.75 77.29 77.76 77.03 77.36 77.26 76.73 75.85 75.27 74.75 74.03 75.35 80.46 84.48 83.69 78.93 77.12 77.10 77.50 78.34 79.96 83.08 84.72 86.04 88.96 89.75 91.04 92.37 93.01 92.79 92.62 91.90 90.60 89.50 88.21 87.32 86.48 85.29 83.90 83.29 82.73 82.06 80.78 80.31 82.46 86.12 83.97 83.00 86.08 86.66 85.84 84.62 80.50 77.74 77.58 76.39 74.50 74.10 75.83 74.20 72.58 71.63 70.73 70.50 70.50 70.50 70.50 70.50 70.50 70.50 70.50 70.50 70.50 70.50 70.50 70.52 71.21 72.90 75.16 78.52 80.02 79.98 77.20 76.49 77.24 78.43 79.42 79.06 78.91 78.54 77.76 77.55 77.30 77.66 78.03 78.62 79.08 79.50 80.24 80.69 81.67 83.88 85.63 85.80 85.97 86.70 87.79 88.42 87.51 86.63 86.24 85.83 85.95 86.38 86.51 86.41 86.54 86.68 86.88 86.71 86.47 86.57 86.98 87.23 88.33 89.45 88.92 88.90 89.15 89.71 89.99 89.70 89.78 90.02 90.46 90.76 91.26 91.82 92.36 93.00 94.17 95.60 96.48 97.01 97.81 98.00 97.64 97.76 97.75 98.00 100.78 101.25 99.63 96.76
48.04 47.43 47.38 47.29 47.75 47.60 47.04 45.36 44.86 45.69 46.65 47.45 48.12 48.42 48.47 48.64 48.76 48.94 48.84 48.51 48.33 48.20 48.00 47.67 46.72 46.25 46.50 46.99 48.45 48.90 48.87 48.22 48.52 49.23 49.27 49.46 49.82 50.36 50.77 50.76 50.61 50.49 50.42 50.33 50.14 50.15 50.12 50.10 49.98 49.70 49.88 49.79 49.74 49.61 49.88 49.89 49.76 49.74 49.64 49.43 49.25 49.39 49.30 49.42 49.14 49.26 48.84 48.87 48.94 49.15 48.97 49.00 49.05 49.22 49.54 48.63 48.37 48.78 49.81 49.45 48.24 47.85 48.30 49.16 49.38 49.53 49.00 48.63 48.83 48.33 48.64 49.91 50.66 49.99 48.44 50.18 50.04 49.09 48.36 48.13 48.62 48.78 48.28 48.37 48.26 48.06 48.35 48.41 48.11 48.34 48.26 47.91 48.86 49.15 48.67 49.56 49.32 50.07 49.44 49.66 49.89 49.77 48.83 48.32 49.95 50.60 50.60 49.09 47.84 48.41 48.70 47.67 46.66 46.44 46.24 46.38 46.66 46.77 46.73 47.01 47.46 47.54 47.30 47.04 47.04 46.89 46.99 46.08 44.18 42.08 43.74 46.30 49.98 49.66 45.14 44.21 41.20 37.79 37.00 37.00 37.16 39.35 41.74 41.46 41.36 41.13 42.11 42.97 43.38 42.67 44.85 47.15 48.67 48.70 48.39 48.77 48.79 48.85 49.69 49.84 49.52 49.20 48.98 48.75 48.66 48.80 49.07 49.42 49.83 50.26 50.94 50.96 51.24 51.69 52.31 53.17 54.45 55.55 56.43 56.80 56.00 55.21 55.26 55.63 55.12 54.49 54.69 55.39 56.41 56.40 56.42 56.83 57.53 58.04 58.46 58.90 59.34 59.95 60.70 62.30 63.49 62.73 63.00 64.31 65.26 65.74 66.77 66.90 68.58 70.61 71.10 71.15 70.84 70.94 73.02 74.52 73.81 73.53 73.65 73.26 74.96 77.30 76.55 76.79 77.32 77.78 77.41 77.67 78.16 76.89 77.46 78.33 75.51 75.32 73.85 73.98 73.33 74.67 80.08 85.04 82.07 76.64 75.82 76.32 77.16 78.86 83.11 86.55 88.40 88.02 87.83 90.02 91.36 91.88 91.69 91.09 90.68 90.03 89.01 88.67 88.02 87.00 86.39 85.62 84.38 83.51 82.74 81.57 81.44 81.28 83.69 86.29 84.30 85.12 87.06 86.38 83.05 80.98 78.87 79.70 81.24 78.92 75.45 75.11 78.38 76.02 72.88 71.27 70.57 70.50 70.50 70.50 70.50 70.50 70.50 70.50 70.50 70.50 70.50 70.50 70.50 70.50 70.64 72.20 73.94 77.13 78.39 77.96 76.52 76.09 75.83 76.25 77.04 77.69 78.16 77.64 76.73 76.69 77.53 77.83 78.26 78.72 79.22 79.54 79.93 80.73 82.19 86.35 88.49 87.24 86.65 87.64 89.02 89.99 88.60 87.59 87.14 86.66 86.43 86.53 86.23 85.88 85.89 86.07 86.27 86.11 85.99 86.23 86.70 86.88 87.91 89.55 89.12 88.77 88.85 89.28 89.48 89.35 89.44 89.71 90.37 90.75 90.96 91.50 92.13 92.87 94.56 96.61 97.85 97.70 97.26 97.99 97.54 96.94 96.94 96.64 97.12 96.95 96.41 95.49
48.02 47.26 47.48 47.81 47.92 47.39 45.70 44.67 45.14 46.29 47.00 47.65 48.00 48.34 48.64 48.66 48.83 48.99 48.95 48.77 48.66 48.51 48.32 47.98 47.10 46.59 46.55 46.61 46.83 47.42 47.56 47.82 48.47 48.97 49.02 49.35 49.76 50.27 50.62 50.69 50.49 50.36 50.44 50.45 50.16 50.15 50.06 50.05 49.90 49.95 50.08 50.02 49.92 49.94 50.11 50.22 50.08 49.87 49.65 49.45 49.53 49.57 49.46 49.14 49.02 49.22 49.28 49.33 49.24 49.13 49.02 49.49 49.95 50.13 50.59 49.66 48.84 49.03 50.00 49.74 49.02 48.89 49.20 49.10 48.71 49.07 49.38 48.21 48.16 48.30 50.14 50.17 50.87 50.51 48.32 50.07 50.40 49.60 48.81 48.73 49.37 49.44 48.54 48.17 47.98 48.00 48.09 48.14 48.07 48.21 48.17 47.95 48.62 50.04 52.83 53.38 51.10 50.04 50.01 49.88 49.71 50.04 49.89 48.90 48.46 49.08 48.72 48.22 48.74 48.31 48.15 48.03 46.86 46.84 46.60 46.42 46.45 46.53 46.65 47.20 47.74 48.01 47.64 47.80 47.88 47.33 47.05 46.94 45.65 43.22 42.93 45.70 48.09 47.62 45.09 44.25 43.27 39.36 37.13 37.00 37.01 38.10 40.48 40.46 41.21 41.03 41.69 41.91 42.86 44.72 46.02 47.18 48.12 48.34 48.30 48.39 47.89 47.88 48.17 48.35 48.69 48.79 48.66 48.45 48.40 48.77 49.03 49.31 50.14 50.67 50.86 50.74 50.74 51.29 51.88 52.60 53.63 54.77 55.78 56.12 55.45 55.00 54.87 54.72 54.94 54.60 54.72 55.09 56.21 57.25 57.59 57.53 58.06 59.21 58.63 58.76 59.24 59.72 60.10 60.76 61.89 62.13 63.01 66.18 66.83 66.20 66.64 66.75 68.86 70.30 70.17 69.87 70.87 70.91 72.25 71.69 70.66 71.03 71.56 72.52 74.35 75.70 75.81 76.59 77.45 77.74 77.23 77.34 78.05 78.09 78.42 77.62 75.28 75.06 73.56 73.81 72.99 74.10 80.39 84.69 80.27 75.35 75.30 76.06 76.81 78.14 80.46 83.43 88.08 90.02 89.27 89.60 89.82 90.01 90.42 89.83 89.75 89.14 87.64 86.82 87.21 87.39 87.60 86.68 85.22 83.98 82.95 82.09 82.87 82.33 83.19 85.11 85.38 87.00 87.56 85.54 81.62 80.03 80.80 81.63 82.79 79.98 75.49 75.76 78.43 75.55 73.52 72.57 71.55 70.64 70.50 70.50 70.50 70.50 70.50 70.50 70.50 70.50 70.50 70.50 70.50 70.50 70.53 71.14 72.42 74.56 75.68 75.31 75.13 75.33 75.06 75.45 76.28 77.09 78.31 77.51 76.17 76.62 77.07 77.57 78.24 78.64 79.03 79.36 80.01 81.23 83.32 88.92 90.57 87.96 87.83 88.97 89.56 90.91 89.74 88.67 88.18 87.57 86.99 86.59 85.98 85.41 85.34 85.58 85.75 85.64 85.68 86.03 86.42 86.67 87.14 88.17 88.80 88.44 88.48 88.85 88.91 88.85 89.17 89.68 89.95 90.35 90.67 91.32 91.92 92.74 94.10 95.98 97.46 97.79 96.14 97.31 96.66 96.09 96.30 95.94 95.32 94.82 94.70 94.65
48.76 48.32 47.91 47.63 47.50 46.36 44.66 44.99 45.44 46.42 47.30 47.90 48.13 48.42 48.72 48.90 48.94 49.08 49.09 48.85 48.77 48.60 48.44 48.17 47.81 47.39 46.79 46.71 46.69 47.57 47.53 47.82 48.32 48.85 48.96 49.33 49.71 50.09 50.43 50.60 50.49 50.37 50.24 50.31 50.24 50.17 50.21 50.15 50.00 50.42 50.23 50.26 50.21 50.38 50.39 50.39 50.19 50.02 49.83 49.81 49.72 49.71 49.66 49.66 49.32 49.34 49.72 49.27 49.14 49.32 49.62 50.32 50.56 50.32 49.83 49.48 48.78 48.78 49.18 49.13 49.43 49.33 49.83 49.67 49.43 49.68 49.62 48.69 48.35 48.60 49.93 50.44 50.98 49.69 47.95 49.09 50.51 50.35 49.91 48.96 49.70 49.32 48.54 48.18 48.09 48.12 48.00 47.91 47.80 48.56 48.71 48.33 49.80 52.99 53.27 51.16 48.01 49.84 50.27 50.35 50.41 49.78 49.68 48.27 48.30 48.53 48.49 48.50 48.27 48.13 47.39 46.98 46.78 46.66 46.78 46.60 46.49 47.28 47.25 48.58 48.73 48.01 47.88 48.13 47.90 48.00 46.88 47.08 46.15 44.43 42.66 45.36 47.91 46.83 46.17 44.13 43.47 41.21 37.57 37.00 37.00 37.42 38.78 41.01 42.96 42.44 41.70 41.68 44.21 46.36 46.71 47.19 47.72 47.93 48.14 48.11 47.01 47.00 46.87 47.72 48.29 48.40 48.40 47.97 47.66 48.30 48.93 49.58 50.10 50.12 50.21 50.39 50.72 51.65 52.42 52.97 53.59 54.55 55.58 55.83 54.96 54.73 54.50 54.20 53.87 54.31 55.09 55.43 57.05 59.34 59.46 59.10 59.22 60.08 58.86 58.62 59.06 59.43 59.85 60.40 61.07 62.23 63.61 65.99 67.71 66.24 66.07 66.83 67.76 68.42 69.16 69.07 68.97 71.01 70.90 69.94 70.01 70.43 71.08 72.45 73.64 74.66 76.18 76.41 77.55 77.45 76.30 76.04 75.94 76.26 75.84 75.88 74.81 74.14 73.69 73.80 72.70 73.41 77.14 80.11 77.93 74.65 74.84 75.46 76.28 77.58 79.37 82.47 86.99 89.48 90.23 90.52 89.03 87.37 88.36 87.92 86.94 86.40 85.47 85.68 87.26 86.86 86.11 85.36 84.28 83.34 83.04 83.88 84.02 83.75 84.19 84.83 86.65 87.64 85.95 83.08 81.47 81.55 83.92 83.49 83.47 78.72 75.66 76.60 78.61 76.96 74.63 73.58 73.00 72.14 71.08 70.59 70.59 70.50 70.50 70.50 70.50 70.50 70.50 70.50 70.50 70.50 70.50 70.50 70.75 72.05 73.52 74.07 74.21 74.16 74.24 74.89 75.08 75.68 77.74 77.87 75.76 76.28 76.73 77.40 77.89 78.06 78.51 79.32 80.30 81.92 85.15 88.88 90.70 88.94 89.78 90.54 90.66 91.66 91.02 90.13 89.62 88.48 87.71 87.05 86.13 85.49 85.06 85.23 85.32 85.42 85.41 85.78 86.27 86.25 86.79 87.37 87.90 87.91 88.09 88.36 88.32 88.50 89.14 89.36 89.67 90.13 90.63 91.23 92.01 92.69 93.40 94.27 94.89 94.80 94.67 95.10 95.11 95.20 95.37 95.18 94.43 94.14 94.05 94.05
49.42 48.97 48.75 47.77 46.47 45.14 45.25 46.52 46.39 46.15 46.45 47.39 48.01 48.30 48.61 48.98 49.20 49.33 49.54 49.04 48.95 48.79 48.62 48.35 48.34 48.25 47.49 47.17 46.75 47.04 47.73 47.79 48.27 48.68 49.12 49.31 49.66 50.06 50.29 50.30 50.36 50.24 50.36 50.38 50.25 50.24 50.30 50.32 50.21 50.51 50.62 50.49 50.50 50.53 50.38 50.38 50.34 50.14 50.11 49.91 49.79 49.93 49.86 49.81 49.50 49.30 49.54 49.68 49.44 49.82 50.27 50.66 50.67 49.89 49.44 49.63 49.22 48.98 48.87 48.70 49.05 49.67 49.81 49.79 50.49 50.21 49.55 49.02 49.13 49.23 49.77 51.01 50.72 48.69 48.14 48.82 49.61 49.61 49.71 49.16 49.13 49.18 49.07 48.66 48.17 48.25 48.45 48.14 48.16 48.70 49.54 49.27 49.83 51.19 51.33 50.15 48.28 50.41 50.68 50.45 50.29 49.08 48.42 48.18 48.22 48.43 48.27 48.45 48.16 47.81 47.36 47.04 46.88 46.59 46.71 46.82 47.13 46.97 47.62 49.02 48.53 48.35 48.27 47.89 48.39 48.20 47.92 47.35 46.98 45.11 42.87 45.09 47.50 47.16 46.36 45.12 44.22 43.43 38.71 37.00 37.00 37.00 37.64 41.20 43.30 44.08 44.19 43.23 44.89 46.76 47.07 47.35 47.65 47.80 48.18 47.13 45.41 45.67 46.64 47.72 48.13 48.12 47.23 47.07 47.70 48.33 48.70 49.61 49.90 49.69 50.04 50.60 51.23 52.03 52.92 53.63 53.86 54.68 55.76 55.90 55.44 54.92 54.44 54.16 53.61 53.48 54.36 55.22 56.26 58.58 60.58 60.89 60.45 58.63 58.10 58.35 58.79 59.23 59.75 60.23 61.42 63.47 64.24 64.65 65.16 65.47 65.91 68.14 68.07 68.42 68.87 67.94 67.95 70.36 72.14 71.29 71.01 71.35 71.16 72.99 73.73 74.77 76.25 76.58 77.84 78.01 77.41 76.87 76.69 75.97 75.79 76.00 74.67 73.63 73.64 73.54 72.18 72.39 73.37 74.75 74.79 74.35 74.98 75.00 76.09 77.18 79.63 84.42 87.06 86.99 87.62 89.71 90.54 87.63 85.48 85.15 83.57 83.32 83.94 85.24 87.91 87.78 86.53 84.94 83.97 83.66 85.06 86.12 85.16 84.96 85.98 85.83 87.19 86.72 84.14 82.75 82.56 83.34 85.68 85.12 83.08 77.58 76.58 77.82 80.21 80.45 77.01 75.41 73.93 73.59 72.71 71.07 70.50 70.50 70.50 70.50 70.50 70.50 70.50 70.50 70.50 70.50 70.50 70.50 70.50 70.91 71.84 72.52 73.10 73.37 73.59 74.01 74.23 74.48 75.89 76.55 75.25 76.01 76.38 76.93 77.47 77.88 78.60 79.86 81.00 83.24 87.54 90.67 91.36 90.55 91.67 92.15 92.72 93.15 92.44 91.65 91.34 89.89 88.65 87.67 86.55 85.65 85.10 85.01 85.05 85.12 85.31 85.63 85.82 86.03 86.58 87.14 87.66 87.65 87.80 87.95 88.02 88.26 88.76 88.98 89.64 90.24 90.81 91.67 92.53 93.15 93.46 93.41 93.71 93.81 93.92 94.20 94.40 94.38 94.35 94.36 94.01 93.65 93.51 93.22
49.26 47.18 47.61 48.76 47.35 45.65 45.76 47.06 47.30 47.44 46.76 46.88 47.79 47.98 48.18 48.62 49.14 49.42 49.61 49.29 49.07 48.98 48.75 48.63 48.62 48.62 47.91 47.16 46.70 47.08 48.08 48.34 48.54 48.81 49.09 49.32 49.67 49.87 50.10 50.17 50.26 50.28 50.42 50.38 50.33 50.33 50.39 50.37 50.34 50.58 50.84 50.66 50.52 50.59 50.56 50.57 50.58 50.38 50.26 50.01 50.16 50.32 50.33 50.07 49.68 49.56 49.60 49.92 50.13 50.55 50.49 50.26 50.79 50.00 49.60 50.10 50.06 49.70 49.45 49.09 49.27 49.50 49.52 49.04 51.22 51.35 50.51 49.58 49.50 49.57 49.10 49.73 50.34 49.40 48.28 49.36 49.18 49.11 49.56 48.88 48.79 50.11 49.64 48.90 48.34 48.36 48.68 48.35 48.34 49.53 50.28 49.85 48.86 49.04 49.80 50.08 50.21 50.43 50.97 50.58 49.66 48.56 48.56 48.90 48.38 48.47 47.96 47.79 47.61 47.47 47.41 47.38 47.14 46.85 47.21 47.47 46.99 46.56 47.22 47.68 47.57 47.93 48.14 48.03 48.22 48.55 48.43 47.77 47.08 45.87 42.64 44.61 46.92 46.14 46.09 46.03 45.09 45.09 40.22 37.07 37.00 37.00 37.25 40.21 43.43 44.71 45.37 45.34 46.10 47.04 47.22 47.38 47.46 47.65 47.64 46.21 44.57 45.59 46.86 47.46 47.72 47.13 46.36 47.02 47.88 48.39 48.94 49.41 49.93 50.37 50.37 50.72 51.71 52.71 53.50 54.01 54.39 54.99 56.04 56.80 56.60 55.87 54.96 54.53 53.67 53.39 53.88 54.50 55.50 56.63 58.33 60.03 59.75 57.78 57.70 58.20 58.59 59.08 59.66 60.35 61.66 63.59 64.01 64.49 65.91 66.37 65.12 66.17 66.95 67.68 67.96 67.04 67.79 69.26 72.22 73.38 73.19 72.21 72.47 74.79 74.61 75.54 76.68 77.86 79.46 79.82 79.88 79.53 78.70 77.54 76.45 74.36 73.61 73.56 73.41 72.29 71.38 71.44 72.03 72.97 73.33 74.06 74.62 74.64 75.93 78.45 82.13 85.68 84.00 81.30 82.41 87.23 90.24 87.44 84.02 82.19 81.81 82.58 84.18 86.47 88.65 88.43 86.75 85.38 84.44 84.62 86.90 87.52 85.59 86.05 87.81 87.09 87.06 85.73 84.13 84.73 85.13 85.76 86.66 86.10 82.82 77.26 77.24 78.96 81.58 83.25 79.96 78.22 75.42 74.49 73.85 72.51 71.01 70.55 70.50 70.50 70.50 70.50 70.51 70.50 70.50 70.50 70.50 70.50 70.50 70.50 70.50 70.74 71.13 71.70 72.68 73.32 73.78 74.21 74.85 74.89 74.93 75.48 76.11 76.75 77.35 78.15 78.81 80.06 81.53 83.99 87.70 91.62 92.60 92.31 93.78 94.20 94.98 94.75 93.11 93.36 93.48 91.35 89.92 88.48 86.85 85.76 84.93 84.65 84.63 84.76 85.09 85.12 85.37 85.82 86.36 86.89 87.28 87.15 87.27 87.46 87.64 87.95 88.41 89.04 89.99 90.61 91.47 92.76 94.61 95.30 94.67 93.48 93.31 93.18 93.23 93.46 93.64 93.68 93.61 93.50 93.69 93.16 92.74 92.72
48.60 46.28 46.86 48.55 47.67 46.14 45.57 46.96 47.55 47.68 47.12 46.56 47.16 47.65 48.45 48.69 49.11 49.48 49.77 49.57 49.27 49.25 49.00 48.85 48.85 48.63 47.69 47.27 46.96 47.81 48.72 48.95 49.11 48.97 49.03 49.28 49.47 49.78 49.98 50.12 50.31 50.31 50.40 50.36 50.38 50.54 50.55 50.54 50.37 50.62 50.73 50.68 50.67 50.76 50.78 50.89 50.64 50.48 50.38 50.22 50.20 50.59 50.60 50.42 50.06 49.96 49.87 49.83 50.35 50.09 50.30 50.79 51.17 50.17 49.93 50.46 50.96 50.98 51.20 50.04 49.64 49.41 50.18 49.09 49.48 49.56 50.03 50.25 49.69 49.53 48.96 49.89 50.81 49.60 48.25 48.76 49.09 49.04 49.01 48.80 48.93 49.05 48.76 48.41 48.28 48.35 48.69 48.57 48.28 48.76 49.30 49.57 48.66 48.80 50.21 51.38 51.57 50.22 50.90 50.63 49.23 48.84 49.77 50.43 48.99 48.33 47.93 47.60 47.54 47.74 47.47 47.59 47.59 47.43 47.91 47.94 47.24 47.05 47.29 47.54 47.31 47.61 47.62 47.48 47.78 48.24 48.34 48.16 47.42 46.41 42.89 42.91 46.24 46.38 46.29 46.33 45.67 45.68 42.25 37.62 37.01 37.01 37.17 39.55 44.11 45.10 45.62 46.00 46.55 46.38 46.82 47.27 47.10 47.33 47.58 46.46 43.99 45.29 45.78 46.22 46.28 46.52 47.41 47.63 47.85 48.37 49.09 49.54 49.87 50.49 51.05 51.64 52.55 53.44 54.64 54.79 54.78 55.28 55.99 57.14 56.86 56.30 55.52 54.94 53.53 53.21 53.92 54.61 55.23 55.91 56.67 57.44 57.35 57.21 57.84 59.02 58.92 59.16 59.79 60.24 61.27 63.36 65.11 65.68 65.52 65.63 65.17 65.15 66.10 66.05 66.13 66.39 66.84 68.86 73.60 74.30 74.05 74.57 76.10 76.30 76.23 77.23 77.01 77.19 78.53 79.52 80.75 81.30 80.96 79.58 76.80 74.83 73.89 73.20 72.21 71.27 70.69 70.75 71.21 72.09 72.39 73.15 73.76 73.57 74.90 79.01 85.37 84.88 79.90 78.87 80.87 85.89 88.81 83.94 81.18 80.56 82.27 84.74 86.24 89.16 89.58 88.15 86.72 85.31 84.94 85.18 86.08 86.59 85.85 86.67 88.48 88.36 87.58 85.77 85.84 86.75 87.05 86.60 85.43 82.38 79.18 76.92 78.09 80.07 82.77 84.26 81.51 77.86 76.38 75.60 74.53 74.16 72.75 71.09 70.72 70.56 70.50 70.50 70.70 70.52 70.50 70.50 70.50 70.50 70.50 70.50 70.50 70.57 70.55 71.56 73.24 73.81 74.39 74.85 75.27 75.51 75.34 75.57 76.03 76.58 77.41 78.30 79.00 80.34 82.04 85.32 88.54 90.15 91.95 93.09 92.70 92.99 93.07 93.50 93.58 94.98 94.84 93.01 91.67 90.17 87.25 85.77 84.98 84.37 84.29 84.48 84.88 84.94 85.33 85.78 86.18 86.63 86.79 86.66 86.80 87.17 87.43 87.64 88.27 89.12 90.32 91.16 92.29 93.96 96.27 97.80 95.86 93.81 93.14 92.67 92.65 92.78 92.93 93.05 93.06 93.06 93.21 92.47 92.21 92.18
49.20 48.30 47.63 47.99 48.23 46.69 45.14 46.53 47.44 47.27 46.78 46.56 47.19 48.20 48.70 48.87 49.21 49.38 49.66 49.51 49.37 49.37 49.34 49.18 48.97 48.56 47.71 47.26 47.38 48.04 49.27 49.44 49.53 49.27 49.21 49.49 49.64 49.89 50.13 50.18 50.30 50.35 50.49 50.48 50.51 50.73 50.69 50.68 50.73 50.89 51.11 50.85 50.93 50.82 50.76 50.77 50.68 50.49 50.26 50.03 50.33 50.81 50.86 50.75 50.50 50.29 50.14 50.08 50.31 50.46 50.29 50.73 51.41 50.79 50.43 50.54 50.48 50.98 50.63 50.36 50.34 50.21 50.76 49.40 48.69 49.21 50.16 49.74 49.70 49.44 49.36 49.99 50.00 49.31 48.71 48.89 49.27 49.26 49.07 48.94 49.37 49.40 48.86 48.56 48.39 48.64 48.92 49.10 49.25 49.57 49.06 49.00 48.67 48.32 49.25 51.08 51.28 50.93 50.48 50.19 49.63 49.86 50.67 49.93 48.77 48.64 48.44 47.87 47.63 48.10 48.11 47.89 47.52 47.20 47.37 47.72 47.86 47.24 47.49 47.41 47.06 47.22 47.00 47.12 47.69 48.20 48.43 48.13 48.50 48.12 45.12 42.48 45.11 46.73 46.40 46.14 45.71 45.78 44.36 39.05 37.41 37.38 37.66 39.07 42.50 42.90 43.38 43.87 45.21 44.92 46.25 46.63 45.64 45.24 45.62 44.18 43.83 45.23 45.55 45.67 45.51 46.94 48.13 48.32 48.41 48.82 49.18 49.60 50.13 50.54 51.37 53.66 55.97 56.49 56.84 55.61 54.83 55.47 55.83 56.24 55.51 54.97 54.88 54.12 53.25 53.24 53.95 54.58 55.20 55.66 56.26 56.96 57.39 58.26 58.61 61.02 60.58 60.47 60.97 60.83 61.21 63.07 64.83 66.17 66.52 65.50 65.14 64.62 65.89 65.84 65.59 65.99 66.58 69.70 72.21 73.05 74.62 74.87 75.70 76.82 77.48 77.99 77.13 76.90 76.90 76.97 78.25 79.58 80.39 80.82 79.61 77.56 76.08 73.65 72.59 70.38 69.92 70.35 70.73 71.21 71.75 72.32 72.64 73.06 73.90 77.66 81.69 79.12 77.32 78.26 82.48 86.33 85.05 80.80 79.49 81.14 85.74 88.47 87.72 88.50 88.78 87.43 86.52 85.88 85.77 86.09 87.00 87.29 87.33 87.10 87.96 88.88 87.53 87.49 88.06 87.22 85.11 83.00 81.57 79.66 78.15 77.30 78.94 80.56 83.48 84.98 83.16 78.86 77.46 76.69 75.14 74.78 73.67 72.82 72.30 71.84 71.51 71.35 71.38 70.69 70.50 70.50 70.50 70.50 70.50 70.51 70.58 71.15 70.83 72.14 73.48 74.26 74.71 75.15 75.44 75.87 75.95 75.99 76.26 76.71 77.38 78.11 78.81 80.26 81.96 86.01 90.78 91.54 91.75 90.73 88.38 88.06 88.29 89.51 92.47 96.02 96.42 95.29 94.32 91.28 88.34 85.76 84.71 84.24 84.10 84.22 84.76 85.04 85.35 85.74 85.98 86.20 86.16 86.25 86.62 87.00 87.18 87.53 88.30 89.26 90.55 91.87 93.31 96.16 97.46 99.15 96.33 93.69 92.96 92.37 92.27 92.28 92.42 92.54 92.46 92.64 92.21 92.03 91.75 91.66
48.98 48.89 47.99 47.91 48.63 47.28 45.51 45.74 47.08 47.19 46.86 47.33 47.57 48.40 48.91 48.93 49.14 49.35 49.56 49.55 49.54 49.54 49.48 49.36 49.05 48.70 48.25 47.51 47.77 49.11 49.98 50.14 49.95 49.68 49.59 49.84 49.94 50.12 50.32 50.44 50.52 50.43 50.58 50.72 50.79 50.83 50.80 50.97 51.46 51.30 51.52 51.07 51.08 51.06 50.89 50.89 50.80 50.71 50.53 50.33 50.80 51.23 51.11 51.20 51.00 50.71 50.34 50.47 50.61 50.82 50.59 50.57 50.82 50.79 50.61 51.09 50.85 51.60 51.41 51.31 51.15 51.49 52.35 50.67 50.19 49.22 49.49 49.75 50.18 49.83 49.57 49.84 50.34 49.33 48.46 49.30 49.60 49.41 49.14 49.12 49.23 50.28 49.77 49.22 49.08 49.25 49.24 49.35 49.88 49.84 49.02 49.03 49.18 49.31 50.91 51.15 50.93 51.00 50.20 50.40 49.54 49.61 49.42 48.91 48.39 48.20 48.20 47.98 47.87 48.01 48.05 48.20 48.16 48.02 48.26 47.78 47.48 47.12 47.90 48.22 47.26 47.48 47.06 47.35 47.72 48.24 48.49 48.33 48.62 48.06 46.37 43.27 44.26 47.14 46.67 46.40 45.97 45.91 45.29 40.22 37.56 37.50 37.63 38.43 40.26 40.75 41.35 41.46 43.30 44.73 45.83 46.04 44.37 43.22 43.19 43.67 44.60 45.19 45.78 46.48 46.39 46.42 47.83 48.38 48.61 48.90 49.09 49.48 50.04 50.45 51.20 53.53 55.13 56.13 56.67 56.00 54.26 55.60 56.00 55.76 54.65 53.15 52.88 52.55 52.87 53.41 54.11 54.61 55.14 55.52 55.79 56.28 57.49 59.16 59.69 60.67 60.46 60.56 60.55 60.24 61.03 61.89 62.85 63.97 65.49 65.42 64.92 64.29 65.24 65.82 65.38 65.92 66.86 68.89 69.86 71.18 74.56 74.50 74.47 76.73 77.91 78.29 78.54 77.61 76.34 75.58 75.47 76.83 77.96 79.07 80.52 80.72 78.95 74.43 73.75 71.05 69.62 69.57 69.83 70.42 70.92 71.45 71.92 72.70 73.77 75.59 75.96 76.08 76.70 79.25 83.31 82.21 80.59 78.72 80.25 84.18 88.07 89.98 89.75 89.11 88.07 87.27 87.73 87.07 86.77 87.75 88.80 89.12 88.74 88.61 89.16 89.46 88.43 89.52 89.44 86.00 83.63 81.99 80.45 79.61 78.61 78.20 79.62 81.10 83.32 85.67 86.29 81.46 78.98 77.72 76.08 74.91 74.29 73.55 73.04 72.78 72.77 72.73 72.60 71.83 70.64 70.50 70.50 70.50 70.50 70.59 71.05 71.62 71.11 71.39 73.02 73.87 74.51 74.88 75.16 75.45 75.64 75.91 76.35 76.66 77.32 77.93 78.61 80.10 82.13 85.36 88.73 90.72 92.62 89.06 86.18 85.80 86.05 87.06 89.71 93.06 95.85 97.10 96.47 94.16 89.31 85.90 84.97 84.35 84.21 84.36 84.65 84.92 85.01 85.33 85.60 85.68 85.89 85.87 86.43 86.79 87.11 87.58 88.37 89.58 91.24 93.60 95.68 97.91 99.02 99.76 96.96 93.92 93.09 92.21 91.76 91.75 91.74 91.87 91.98 92.08 91.81 91.59 91.44 91.33
48.69 49.13 48.78 47.91 48.40 47.47 46.16 45.51 47.01 47.63 47.93 48.47 48.60 48.91 49.03 49.14 49.24 49.24 49.55 49.61 49.54 49.68 49.53 49.34 49.10 48.65 48.22 47.76 48.39 48.73 48.57 48.69 49.58 49.85 49.87 50.01 50.20 50.34 50.47 50.60 50.74 50.86 50.81 50.90 50.92 50.90 50.97 51.23 51.91 51.80 51.88 51.42 51.25 51.27 51.11 51.10 50.98 50.91 50.92 50.79 50.88 51.18 51.44 51.50 51.25 50.74 50.62 50.71 50.71 50.77 51.00 50.92 50.96 50.87 51.04 52.25 52.38 52.23 52.20 51.97 52.43 51.97 52.37 52.27 50.62 50.22 49.36 49.74 50.19 50.34 50.28 50.65 50.50 49.02 48.77 50.46 50.94 49.75 49.50 49.42 49.25 50.20 50.38 49.35 49.02 48.80 48.89 49.08 50.08 50.13 49.98 49.03 49.21 50.15 51.83 51.52 51.83 50.66 49.44 49.32 49.08 49.32 49.29 49.21 48.57 48.32 48.51 48.35 48.12 48.09 47.93 47.91 48.19 48.12 47.95 48.15 47.64 47.05 48.22 48.73 47.28 47.35 47.51 47.44 47.45 47.95 48.70 48.22 48.03 48.07 46.79 43.71 43.81 47.41 47.21 46.57 46.33 46.39 45.21 41.26 37.69 37.50 37.52 37.97 40.88 43.49 44.00 43.70 42.07 43.06 44.04 44.02 43.02 43.19 43.73 44.55 44.88 45.53 46.27 46.74 46.94 45.62 46.35 48.03 48.76 49.21 49.65 49.56 50.02 50.54 51.14 52.18 53.07 54.57 53.95 53.06 53.33 54.30 55.60 55.41 53.69 51.96 51.94 53.46 53.63 54.51 54.87 54.71 54.92 55.24 55.71 56.18 56.77 58.09 59.39 60.47 60.94 61.88 60.48 59.60 60.35 60.82 61.41 62.51 63.38 65.15 64.86 64.35 64.28 64.80 65.28 66.35 66.59 67.09 67.57 68.85 71.11 71.46 73.33 76.29 77.72 78.68 79.08 78.31 77.32 76.92 75.33 74.52 75.09 76.23 78.16 80.63 80.42 76.77 74.57 72.12 70.33 69.39 69.58 69.99 70.57 70.85 71.80 75.04 75.54 75.56 75.79 75.83 77.67 81.93 80.20 78.37 78.07 78.92 83.02 88.82 90.44 89.95 88.97 87.80 86.37 85.80 88.24 88.60 87.78 89.00 90.33 90.84 89.85 90.41 90.50 90.01 89.77 90.80 90.16 86.48 84.28 83.11 82.59 80.21 78.50 79.31 80.87 82.49 84.53 87.59 87.42 82.96 81.98 79.85 78.76 78.02 75.87 74.84 74.15 73.78 73.13 73.07 72.66 72.38 71.40 70.52 70.50 70.50 70.50 70.52 70.79 71.63 72.25 72.45 73.27 74.01 74.72 75.30 75.72 75.64 75.40 75.68 76.14 76.57 76.99 77.55 78.28 79.85 81.53 83.64 85.81 89.42 92.05 88.65 85.34 84.73 85.11 85.93 87.71 90.75 95.05 97.92 97.72 92.71 88.16 85.74 84.27 84.00 83.75 84.06 84.35 84.87 84.85 84.92 85.23 85.46 85.83 85.61 86.29 86.51 86.88 87.54 88.46 89.91 92.61 97.08 100.11 100.18 100.84 100.63 96.96 93.92 93.08 92.46 91.83 90.99 90.80 90.95 90.99 91.64 91.25 91.25 90.98 90.82
48.98 48.98 49.12 48.88 48.83 48.31 47.41 45.60 46.47 47.70 48.09 48.55 48.84 48.97 49.01 49.30 49.48 49.52 49.87 49.80 49.82 49.83 49.66 49.45 49.22 48.76 48.36 47.86 48.83 49.14 49.17 49.27 49.56 49.89 50.09 50.11 50.38 50.67 50.88 51.01 51.03 51.15 51.16 51.15 51.30 51.18 51.19 51.27 51.25 51.21 51.51 51.41 51.39 51.28 51.27 51.25 51.02 50.81 50.94 50.81 51.21 51.45 51.88 51.71 51.03 50.62 50.80 50.98 51.03 51.04 51.34 51.45 51.47 51.88 51.57 52.20 52.63 53.19 52.79 53.04 52.84 52.39 51.97 51.28 50.25 50.31 50.25 50.44 50.68 50.41 49.83 49.89 49.60 49.29 49.29 51.01 51.38 50.31 49.90 49.79 49.74 49.97 50.02 49.83 49.34 48.90 48.92 49.50 50.05 50.59 50.83 49.72 49.50 49.34 49.84 50.97 51.51 50.74 49.73 49.26 49.15 49.77 50.56 50.39 49.12 48.60 48.66 48.44 48.38 48.69 48.37 48.11 48.48 48.96 48.10 48.10 47.97 47.47 48.51 48.35 47.46 47.44 47.31 47.20 47.37 47.67 47.90 47.89 48.08 48.36 47.77 44.80 43.11 46.97 47.11 46.42 46.21 46.01 44.53 41.60 37.94 37.50 37.50 37.54 40.23 43.92 44.83 45.55 44.72 43.30 42.70 42.58 42.98 44.55 44.28 44.78 45.43 46.64 47.00 46.94 47.39 46.35 45.83 47.18 48.56 49.38 49.78 49.62 50.13 50.53 50.99 51.75 52.72 53.03 52.92 52.03 52.16 53.18 54.04 53.57 52.40 51.71 52.89 54.38 54.52 55.08 54.86 54.92 54.83 55.08 55.93 56.61 57.48 57.90 58.52 59.67 60.32 60.96 60.74 59.76 60.20 60.72 62.00 62.65 62.86 64.01 64.16 64.24 64.12 64.39 64.99 66.78 66.24 66.29 66.70 67.72 69.10 70.55 73.95 76.00 77.38 78.55 78.89 76.89 76.68 77.44 77.06 75.61 74.30 74.52 75.94 78.84 79.44 78.10 76.19 73.18 71.70 69.59 69.20 69.70 69.98 70.01 70.81 75.21 75.61 74.82 74.51 75.36 79.97 79.34 77.18 77.28 77.68 79.77 85.28 89.71 89.27 87.40 84.90 84.08 83.72 84.65 87.63 88.94 88.49 89.46 90.82 91.06 90.94 91.44 92.12 91.15 91.74 92.58 91.57 89.11 86.33 85.20 85.39 80.57 79.40 79.95 82.02 84.58 85.16 87.93 89.14 85.71 85.20 83.27 83.04 82.62 77.41 75.45 74.55 74.16 73.61 73.34 73.01 72.04 71.00 70.67 70.54 70.50 70.50 70.50 70.89 72.22 72.99 73.35 73.45 73.88 74.20 74.69 75.10 75.25 75.38 75.58 75.98 76.81 76.89 77.14 78.06 79.27 80.83 82.49 84.71 88.69 91.00 87.03 84.57 84.04 84.58 85.44 86.99 89.65 93.95 97.14 96.79 91.24 87.35 84.98 83.98 83.76 83.64 83.99 84.11 84.29 84.43 84.49 84.76 84.98 85.25 85.34 86.00 86.35 86.57 87.43 88.49 90.15 93.01 97.64 100.86 102.31 102.43 101.07 96.83 93.98 92.95 92.27 91.75 91.20 90.98 90.72 90.59 91.17 90.87 90.79 90.51 90.36
49.29 49.05 49.16 49.11 48.89 48.69 48.05 46.08 45.92 47.68 48.40 48.86 49.02 49.17 49.24 49.33 49.51 48.90 49.74 49.93 49.99 49.94 49.87 49.60 49.43 49.01 48.57 47.91 48.51 49.36 49.63 49.69 49.67 50.02 50.24 50.35 50.53 50.77 51.05 51.23 51.42 51.46 51.44 51.61 51.59 51.64 51.56 51.51 51.42 51.24 51.51 51.52 51.59 51.45 51.35 51.28 50.92 50.82 51.36 51.47 51.62 51.80 51.85 51.58 51.19 51.05 51.08 51.28 51.30 51.34 51.35 52.00 51.77 52.26 52.62 52.30 52.74 53.22 52.65 52.97 52.52 52.47 51.80 51.42 50.55 50.69 50.74 50.44 50.29 50.51 50.36 50.04 49.95 49.75 49.21 50.52 51.05 50.98 50.21 49.44 49.60 50.17 50.86 50.62 49.78 49.12 49.31 49.58 49.94 51.34 50.60 49.82 49.62 49.96 50.37 50.95 50.61 50.49 49.69 49.67 50.04 49.89 50.19 50.37 49.24 48.89 48.87 48.50 48.55 49.03 48.82 48.51 48.66 49.06 48.51 48.18 47.88 47.76 48.50 48.55 47.51 47.32 47.47 47.36 47.48 47.62 47.80 48.26 48.44 48.43 48.20 46.46 42.97 44.73 46.24 46.41 46.24 46.28 45.52 43.02 38.51 37.50 37.50 37.50 39.50 42.99 44.08 44.78 46.45 46.82 46.10 45.48 44.47 45.37 46.52 47.31 48.01 48.30 48.09 47.68 48.01 47.71 46.02 46.37 48.16 49.11 49.77 49.63 49.97 50.37 50.95 51.80 52.44 52.27 52.29 51.59 51.62 52.16 52.25 52.13 52.45 52.22 53.76 54.82 54.86 54.54 54.60 54.54 54.48 54.72 55.62 57.25 57.42 57.86 59.02 59.06 59.75 61.02 61.15 60.07 60.41 60.80 62.55 63.40 63.83 64.23 63.91 63.77 63.84 64.04 64.31 65.32 64.95 65.15 66.11 66.94 67.97 69.93 74.02 75.29 75.06 75.67 76.68 76.50 75.63 76.63 77.60 78.31 76.20 74.40 73.97 74.39 74.47 72.94 72.60 72.95 73.14 70.55 68.85 68.96 69.41 69.23 69.91 72.48 73.30 73.99 74.94 75.68 77.02 75.83 76.19 76.87 77.70 81.11 86.69 88.99 87.35 84.12 82.28 82.29 83.00 84.75 88.21 90.42 89.86 90.13 90.82 92.08 92.91 93.02 93.07 92.13 93.08 93.85 92.52 90.48 88.03 84.56 82.34 80.15 80.76 81.91 82.49 85.63 86.51 87.59 90.53 89.92 88.02 85.80 83.54 81.87 77.41 76.42 74.98 74.43 74.38 73.90 73.45 72.71 71.73 71.62 71.76 71.23 70.59 70.53 70.56 71.50 72.98 73.38 73.64 73.80 73.97 74.30 74.50 74.90 75.15 75.23 75.71 76.43 76.82 77.04 77.67 78.91 80.20 81.79 84.56 87.76 88.73 86.13 83.97 83.42 84.25 85.26 86.46 88.69 92.58 95.26 95.12 90.34 86.44 84.15 83.50 83.39 83.42 83.59 83.82 84.11 84.57 84.51 84.45 84.74 84.95 85.02 85.73 86.17 86.51 87.37 88.50 90.06 92.08 95.10 99.96 102.90 103.02 101.73 97.65 94.07 92.77 92.05 91.53 91.21 90.94 90.90 90.88 90.81 90.55 90.76 90.33 90.20
49.19 49.08 49.32 49.07 49.19 49.00 48.26 46.63 45.65 47.66 48.52 48.82 48.97 49.16 49.28 49.53 49.62 49.43 49.82 49.89 49.96 49.97 49.81 49.68 49.46 49.12 48.84 47.97 47.84 48.77 49.23 49.37 49.32 49.93 50.35 50.51 50.70 50.93 51.13 51.32 51.57 51.72 52.08 52.20 51.93 51.88 51.65 51.62 51.63 51.68 51.71 51.66 51.69 51.59 51.54 51.35 51.12 51.27 51.28 51.59 51.51 51.78 51.94 51.92 51.55 51.35 51.57 51.63 51.70 51.64 51.81 52.03 52.10 51.66 51.88 51.78 52.31 53.54 53.44 53.06 52.47 52.26 52.24 51.12 50.90 50.68 50.93 50.78 50.43 50.59 50.66 50.50 50.43 49.70 49.74 50.10 50.45 50.72 50.68 49.50 49.64 50.27 51.23 50.58 49.84 49.34 49.40 49.55 50.37 51.60 51.19 49.64 49.48 50.09 50.02 49.73 49.54 50.02 49.89 49.90 50.67 50.10 50.73 50.72 49.58 49.43 49.27 48.72 49.12 49.16 49.13 48.63 48.27 48.29 48.08 48.21 48.15 48.05 48.97 48.30 47.55 47.36 47.71 47.84 47.35 47.68 48.09 48.32 48.41 48.48 48.87 47.97 44.25 42.95 45.43 46.51 46.43 46.56 46.79 44.67 39.67 37.66 37.50 37.50 38.52 42.34 43.76 44.12 46.02 47.01 47.24 46.73 45.57 45.97 47.72 48.85 49.55 49.24 48.72 48.38 48.11 48.26 47.48 46.62 47.41 48.56 49.44 49.61 49.79 50.36 51.36 52.14 52.11 51.70 51.55 51.32 51.27 51.55 51.19 51.47 52.58 52.86 54.10 54.65 54.26 53.82 54.02 54.08 54.31 54.47 55.05 56.29 56.42 57.45 58.84 58.87 58.57 59.69 60.32 59.93 60.42 60.79 62.34 63.26 64.49 65.26 64.86 64.35 63.91 63.86 64.00 64.09 64.18 64.44 65.40 66.24 67.20 68.77 71.80 71.49 67.98 70.80 73.64 75.00 73.57 74.32 76.81 79.04 78.97 75.85 72.99 72.02 71.82 71.28 71.18 71.45 72.62 71.35 69.09 68.32 68.69 68.82 69.63 71.78 72.29 74.08 75.87 74.71 74.56 74.99 75.78 76.62 78.02 83.04 86.51 85.94 84.50 82.08 80.96 81.64 83.49 86.60 90.18 91.69 91.08 91.49 91.46 92.13 93.79 94.34 94.44 94.07 94.19 93.81 92.43 89.86 87.11 83.44 80.96 81.20 82.10 84.83 85.09 85.16 87.76 89.79 92.25 91.73 87.91 84.56 81.19 79.47 77.59 76.81 75.88 75.23 74.89 74.57 73.41 72.64 72.63 72.48 72.84 72.62 71.83 70.70 70.50 70.62 72.18 73.43 73.80 73.81 73.75 73.88 74.44 74.77 74.86 75.09 75.30 75.59 76.05 76.79 77.75 78.40 79.23 81.23 83.96 84.91 86.22 85.94 83.75 83.09 84.01 84.70 85.54 87.19 90.08 92.64 92.08 89.24 85.57 83.53 83.10 83.00 83.09 83.24 83.72 83.96 84.39 84.31 84.39 84.65 84.57 84.65 85.19 85.68 86.39 87.31 88.40 89.95 91.85 94.24 98.31 101.90 102.80 102.64 99.08 94.18 92.58 91.83 91.32 91.08 90.72 90.33 90.30 90.27 90.07 90.18 90.39 90.11
49.43 49.43 49.49 49.39 49.55 49.18 48.44 47.28 45.86 47.31 48.39 48.75 49.11 49.28 49.38 49.62 49.79 49.89 49.93 49.97 50.03 49.98 49.91 49.66 49.43 49.19 48.82 48.10 48.21 48.78 49.11 49.62 49.77 49.78 50.20 50.52 50.74 50.93 51.14 51.46 51.65 51.94 52.37 52.53 52.41 52.24 51.99 51.96 51.88 51.87 51.91 51.88 51.97 51.77 51.56 51.48 51.51 51.71 51.59 51.95 51.66 51.99 52.07 52.05 51.40 51.42 51.69 51.82 52.22 52.09 52.21 52.10 52.13 52.05 52.33 52.71 53.20 53.69 53.46 53.39 53.05 52.04 51.99 51.50 51.56 51.14 51.21 51.06 51.05 51.35 51.52 51.33 50.80 49.69 49.88 50.01 50.32 50.61 50.17 49.65 49.65 50.75 50.82 50.11 49.56 49.58 49.64 49.86 50.02 50.99 50.62 49.78 49.25 49.25 49.29 49.39 49.68 50.51 50.39 50.02 50.64 50.37 51.09 50.75 49.98 49.82 49.59 49.27 49.35 49.13 49.01 48.60 48.44 48.51 48.40 48.46 48.49 48.29 48.93 48.77 48.27 48.11 48.08 48.19 47.51 47.68 47.95 47.93 48.05 48.98 49.06 47.63 45.13 42.33 44.43 46.54 46.64 46.67 46.89 45.50 41.02 37.98 37.50 37.50 38.15 42.40 45.02 45.10 45.23 46.81 47.30 46.75 45.76 46.37 47.49 48.75 49.69 49.67 49.12 48.90 48.48 48.28 48.21 47.55 46.37 46.90 48.18 48.96 49.63 50.39 51.77 52.47 52.25 51.89 51.23 50.90 50.89 50.87 51.12 51.78 52.97 53.01 53.82 53.65 53.34 53.52 53.83 53.86 54.15 54.48 54.92 55.29 55.62 56.49 58.10 58.38 58.16 58.97 59.23 60.31 61.51 61.10 62.21 63.33 66.02 65.83 65.68 65.93 64.69 63.83 63.48 63.36 63.66 63.92 64.54 65.44 66.65 67.95 69.78 70.34 68.79 70.20 71.78 72.44 72.45 72.39 74.72 76.15 78.26 77.65 73.67 71.46 71.08 70.91 70.47 70.15 69.93 69.43 68.85 68.51 68.92 69.22 70.50 73.03 72.63 72.40 73.30 73.60 73.99 74.67 75.57 76.71 80.35 83.15 82.95 81.73 80.69 80.28 80.33 81.69 83.98 88.14 90.97 90.97 91.26 91.53 92.46 93.05 93.97 92.47 91.54 91.53 92.99 91.20 89.81 89.77 87.07 83.21 82.23 83.29 83.55 85.16 87.16 87.21 90.26 92.28 91.64 89.38 86.29 82.79 80.12 79.22 78.60 76.74 76.20 75.21 75.59 76.98 74.37 73.37 73.48 73.13 73.66 73.53 72.17 70.67 70.50 70.50 71.03 72.49 73.27 73.37 73.53 73.66 73.85 74.27 74.65 74.96 75.21 75.67 75.79 76.36 77.44 78.16 78.73 80.30 81.66 81.98 83.26 84.56 82.87 82.51 83.01 83.46 84.52 85.88 87.80 89.50 89.20 88.78 84.87 83.03 82.75 82.79 82.79 83.00 83.38 83.44 83.73 83.83 84.09 84.30 84.19 84.42 85.04 85.43 86.23 87.18 88.33 89.86 91.61 93.51 97.42 102.65 103.54 103.86 100.21 94.15 92.34 91.38 90.97 90.45 90.25 89.85 89.74 89.83 90.07 90.24 89.97 89.55
49.62 49.60 49.67 49.65 49.62 49.33 48.65 47.43 46.21 46.92 48.70 49.14 49.35 49.46 49.58 49.63 49.75 49.94 50.01 50.08 50.04 50.08 50.02 49.78 49.66 49.40 48.96 48.45 48.89 49.25 49.61 49.87 50.10 49.85 50.06 50.61 51.00 51.18 51.43 51.76 51.91 52.16 52.46 52.62 52.68 52.68 52.50 52.44 52.23 51.99 52.08 52.07 52.27 52.05 51.99 52.13 52.17 52.25 52.05 52.48 52.26 52.46 52.40 52.02 51.65 51.90 52.34 52.60 52.74 52.60 52.70 52.51 52.46 52.97 53.35 54.37 54.38 54.43 53.83 53.94 53.35 52.32 52.07 51.82 51.14 50.90 51.12 51.12 51.89 51.65 51.37 50.69 48.93 48.63 49.89 50.25 50.32 50.81 50.64 50.22 50.34 51.10 50.92 50.08 49.76 49.87 49.95 50.16 49.87 50.49 50.25 49.71 49.44 49.24 49.63 50.17 50.66 50.62 50.45 50.21 50.33 50.33 50.56 50.72 50.49 50.26 49.74 49.36 49.48 49.25 49.08 48.84 48.69 48.71 48.84 49.14 49.67 49.19 48.18 49.01 49.08 48.25 47.98 47.98 47.58 47.68 48.05 48.58 48.97 50.23 48.91 47.17 46.14 42.92 43.61 46.39 46.72 46.60 46.78 46.11 41.85 38.19 37.53 37.50 37.96 41.98 44.90 45.99 45.25 46.54 47.25 47.10 46.70 47.10 47.77 48.56 49.56 49.91 49.45 49.21 48.84 48.63 48.55 48.06 47.06 46.43 46.66 47.27 48.44 49.42 51.06 51.74 51.39 50.85 50.44 49.94 50.13 50.44 51.09 51.90 52.81 52.71 52.86 52.97 53.14 53.52 53.60 53.89 54.12 54.52 54.90 55.25 55.71 56.10 56.64 57.39 57.89 57.62 58.18 59.91 61.17 61.39 62.39 63.77 66.73 66.30 66.21 66.87 66.76 65.77 63.55 62.97 63.08 63.40 63.92 64.63 65.88 67.08 68.84 70.38 72.59 72.39 70.80 70.15 71.47 70.88 71.55 72.32 74.09 77.06 75.33 71.80 70.67 70.62 70.28 69.41 69.05 68.69 68.23 68.22 69.06 69.58 71.40 72.39 71.70 72.08 73.11 74.59 75.97 75.44 77.08 79.05 81.52 79.50 79.60 79.86 79.14 79.25 80.20 81.99 84.98 88.86 90.73 89.81 89.95 90.46 91.44 92.61 93.04 91.76 89.33 88.23 90.28 89.23 86.80 85.88 84.08 82.71 84.23 85.19 85.60 85.49 87.39 90.20 92.38 92.39 88.31 86.05 83.84 82.07 81.10 79.59 78.94 76.93 76.19 75.96 76.57 78.22 76.02 74.10 73.98 73.77 74.42 73.98 72.09 70.94 71.26 70.60 70.51 70.87 72.63 73.10 73.21 73.54 73.71 74.03 74.18 74.34 74.83 75.41 75.65 76.20 76.78 77.19 77.84 79.12 80.41 80.58 81.68 82.13 81.60 81.76 82.08 82.41 83.31 84.78 86.04 87.01 88.44 88.67 84.66 82.40 82.40 82.58 82.68 83.01 83.14 83.20 83.35 83.46 83.70 83.87 83.74 84.04 84.73 85.16 85.88 86.80 87.80 89.24 90.90 92.71 97.62 101.77 102.67 103.67 100.00 95.22 92.83 91.12 90.45 90.05 89.77 89.47 89.34 89.88 90.54 89.75 89.34 89.48
49.62 49.61 49.87 49.72 49.44 49.29 48.61 47.22 46.40 46.90 48.83 49.32 49.48 49.56 49.66 49.83 49.89 49.93 50.12 50.20 50.17 50.18 50.06 50.03 49.93 49.70 48.90 48.65 49.30 49.32 49.61 49.97 50.30 50.21 50.30 50.77 51.25 51.50 51.71 52.00 52.22 52.54 52.68 52.82 52.97 52.87 52.80 52.71 52.45 52.19 52.24 52.30 52.52 52.36 52.19 52.26 52.58 52.59 52.57 52.96 52.72 52.70 52.76 52.71 52.69 52.71 52.86 53.16 53.15 53.23 53.39 53.31 53.66 55.14 54.90 54.62 54.85 55.36 54.80 54.56 54.03 53.18 52.43 51.70 51.53 51.19 51.30 52.14 52.17 51.59 51.11 49.93 48.80 49.20 50.18 51.00 51.40 50.92 50.30 50.02 50.38 51.18 50.88 50.18 50.19 50.21 50.19 50.27 50.62 50.50 50.54 49.90 49.65 49.74 50.30 51.18 51.92 51.06 50.55 50.23 50.31 50.75 50.93 51.19 50.79 50.16 49.58 49.49 49.48 49.40 49.26 49.03 48.93 48.78 48.60 49.88 50.54 50.20 49.05 49.05 49.03 48.04 47.80 47.80 47.97 47.87 48.22 49.13 49.02 49.60 48.64 47.91 47.41 43.31 42.86 46.19 47.13 46.92 47.03 46.37 42.52 38.69 37.64 37.50 37.83 41.62 44.54 45.95 45.76 46.11 47.23 47.30 47.26 47.36 47.68 48.34 49.19 49.79 49.79 49.57 49.34 49.16 48.96 48.47 47.73 47.68 47.73 47.12 46.97 47.24 48.16 49.18 50.14 49.55 49.23 49.64 50.33 50.92 51.08 51.52 52.69 53.08 52.79 52.90 53.32 54.20 54.47 54.65 54.46 54.51 55.01 55.29 55.66 56.05 56.36 56.87 57.25 57.55 58.41 59.58 60.99 61.84 62.56 63.75 65.38 64.81 64.43 64.82 65.88 67.42 64.73 62.80 62.59 62.68 63.27 64.04 65.01 66.35 68.32 70.47 73.18 74.21 71.05 69.70 69.90 70.77 70.98 70.67 71.91 74.80 75.75 72.91 71.01 70.28 69.74 69.21 68.69 68.27 67.86 67.71 68.46 70.22 71.63 72.27 71.48 72.44 76.85 77.37 75.70 75.70 76.62 77.78 76.53 76.33 77.37 78.31 78.17 78.95 80.34 82.58 86.92 89.64 89.58 88.91 88.61 89.23 90.21 91.59 92.29 88.66 85.72 86.73 87.32 86.34 84.71 83.81 83.35 83.65 85.28 86.89 87.76 87.44 87.59 89.99 93.21 92.74 89.62 86.42 83.93 83.86 85.41 81.52 78.63 76.50 75.84 76.05 77.00 79.39 77.89 75.88 75.14 74.67 74.94 73.69 72.76 71.65 71.49 70.54 70.58 71.02 71.55 72.35 72.84 73.31 73.53 74.18 74.32 74.28 74.65 75.10 75.48 75.79 76.20 76.75 77.30 78.29 79.09 79.33 80.17 80.58 80.64 80.98 81.56 81.71 82.42 83.57 84.56 85.75 87.89 86.70 83.05 82.04 82.21 82.53 82.53 82.82 83.04 83.05 83.15 83.25 83.23 83.50 83.19 83.80 84.24 84.77 85.44 86.42 87.16 88.15 89.67 91.46 94.05 97.40 101.08 100.04 97.06 98.96 95.14 90.98 90.00 89.73 89.45 89.20 89.20 89.53 89.65 89.52 89.02 89.31
49.78 49.70 49.76 49.64 49.22 48.94 48.14 46.84 46.57 47.01 48.78 49.24 49.49 49.58 49.69 49.81 49.92 49.99 50.07 50.22 50.21 50.26 50.20 49.97 49.75 49.40 48.76 48.74 49.62 49.64 49.72 50.12 50.51 50.51 50.54 50.96 51.28 51.60 51.93 52.20 52.37 52.68 52.86 52.98 52.97 52.86 52.86 52.80 52.63 52.36 52.41 52.62 52.68 52.78 52.70 52.88 53.04 53.04 52.93 53.11 53.01 53.01 53.25 53.63 53.83 53.80 54.18 53.87 54.11 54.38 54.40 53.98 54.48 55.95 55.80 55.03 56.20 56.84 56.02 55.33 54.41 53.11 51.94 51.82 52.82 50.72 50.26 52.10 51.23 50.37 49.52 48.89 48.85 49.43 50.45 51.75 52.38 51.43 50.23 49.93 50.39 51.62 51.71 50.92 50.44 50.35 50.46 50.63 50.62 50.01 50.16 50.02 49.67 50.17 51.97 51.11 51.96 51.63 51.02 50.77 50.49 50.65 50.79 50.92 50.49 49.90 49.84 49.78 49.78 49.79 49.60 49.19 49.09 48.97 48.91 49.68 50.34 50.66 49.96 49.28 48.44 48.17 48.25 48.03 47.92 48.04 47.78 48.64 48.40 48.87 48.85 48.22 47.52 43.91 42.39 46.05 47.54 47.54 47.33 47.00 44.58 39.08 37.58 37.50 37.66 40.89 44.41 46.11 46.41 46.61 47.26 47.57 47.79 48.07 47.91 48.09 48.95 49.55 50.00 49.55 49.57 49.42 49.18 48.98 48.35 47.95 48.68 48.92 48.98 48.54 48.02 48.09 49.05 49.18 49.04 49.33 49.95 50.69 51.51 52.24 53.12 53.26 53.25 53.46 53.84 54.62 54.98 55.81 55.38 54.65 55.01 55.12 55.54 55.93 56.24 56.65 57.07 57.51 58.45 59.70 62.45 62.91 62.56 63.33 64.30 64.33 63.45 63.00 64.41 66.21 64.03 62.47 62.17 62.28 62.84 63.58 64.45 65.66 67.26 69.72 73.45 74.14 70.88 69.61 68.90 70.19 70.67 69.73 70.41 72.59 73.88 74.38 73.22 71.50 70.50 69.11 68.35 67.73 67.52 67.76 69.74 72.00 72.38 71.76 70.80 71.91 73.76 72.44 72.36 72.82 73.72 74.21 74.40 75.25 75.90 76.96 78.22 79.72 81.67 84.14 87.72 89.30 88.07 87.07 87.28 88.05 89.61 90.58 91.58 89.27 86.09 87.35 86.75 85.64 84.70 84.30 85.87 85.47 87.13 89.05 91.17 90.32 89.33 90.31 92.76 91.68 89.94 88.40 85.47 86.44 88.69 83.59 78.68 76.99 76.42 76.32 77.11 79.39 79.07 77.64 76.10 75.31 74.29 73.60 71.91 71.37 70.91 70.50 70.64 70.79 70.57 71.91 73.10 73.31 73.70 74.02 74.06 74.60 74.99 75.25 75.50 75.97 76.22 76.67 77.24 78.00 78.76 79.20 79.92 80.37 80.89 81.14 81.21 81.36 81.67 82.47 83.70 84.10 85.55 84.13 82.11 81.92 82.14 82.42 82.41 82.46 82.75 82.95 82.91 82.93 83.25 83.09 83.20 84.04 84.56 85.23 85.69 85.84 86.52 87.46 88.62 89.98 91.68 96.13 97.67 93.61 93.07 94.65 92.84 90.12 89.28 89.33 89.18 88.98 88.79 88.74 88.77 88.80 88.64 89.05
49.86 49.76 49.84 49.63 49.30 48.52 47.51 47.09 46.99 47.26 48.65 49.25 49.54 49.67 49.80 49.82 50.08 50.20 50.21 50.32 50.26 50.35 50.30 50.16 49.98 49.75 49.62 48.78 49.47 49.78 49.86 50.29 50.69 50.70 50.59 50.98 51.29 51.43 51.70 51.91 52.18 52.44 52.63 52.79 52.72 52.72 52.67 52.75 52.70 52.53 52.53 52.74 52.89 53.15 53.18 53.37 53.54 53.62 53.32 53.20 53.37 53.48 53.74 54.17 54.47 54.84 55.40 54.38 54.22 54.47 54.42 54.30 54.38 54.73 55.08 55.92 57.29 57.74 57.40 56.11 54.86 53.65 53.39 52.90 50.72 48.76 49.76 52.10 51.26 49.98 49.65 49.58 49.93 50.23 50.77 51.97 52.12 51.15 50.69 50.18 50.44 51.41 51.89 51.11 50.60 50.60 50.49 50.35 50.16 50.12 50.20 49.87 50.07 50.45 51.06 51.16 51.96 51.84 51.44 51.26 50.99 50.95 50.82 50.77 50.50 50.18 50.05 49.83 50.00 49.95 49.94 49.66 49.38 49.28 49.40 49.58 50.83 50.93 50.57 50.19 49.24 48.44 47.94 47.81 47.75 47.86 47.55 47.84 47.98 48.43 48.94 47.61 47.14 45.73 44.06 45.40 47.39 47.78 47.52 47.37 46.25 40.22 37.66 37.50 37.56 40.17 43.97 46.41 46.49 46.93 47.24 47.51 47.79 48.01 47.90 48.07 48.67 49.12 49.45 49.67 49.72 49.69 49.56 49.22 48.84 48.06 48.63 49.29 49.86 50.00 49.84 49.93 50.61 51.22 49.79 49.09 49.48 50.25 51.33 52.41 53.78 53.85 53.55 53.70 54.08 54.73 55.17 55.81 56.06 55.82 55.90 55.88 55.77 55.95 56.16 56.43 56.87 57.40 58.34 59.24 61.34 63.32 63.12 63.11 63.28 63.53 63.56 62.96 63.47 65.72 64.49 62.35 61.50 61.62 62.12 63.21 64.01 64.72 65.97 68.50 72.25 73.39 72.26 71.09 69.13 69.28 69.57 69.13 69.96 71.17 72.00 74.11 76.16 73.32 71.16 69.79 68.25 67.21 67.10 68.11 70.55 71.66 71.30 70.05 69.46 69.71 69.98 70.49 71.29 71.79 72.18 73.12 73.79 74.63 75.86 76.97 78.62 81.48 85.48 86.94 87.88 87.74 86.18 85.73 87.81 88.95 89.17 90.13 91.51 90.10 87.15 87.78 87.93 87.04 85.89 85.86 86.71 86.28 88.30 90.91 91.97 91.60 90.35 89.93 90.64 89.23 89.22 88.70 85.92 85.32 86.09 82.23 78.61 77.73 76.66 76.43 77.26 79.58 79.39 78.35 76.67 75.43 74.90 73.88 72.28 72.18 70.70 70.79 71.06 70.92 71.26 72.38 73.26 73.23 73.38 73.56 73.88 74.70 75.34 75.42 75.61 75.90 76.07 76.62 77.10 77.47 78.14 78.54 79.16 79.59 79.99 80.66 80.61 81.13 81.31 81.78 83.10 82.65 82.79 82.69 82.28 82.02 82.11 81.99 82.33 82.54 82.48 82.76 82.73 82.57 82.56 82.70 83.71 84.56 84.84 84.89 85.24 85.75 85.83 86.35 87.42 88.43 89.44 91.08 90.97 90.54 90.56 89.79 89.36 88.89 88.73 88.83 88.99 88.48 88.29 88.34 88.33 88.39 88.47 88.80
50.06 49.90 49.92 49.77 49.45 48.91 47.72 47.35 46.83 47.45 48.22 49.13 49.61 49.67 49.85 50.00 50.15 50.21 50.34 50.44 50.37 50.40 50.40 50.45 50.27 50.07 50.01 49.22 49.39 49.60 49.86 50.47 50.81 50.82 50.88 50.85 51.08 51.20 51.33 51.54 51.80 52.20 52.54 52.60 52.41 52.57 52.52 52.62 52.64 52.50 52.57 52.73 52.98 53.28 53.51 53.78 54.08 54.21 53.91 53.78 53.79 54.02 54.40 54.70 54.79 54.96 55.20 55.04 54.81 55.15 54.99 54.96 54.87 55.06 55.26 56.28 57.14 57.45 56.89 55.95 54.96 53.81 53.41 51.38 48.30 48.65 51.68 52.69 51.82 51.09 50.62 50.32 50.48 50.38 50.55 51.07 51.67 51.65 51.19 50.80 51.07 51.08 50.67 50.64 50.97 51.06 50.78 50.57 50.49 50.44 50.30 50.06 50.19 50.43 50.66 51.07 51.59 51.96 51.86 51.86 51.38 51.18 51.09 50.90 50.72 50.43 50.39 50.06 50.18 50.05 49.89 49.71 49.53 49.51 49.77 49.94 51.02 50.95 50.17 50.04 49.91 48.83 47.99 47.89 47.90 47.85 47.65 47.67 47.81 48.04 49.32 48.86 48.31 46.50 45.11 44.57 47.31 47.91 47.69 47.39 46.82 41.68 37.71 37.50 37.50 39.36 43.21 45.63 46.44 46.96 47.32 47.53 47.83 48.02 48.04 48.08 48.38 48.64 49.00 49.59 49.77 49.75 49.70 49.59 49.20 48.53 48.36 48.93 49.74 50.22 50.43 50.92 52.06 53.24 51.73 49.82 49.39 50.46 51.09 51.99 53.26 53.45 53.61 53.78 54.31 54.96 55.20 55.87 56.54 57.13 57.64 56.95 56.28 56.34 56.19 56.19 56.58 57.30 58.04 58.66 60.65 63.16 64.21 63.18 62.67 62.70 63.24 62.57 61.61 63.89 65.88 64.90 63.01 61.29 61.45 62.41 63.21 63.91 65.13 66.89 68.84 70.45 71.31 71.57 71.15 70.10 68.68 68.91 69.48 69.65 70.68 73.77 78.42 75.92 72.58 69.95 68.30 66.65 66.95 67.79 68.68 68.93 69.01 68.77 69.28 69.85 70.45 71.21 71.98 72.62 72.58 73.12 74.00 75.21 76.30 77.37 79.97 84.66 87.13 85.17 84.48 84.59 83.83 85.38 87.62 89.63 89.96 91.00 92.10 91.60 88.92 87.85 88.37 87.85 87.18 87.78 87.29 87.07 88.08 88.58 87.89 87.49 86.79 86.74 87.08 85.82 84.81 84.56 83.52 82.51 81.67 79.03 78.61 78.12 76.93 76.57 77.50 79.78 79.93 78.10 76.67 75.65 75.05 73.68 73.35 72.74 71.50 71.56 71.01 71.20 72.22 72.54 73.42 73.47 73.63 73.62 73.91 74.26 74.52 75.16 75.71 75.46 75.80 76.22 77.01 77.27 77.70 78.03 78.38 78.81 79.17 79.49 79.47 80.04 80.61 80.90 81.63 81.51 81.19 81.24 81.26 81.55 81.41 81.43 81.54 81.73 81.94 82.38 82.60 82.34 82.45 82.48 83.50 84.22 84.25 84.22 84.28 84.79 85.30 85.95 86.54 87.12 87.70 88.09 88.41 88.70 88.69 88.62 88.60 88.38 88.64 88.45 88.22 88.03 87.94 88.00 88.03 88.04 88.11 88.38
50.19 49.95 49.93 49.81 49.43 48.89 47.31 47.43 46.55 48.10 48.37 48.88 49.48 49.76 49.94 50.07 50.14 50.27 50.33 50.45 50.52 50.50 50.57 50.60 50.55 50.41 50.13 49.39 49.57 49.96 50.16 50.62 51.04 50.86 51.00 51.07 51.24 51.35 51.46 51.58 51.66 51.93 52.20 52.45 52.33 52.48 52.49 52.54 52.66 52.66 52.66 52.84 53.10 53.20 53.57 53.92 54.18 54.26 54.25 54.15 54.29 54.37 54.68 54.93 55.26 55.56 55.74 55.69 55.19 55.23 55.38 55.42 55.43 55.57 54.75 55.75 56.56 56.60 56.02 55.13 54.72 53.92 53.15 51.66 50.44 51.10 53.09 52.45 52.00 51.62 50.83 50.96 51.01 50.69 50.82 51.72 52.27 51.61 50.87 50.99 50.83 51.10 50.63 50.81 51.25 51.09 50.94 50.90 50.76 50.60 50.44 50.34 50.31 50.44 50.60 51.05 51.67 52.13 52.09 52.00 51.39 51.30 51.19 51.03 50.96 50.64 50.62 50.53 50.44 50.45 50.16 49.94 49.81 49.80 50.09 50.15 50.22 50.76 50.68 49.66 49.74 48.77 48.19 47.96 47.88 47.79 47.74 47.70 47.78 47.95 48.87 48.24 47.26 46.05 44.39 44.56 47.33 48.36 47.99 47.52 47.17 43.78 38.17 37.50 37.50 38.98 42.68 45.04 46.47 47.11 47.42 47.72 48.04 48.23 48.37 48.40 48.45 48.60 48.92 49.36 49.62 49.84 50.00 49.79 49.31 48.81 48.47 49.25 49.84 50.42 50.79 51.24 52.01 52.65 52.42 51.30 49.96 50.77 51.17 51.53 51.17 51.19 52.51 53.45 54.69 55.15 54.87 55.94 56.61 56.93 57.18 56.98 56.60 56.29 56.02 56.02 56.39 57.37 58.60 59.42 60.56 62.93 64.87 63.63 62.06 62.09 62.52 61.87 60.58 61.45 63.71 65.85 64.65 61.06 60.95 61.55 62.66 63.42 64.34 65.44 66.49 68.09 68.95 69.77 70.89 69.67 68.48 68.45 68.72 69.19 70.15 71.50 75.71 77.37 74.21 70.89 67.65 66.94 67.40 67.48 67.98 68.20 68.60 69.14 69.48 70.57 71.67 72.40 72.98 73.45 73.44 74.03 75.23 76.17 77.18 78.56 82.38 84.75 83.75 81.08 81.88 83.41 84.13 84.91 85.99 87.54 89.05 90.57 91.59 93.11 93.23 92.02 90.71 88.84 88.52 88.89 88.34 89.71 89.43 86.97 85.84 85.21 84.73 84.66 84.54 83.87 82.87 82.73 81.46 80.34 79.56 78.80 78.32 78.04 77.31 77.17 77.41 79.07 78.92 77.48 75.98 75.65 75.64 75.79 74.57 73.55 72.82 72.42 72.17 72.21 72.41 72.35 72.77 73.74 73.78 73.83 73.96 74.18 74.46 74.91 75.90 75.58 75.64 76.13 76.58 76.97 77.83 77.91 77.80 78.19 78.83 78.99 79.05 79.38 79.80 80.09 80.46 80.60 80.59 80.56 80.59 80.90 81.08 81.42 81.50 81.30 81.34 81.86 81.77 81.76 82.12 82.56 83.35 83.36 83.62 83.84 83.99 84.21 84.57 85.29 85.90 86.37 86.68 87.15 87.18 87.34 87.48 87.29 87.57 87.82 87.97 87.68 87.30 87.49 87.52 87.43 87.57 87.64 87.80 88.23
50.30 50.03 49.81 49.68 49.33 48.69 47.35 46.91 46.45 48.39 49.00 49.01 49.41 49.66 49.88 50.16 50.28 50.26 50.37 50.47 50.50 50.53 50.62 50.69 50.73 50.64 50.32 49.81 49.51 49.68 50.38 50.72 51.07 51.17 51.26 51.36 51.36 51.48 51.71 51.84 51.89 51.97 51.90 52.14 52.20 52.38 52.54 52.51 52.58 52.67 52.73 53.03 53.27 53.40 53.57 53.99 54.26 54.29 54.47 54.50 54.61 54.91 55.11 55.31 55.54 55.81 56.22 56.18 55.97 55.81 55.88 56.17 56.35 56.35 56.07 55.89 56.15 55.56 55.16 54.72 54.41 53.84 53.14 52.68 52.79 52.83 52.40 52.14 52.10 51.47 50.99 51.10 51.43 51.19 51.53 52.44 52.91 52.36 51.62 51.33 50.87 51.13 50.88 50.99 51.19 51.11 51.02 51.22 50.94 50.96 50.78 50.54 50.51 50.71 50.90 51.07 51.73 52.35 52.19 51.93 51.60 51.47 51.34 51.35 51.32 50.94 50.58 50.41 50.54 50.76 50.51 50.18 49.94 50.16 50.42 50.33 50.41 50.87 50.20 49.60 49.21 48.88 48.21 48.12 47.99 47.95 47.87 47.74 47.83 48.08 48.40 48.51 46.84 45.02 44.26 46.18 47.39 48.09 48.13 47.91 47.62 45.41 38.88 37.50 37.50 38.82 42.51 44.73 46.26 47.06 47.24 47.84 48.21 48.37 48.51 48.59 48.62 48.61 48.88 49.33 49.67 49.86 49.97 49.71 49.44 48.91 48.93 49.47 49.72 50.11 50.60 50.76 51.12 51.43 51.59 51.36 51.04 51.03 51.19 51.07 51.07 51.03 51.81 52.66 53.26 54.29 54.62 54.85 56.05 56.51 55.80 55.84 56.37 56.50 55.92 55.96 56.22 57.55 58.89 59.60 60.41 62.54 64.34 63.30 61.34 61.31 61.76 60.72 60.50 60.52 61.03 63.44 64.65 61.35 60.50 60.59 62.27 63.15 63.25 64.09 65.05 66.65 67.26 68.47 70.22 68.80 67.18 67.58 68.41 68.30 68.82 69.26 70.81 72.19 73.58 72.97 67.66 67.97 67.97 67.67 67.91 68.09 68.91 69.79 69.94 70.97 72.27 72.91 74.19 75.21 76.25 76.13 75.66 76.30 77.39 78.73 80.03 79.85 80.35 81.17 82.23 84.46 85.93 87.16 88.18 88.17 88.63 90.25 91.83 93.61 94.91 94.87 92.39 91.53 91.13 91.19 90.16 91.09 89.77 86.39 85.05 84.27 83.67 83.23 82.69 82.61 81.69 81.49 80.43 80.03 79.49 79.04 78.78 78.21 77.98 77.61 77.32 78.40 78.19 76.10 75.05 76.12 77.41 78.74 76.22 74.81 74.47 73.03 72.58 72.26 72.49 72.82 72.59 73.42 73.73 73.95 74.25 74.30 74.43 74.74 74.84 75.34 75.52 75.85 76.20 76.49 77.03 77.47 77.47 77.78 78.26 78.38 78.48 78.80 79.13 79.40 79.87 80.04 80.20 80.29 80.48 80.63 80.66 81.08 81.05 81.01 81.12 81.42 81.41 81.53 81.81 81.83 82.41 82.52 82.55 83.17 83.49 83.76 83.98 84.68 85.08 85.23 85.72 86.42 86.28 86.24 86.39 86.55 86.86 87.08 86.97 86.91 87.01 87.19 87.17 87.09 87.27 87.30 87.34 87.52
50.46 50.11 49.98 49.84 49.46 48.68 47.53 46.79 46.56 47.53 48.58 49.06 49.30 49.61 49.88 50.15 50.24 50.35 50.42 50.58 50.62 50.79 50.83 50.78 50.74 50.76 50.51 49.98 49.97 49.52 49.73 50.07 50.65 51.22 51.52 51.69 51.78 51.83 51.90 52.11 52.12 52.16 52.21 52.45 52.51 52.64 52.71 52.70 52.71 52.87 52.95 53.09 53.31 53.55 53.89 54.24 54.15 54.44 54.63 54.80 54.98 55.23 55.39 55.56 55.84 56.03 56.16 56.61 56.71 56.38 56.46 56.84 57.13 56.76 57.18 56.52 55.75 55.30 54.89 54.52 54.45 53.71 53.15 52.46 52.15 51.93 52.10 52.19 51.69 50.93 51.19 52.08 51.79 50.94 51.10 51.52 52.45 52.31 51.73 51.40 51.26 51.20 51.22 51.44 51.37 51.37 51.39 51.40 51.27 51.21 51.00 50.70 50.65 50.88 51.23 51.46 51.82 52.40 52.31 51.98 51.73 51.78 51.64 51.70 51.53 51.28 51.00 50.81 50.67 50.83 50.74 50.45 50.20 50.38 50.57 50.48 50.81 51.22 50.45 49.55 49.29 49.32 48.63 48.11 47.83 47.79 47.99 47.99 47.87 48.23 48.14 47.56 45.86 44.23 46.68 48.22 48.24 48.53 48.88 48.81 48.06 45.56 39.26 37.50 37.50 38.37 42.26 44.43 45.68 46.20 46.76 47.62 48.19 48.36 48.52 48.62 48.77 48.73 49.08 49.52 49.65 49.79 49.97 49.87 49.54 49.23 49.19 49.55 49.76 50.13 50.34 50.83 50.97 51.12 51.40 51.47 51.76 52.03 52.15 51.83 52.09 51.93 51.58 51.60 52.07 53.24 53.87 54.00 54.87 55.75 55.52 55.18 55.43 56.24 55.90 55.87 56.04 56.82 57.50 58.83 61.04 60.58 60.32 60.68 60.38 59.46 60.75 60.52 60.50 60.50 60.51 60.80 61.62 60.89 60.50 60.50 60.92 61.48 61.71 62.97 63.90 65.08 65.86 67.02 69.10 67.67 66.66 66.83 68.32 67.73 67.84 67.43 68.48 68.38 70.30 71.58 67.93 68.97 68.17 67.86 67.31 68.34 69.23 70.05 70.41 70.73 71.01 72.02 75.11 77.69 78.82 79.84 76.99 76.91 77.54 78.08 78.43 79.45 80.60 82.34 84.30 84.63 85.74 87.44 88.96 90.15 90.01 90.24 91.71 93.18 94.54 95.43 94.39 94.63 93.56 93.72 92.30 91.45 89.80 86.96 85.39 84.44 83.54 82.77 82.36 82.81 81.53 80.86 80.38 79.94 80.00 79.79 79.36 78.65 77.83 77.56 77.41 77.88 76.91 75.25 75.21 77.33 78.45 79.79 78.27 75.51 75.03 74.20 73.52 72.99 72.64 72.73 72.79 72.86 73.38 73.89 74.14 74.33 74.46 74.98 75.58 75.23 75.36 75.82 76.02 76.56 76.78 76.98 77.19 77.58 77.92 78.04 78.33 78.62 78.90 79.13 79.38 79.65 79.93 80.11 80.41 80.39 80.28 80.57 80.74 80.84 80.86 81.07 81.07 81.27 81.54 81.68 81.76 81.74 82.01 82.33 82.42 82.99 83.48 84.17 84.70 85.00 85.39 85.63 85.57 85.75 85.97 86.03 86.27 86.36 86.32 86.43 86.63 86.87 86.85 86.79 86.92 87.00 87.01 87.13
50.33 50.07 49.99 49.79 49.40 48.81 48.11 47.18 47.10 47.16 47.21 48.62 49.29 49.69 49.87 49.98 50.12 50.21 50.26 50.46 50.53 50.69 50.72 50.72 50.82 50.95 50.44 50.05 50.34 49.66 49.04 49.19 50.24 51.12 51.64 51.98 52.02 52.10 52.17 52.27 52.34 52.40 52.43 52.70 52.72 52.83 52.84 52.83 52.82 53.00 53.28 53.33 53.54 53.77 54.01 54.33 54.32 54.61 54.83 54.92 55.26 55.45 55.65 55.76 56.01 56.50 56.64 56.72 57.04 56.93 57.16 57.04 56.95 57.21 57.62 56.63 55.59 55.86 55.39 54.66 54.34 53.42 52.68 52.35 52.01 51.89 51.93 51.75 51.48 51.41 51.72 52.21 51.56 50.98 51.58 52.11 52.58 51.62 51.33 51.42 51.66 51.32 51.33 51.71 51.84 51.81 51.68 51.71 51.70 51.43 51.29 50.98 50.95 51.11 51.65 51.81 51.81 52.07 52.05 51.94 51.86 52.16 51.90 51.86 51.72 51.33 51.10 51.12 51.04 51.04 50.76 50.55 50.28 50.45 50.62 50.71 51.51 50.65 50.60 51.49 50.07 49.85 48.93 48.09 47.82 47.95 48.04 47.99 47.98 48.04 48.23 46.73 44.05 45.06 47.49 48.19 48.54 48.74 48.59 48.28 47.67 45.06 40.13 37.52 37.50 38.09 41.33 43.24 43.82 44.06 45.20 46.86 48.04 48.21 48.36 48.57 48.67 48.80 49.16 49.33 49.57 49.87 49.94 49.97 49.70 49.71 49.60 49.65 49.90 50.35 50.47 50.60 50.84 50.99 51.36 51.62 51.85 52.14 52.36 52.54 52.66 52.76 52.58 52.42 52.11 52.28 52.68 53.11 53.86 54.59 54.89 54.71 54.58 55.09 55.60 55.69 55.90 56.60 57.21 59.05 61.30 60.33 59.01 59.14 58.32 57.49 58.95 60.50 60.50 60.50 60.50 60.50 60.50 60.56 60.57 60.51 60.51 60.56 60.77 61.85 63.09 63.78 64.64 65.53 66.83 66.70 65.91 65.54 66.84 67.05 66.68 66.61 67.65 67.27 67.59 67.64 67.54 69.58 67.85 67.26 67.27 68.52 69.30 70.10 71.02 71.49 71.95 71.72 73.30 75.75 77.07 78.01 77.21 77.69 77.54 79.13 79.69 79.62 81.78 83.22 85.47 86.58 87.14 87.95 88.89 90.34 91.38 91.12 92.02 93.48 94.84 96.09 96.72 96.75 95.86 94.81 93.15 91.54 89.56 87.15 85.58 84.65 84.07 83.59 82.54 82.64 81.55 81.05 81.70 80.49 79.78 78.93 78.63 78.74 78.04 77.71 77.42 77.35 75.12 74.73 76.09 79.11 80.31 80.91 80.53 77.23 75.75 75.22 74.71 74.01 73.32 72.84 72.98 73.49 73.78 73.73 74.06 74.75 75.00 75.09 75.28 74.74 75.30 75.57 75.69 76.44 77.41 77.55 77.87 78.02 78.11 78.35 78.41 78.57 78.60 78.63 78.93 79.52 79.94 80.14 80.26 80.08 80.00 80.40 80.57 80.57 80.56 80.50 80.91 81.35 81.25 81.32 81.41 81.59 81.79 81.76 82.03 82.49 82.97 83.26 83.75 84.24 84.77 84.90 85.14 85.62 85.87 85.92 85.90 85.95 85.96 86.11 86.51 86.42 86.50 86.28 86.43 86.73 86.47 86.59
50.25 50.03 49.63 49.52 49.50 49.42 48.78 47.91 47.22 47.73 47.41 47.57 48.77 49.38 49.62 49.73 49.97 50.23 50.35 50.45 50.62 50.82 50.81 50.92 50.95 51.14 50.87 50.57 50.83 50.55 50.21 50.45 50.09 50.83 51.09 51.87 52.01 52.20 52.33 52.46 52.55 52.59 52.56 52.79 52.81 52.87 53.05 52.95 53.04 53.18 53.33 53.52 53.68 54.01 54.25 54.54 54.68 54.73 54.93 54.97 55.37 55.75 55.92 55.97 55.99 56.30 56.72 57.18 57.07 57.13 57.26 57.07 57.60 58.03 58.86 57.76 55.82 55.76 54.72 54.94 54.41 53.33 51.45 52.17 52.05 52.21 52.14 52.17 51.26 51.42 51.90 52.12 51.42 51.17 51.72 52.19 52.11 51.70 51.55 51.55 51.94 51.52 51.49 51.81 51.98 51.99 51.96 51.85 51.98 51.75 51.70 51.32 51.60 51.36 51.48 51.66 51.82 52.01 52.12 52.09 52.18 52.25 52.06 52.05 51.82 51.55 51.44 51.35 51.23 51.07 50.85 50.74 50.67 50.63 50.91 50.84 50.83 50.17 50.48 51.07 50.09 49.56 48.93 48.33 47.90 47.88 47.91 47.91 47.89 47.98 47.98 46.68 44.08 45.99 47.76 48.59 49.05 48.66 48.19 48.18 48.36 46.39 41.84 37.75 37.50 38.08 41.12 43.15 42.77 42.92 43.23 44.51 46.57 48.05 48.41 48.65 48.73 48.83 49.08 49.33 49.63 49.98 50.00 50.02 50.10 50.14 50.28 50.30 50.12 50.29 50.64 50.76 51.02 50.98 51.22 51.77 51.72 52.02 52.38 52.53 52.72 52.99 53.15 52.87 52.61 51.99 51.59 52.11 52.58 53.39 54.03 53.82 53.50 53.76 54.72 55.77 56.04 56.42 56.84 58.16 60.09 59.70 57.79 57.35 57.55 58.58 60.31 60.73 60.50 60.50 60.50 60.50 60.50 60.57 60.61 60.51 60.62 60.67 61.17 61.65 62.26 62.82 63.65 65.08 65.66 66.07 65.83 66.17 66.60 67.03 66.62 66.19 66.50 66.95 66.99 66.99 66.68 67.49 68.29 67.98 67.60 67.97 68.99 70.17 71.02 71.99 72.76 73.08 73.16 73.64 74.71 75.44 76.30 77.34 77.38 80.35 80.58 79.80 82.22 83.15 84.10 85.97 87.89 88.08 88.71 89.75 91.14 92.03 93.04 93.97 94.75 96.08 97.46 98.11 97.05 94.68 92.16 90.71 89.31 87.17 85.71 84.83 84.31 83.85 82.69 82.29 81.14 80.93 80.81 80.16 79.91 79.20 78.95 78.69 78.25 77.69 77.24 76.76 75.12 75.14 77.18 79.69 81.61 82.40 82.12 80.00 77.41 76.00 75.13 74.67 74.15 73.42 73.10 73.35 73.78 74.18 74.58 74.70 75.01 74.83 75.04 75.10 75.38 75.75 75.82 76.55 77.52 76.60 77.12 77.81 77.62 77.78 77.89 78.20 78.63 78.89 79.27 79.33 79.54 80.00 80.04 79.71 79.67 80.06 80.20 80.12 80.29 80.41 80.84 80.89 81.06 81.14 81.14 81.41 81.41 81.52 81.73 82.07 82.40 82.71 82.98 83.43 83.76 84.12 84.35 84.71 85.04 85.36 85.63 85.90 86.00 86.19 86.21 86.06 86.14 85.97 86.16 86.28 86.00 86.14
50.21 50.04 49.99 49.87 49.81 49.62 49.00 48.53 47.41 47.72 48.30 47.19 48.09 49.04 49.49 49.82 50.11 50.20 50.36 50.62 50.71 50.85 50.99 50.99 51.07 51.12 51.15 50.98 51.10 50.92 50.68 50.95 50.24 50.21 50.34 50.97 51.63 52.02 52.32 52.40 52.52 52.53 52.62 52.90 52.87 52.94 52.98 52.97 53.15 53.23 53.39 53.72 53.91 54.29 54.54 54.70 54.89 55.01 55.10 55.24 55.38 55.72 55.78 56.03 56.21 56.39 56.76 56.93 56.61 57.23 57.52 57.12 57.20 57.02 58.31 57.82 56.07 55.81 54.46 54.71 54.53 53.19 51.75 52.16 52.21 52.29 51.98 51.81 51.41 51.87 52.61 52.54 51.50 51.88 52.34 52.23 52.20 51.97 51.83 51.93 52.04 51.94 51.63 51.84 52.04 52.27 52.25 52.10 52.18 52.00 51.78 51.41 51.86 51.64 51.62 51.88 51.97 52.18 52.34 52.27 52.31 52.35 52.35 52.15 52.00 51.83 51.75 51.63 51.49 51.30 51.17 51.00 50.96 50.86 51.05 50.78 50.35 50.02 50.51 50.85 50.11 49.72 49.19 48.64 48.13 48.00 48.05 48.07 48.32 48.60 47.68 45.43 45.17 46.60 48.12 48.98 49.88 49.44 48.46 48.37 48.56 47.41 44.01 38.15 37.50 37.99 41.25 44.56 44.86 44.38 43.55 43.56 46.22 47.79 48.28 48.45 48.67 48.92 49.17 49.35 49.57 49.84 50.08 50.18 50.25 50.28 50.54 50.49 50.27 50.40 50.74 50.85 51.21 51.31 51.33 51.40 51.89 52.01 52.09 52.36 52.62 52.99 53.19 53.24 53.70 53.67 52.64 52.62 53.08 53.43 53.34 53.14 53.29 53.42 53.88 55.55 56.38 56.44 56.71 56.47 57.37 57.66 57.13 57.28 58.46 60.31 61.33 60.96 60.50 60.50 60.50 60.50 60.50 60.50 60.50 60.50 60.56 60.72 61.00 61.61 62.07 62.81 63.99 64.95 65.00 65.17 64.93 65.46 65.90 66.11 65.24 65.35 66.36 67.57 66.68 66.62 66.13 68.90 71.45 68.88 67.80 68.26 69.08 70.00 70.91 71.87 72.69 73.31 74.15 73.77 74.20 74.63 75.70 76.84 77.38 79.23 80.31 79.88 81.80 82.44 81.72 83.08 85.52 85.90 87.09 88.77 90.76 91.82 93.43 94.80 95.80 96.63 97.62 98.22 96.37 94.43 92.09 89.99 88.70 87.11 85.92 84.92 84.14 83.43 82.62 81.93 81.24 80.50 80.13 79.98 79.77 79.48 79.34 78.51 77.90 77.34 77.09 76.35 75.37 75.82 77.66 80.46 81.77 82.93 82.87 80.60 79.49 77.40 75.81 75.34 75.04 74.35 73.53 73.21 73.37 73.69 73.78 73.96 74.25 74.62 74.91 75.17 75.38 75.75 75.91 75.97 76.19 76.46 76.98 77.45 77.40 77.75 78.03 78.24 78.56 79.02 79.09 78.96 79.32 79.71 79.71 79.64 79.64 79.71 79.95 79.78 80.02 80.35 80.46 80.28 80.41 80.50 80.83 81.07 81.04 81.19 81.79 81.93 82.07 82.31 82.55 82.96 83.21 83.41 83.84 84.18 84.55 84.71 84.97 85.12 85.49 85.55 85.57 85.53 85.80 85.76 85.94 85.96 85.93 85.81
50.16 50.11 50.13 50.20 50.00 49.62 49.11 48.39 47.35 48.21 48.75 47.70 47.25 48.34 49.17 49.60 50.09 50.29 50.41 50.57 50.72 50.85 50.92 50.91 51.19 51.31 51.24 51.14 51.27 51.01 50.82 51.13 50.82 51.17 51.33 50.48 51.01 51.51 51.92 52.13 52.35 52.47 52.49 52.72 52.90 52.98 52.84 52.85 53.09 53.23 53.53 53.99 54.17 54.45 54.86 55.04 55.24 55.38 55.36 55.42 55.45 55.74 56.00 56.30 56.16 56.14 56.45 56.66 56.52 56.99 57.38 57.08 56.90 56.96 57.60 57.54 56.85 55.78 54.83 54.97 54.59 52.97 52.06 51.95 51.77 51.91 51.78 51.63 51.72 51.74 51.89 52.21 51.56 52.92 52.51 52.52 52.55 52.27 52.23 52.10 52.23 52.08 51.81 51.93 52.16 52.39 52.47 52.56 52.53 52.39 52.25 51.98 52.03 51.77 51.84 52.18 52.19 52.29 52.45 52.46 52.52 52.62 52.46 52.32 52.28 52.25 52.02 51.76 51.69 51.63 51.36 51.17 51.21 51.22 51.13 50.52 50.29 50.35 50.74 51.58 50.63 49.81 49.42 48.75 48.49 48.58 48.60 48.18 48.39 48.53 47.03 44.75 46.04 47.94 48.91 48.43 49.18 50.24 48.92 48.32 47.95 47.59 44.99 38.64 37.50 37.71 40.58 44.36 46.51 46.78 45.50 43.80 45.20 47.18 48.16 48.34 48.65 48.96 49.03 49.34 49.58 49.77 50.05 50.11 50.29 50.54 50.76 50.82 51.09 50.71 50.82 51.03 51.22 51.35 51.46 51.60 51.78 52.00 52.07 52.34 52.57 52.80 53.08 53.45 53.83 54.52 54.33 52.88 53.34 54.23 54.59 54.76 54.89 54.35 54.16 55.15 55.99 55.79 55.75 55.79 56.18 57.57 57.99 58.70 59.03 60.75 61.73 61.38 60.56 60.50 60.50 60.50 60.50 60.50 60.50 60.50 60.51 60.72 61.31 61.84 62.53 63.10 63.32 64.00 64.32 63.96 63.70 63.45 64.30 65.91 65.95 66.07 65.93 66.27 65.78 65.62 66.30 68.66 71.00 70.75 69.54 69.02 69.76 70.64 71.08 71.64 72.17 72.95 73.73 74.01 75.18 76.16 76.08 76.36 77.13 77.80 78.68 79.51 80.99 81.05 81.41 82.94 83.75 85.30 86.56 87.69 89.59 91.66 93.54 94.72 95.90 97.44 98.16 97.35 95.20 93.10 91.48 89.70 88.73 87.38 86.08 85.07 84.11 83.20 82.57 82.22 81.51 80.75 80.48 80.18 79.54 79.78 79.26 78.28 77.48 77.04 77.28 76.75 75.67 76.58 77.73 79.30 80.31 81.89 83.18 83.02 82.86 80.47 77.02 75.99 75.97 75.22 74.25 73.45 73.23 73.50 73.49 73.75 73.96 74.39 74.71 75.05 75.24 75.44 76.10 75.84 76.07 76.43 76.45 76.91 77.43 77.87 77.94 78.14 78.33 78.72 78.71 78.85 79.16 79.41 79.53 79.74 79.65 79.52 79.81 79.58 79.93 80.16 80.02 80.04 80.04 80.23 80.46 80.63 80.63 80.99 81.68 81.73 82.11 82.10 82.41 82.72 82.94 82.94 83.29 83.81 84.19 84.39 84.46 84.60 84.88 85.03 85.07 85.05 85.29 85.41 85.34 85.34 85.65 85.69
50.27 50.22 50.34 50.32 49.95 49.64 49.13 48.10 47.54 49.04 49.37 49.30 48.11 47.45 48.75 49.44 49.81 50.11 50.42 50.57 50.67 50.83 50.98 51.11 51.21 51.31 51.35 51.35 51.38 51.12 51.11 51.32 51.16 51.22 51.51 51.48 50.87 50.55 50.63 51.29 51.90 52.17 52.37 52.58 52.72 52.72 52.52 52.69 53.06 53.32 53.61 54.12 54.37 54.64 55.06 55.29 55.48 55.56 55.66 55.62 55.64 55.90 55.99 55.94 55.91 55.94 56.32 56.81 56.55 56.93 56.92 56.76 56.88 56.95 56.55 56.79 56.38 55.79 55.82 55.67 54.77 53.28 51.71 51.71 51.88 52.10 52.03 51.67 51.58 51.50 51.54 51.89 52.38 52.85 52.64 52.77 52.80 52.51 52.38 52.25 52.48 52.58 52.24 52.20 52.36 52.80 52.71 53.02 53.92 54.74 54.71 54.35 52.25 51.87 52.22 52.49 52.56 52.49 52.50 52.58 52.71 52.71 52.67 52.39 52.29 52.38 52.06 51.83 51.75 51.83 51.71 51.46 51.43 51.31 51.20 50.73 50.59 50.80 50.97 51.81 50.76 49.98 49.92 49.28 48.78 48.67 48.79 48.56 48.05 48.79 48.40 45.07 46.89 48.73 48.89 49.25 49.56 49.24 48.92 48.33 47.84 47.52 44.98 39.18 37.50 37.52 39.76 43.91 46.48 47.64 46.99 44.26 43.30 45.62 47.68 48.04 48.46 48.78 48.89 49.25 49.55 49.62 49.87 50.08 50.47 50.76 50.81 50.94 51.22 51.10 51.50 52.65 52.32 51.62 51.75 52.47 52.24 52.07 52.25 52.43 52.59 52.79 53.15 53.55 53.92 54.53 54.24 53.15 53.69 54.55 55.16 56.37 56.31 54.69 54.70 54.88 55.08 55.77 56.25 56.78 57.38 59.17 59.74 60.76 60.77 60.06 61.18 61.76 60.87 60.50 60.50 60.50 60.50 60.50 60.50 60.50 60.50 60.53 61.29 61.83 62.38 62.47 62.49 62.85 62.97 63.30 63.25 63.70 64.31 66.32 65.85 65.64 65.90 65.66 66.07 66.14 67.07 68.40 70.06 71.32 70.95 69.44 70.32 72.74 73.41 72.34 72.00 72.78 73.36 73.93 75.42 77.30 79.00 78.42 77.12 77.34 78.27 78.94 79.83 80.75 82.33 84.28 84.87 85.50 88.07 88.36 90.21 92.12 93.80 94.85 95.75 97.08 98.21 97.99 95.81 93.39 91.75 90.83 89.85 87.49 86.21 85.25 84.20 83.64 83.39 82.56 81.57 80.96 80.35 79.67 79.17 79.11 78.74 78.25 77.68 77.65 77.34 76.77 76.22 77.00 77.72 78.48 79.51 81.30 83.23 83.86 82.85 81.33 78.07 76.66 76.63 76.14 74.92 74.13 73.95 74.13 73.99 74.01 74.09 74.45 74.63 74.92 75.11 75.25 75.76 75.93 76.03 76.20 76.37 76.72 77.20 77.66 77.79 77.92 78.08 78.40 78.37 78.71 78.90 79.01 79.14 79.37 79.24 79.24 79.46 79.60 79.66 79.70 79.73 79.83 79.90 80.05 80.19 80.39 80.55 80.89 81.36 81.69 82.09 81.87 82.18 82.37 82.58 82.70 82.87 83.33 83.72 84.00 84.00 84.14 84.36 84.56 84.74 84.69 85.00 85.16 85.07 84.98 85.06 85.06
50.48 50.48 50.67 50.55 50.17 49.69 48.46 47.61 48.13 49.44 49.76 49.79 49.66 48.01 47.58 48.97 49.75 49.90 50.14 50.40 50.56 50.79 50.94 51.08 51.29 51.40 51.44 51.45 51.49 51.36 51.34 51.49 51.50 51.56 51.68 51.59 51.51 51.07 50.61 50.55 51.15 51.68 51.81 51.99 52.21 52.30 52.24 52.78 53.13 53.49 53.82 54.32 54.72 54.93 55.23 55.30 55.41 55.53 55.74 55.67 55.66 55.90 55.92 55.89 55.90 55.98 56.10 56.55 56.48 57.15 57.12 56.80 57.12 57.01 56.79 57.05 56.42 55.81 55.67 55.27 53.90 52.58 51.84 52.24 52.28 51.79 51.55 51.50 51.50 51.67 52.41 52.96 52.77 52.85 52.92 52.98 52.94 52.66 52.58 52.61 52.82 53.00 52.69 52.59 52.52 52.76 52.85 53.08 54.23 55.28 53.87 53.08 52.27 52.01 52.12 52.29 52.90 52.97 52.92 52.83 52.87 52.77 52.84 52.57 52.51 52.34 52.09 52.01 51.89 52.10 51.91 51.91 51.54 51.47 51.33 50.97 50.85 51.28 51.96 51.84 51.54 50.63 50.36 49.49 49.08 49.32 49.26 48.62 47.99 48.85 48.89 45.76 46.52 48.65 48.91 49.52 49.49 48.97 48.61 48.34 48.07 47.82 45.99 39.71 37.50 37.50 39.17 43.43 46.29 48.00 48.03 46.19 43.62 44.31 46.36 47.55 48.15 48.63 48.90 49.09 49.33 49.55 49.77 50.15 50.62 50.97 51.12 51.07 51.25 51.88 53.15 54.06 52.84 52.27 53.62 55.48 53.72 52.31 52.26 52.68 52.87 52.90 53.30 53.58 53.93 54.30 53.94 53.58 54.02 54.85 55.38 57.45 58.60 55.34 54.67 55.29 56.10 56.65 56.99 57.66 58.29 59.67 60.89 62.52 62.42 60.86 60.76 61.71 61.08 60.51 60.50 60.50 60.50 60.50 60.50 60.50 60.50 60.50 61.05 61.62 61.90 62.14 62.38 63.03 63.16 63.69 63.92 64.54 64.46 65.68 65.67 65.12 65.68 66.42 67.19 67.74 68.08 69.22 68.18 69.04 70.71 70.68 71.14 73.18 74.09 72.87 72.22 72.99 73.40 74.10 75.19 76.70 79.02 78.33 77.82 78.36 79.24 79.98 80.68 81.87 83.01 84.58 87.22 86.29 87.89 90.21 90.27 90.95 92.40 93.83 95.21 96.55 98.38 99.00 97.00 94.82 92.70 92.63 90.19 87.23 86.09 85.18 84.38 83.70 83.57 82.04 81.34 80.74 80.05 79.52 79.02 78.67 78.48 78.77 78.16 77.64 77.21 77.10 76.56 76.94 77.56 78.27 79.47 81.73 83.66 82.85 80.41 79.32 78.10 77.26 77.80 77.58 75.88 74.70 74.60 74.72 74.34 74.27 74.22 74.44 74.65 74.70 74.82 74.98 75.30 75.86 75.99 75.99 76.29 76.55 76.93 77.40 77.57 77.63 77.74 78.28 78.12 78.50 79.26 78.92 78.82 79.02 79.10 79.14 79.20 79.32 79.26 79.38 79.53 79.56 79.56 79.71 79.95 80.38 80.45 80.66 80.99 81.17 81.34 81.77 82.31 82.14 82.27 82.35 82.70 83.00 83.33 83.55 83.66 83.93 83.98 84.07 84.37 84.34 84.46 84.81 84.87 84.69 84.66 84.70
50.66 50.74 50.60 50.36 49.91 49.27 48.07 47.63 48.78 49.45 49.89 50.11 49.93 49.42 47.88 47.78 48.50 49.36 49.66 49.86 50.31 50.79 50.99 51.22 51.43 51.35 51.47 51.50 51.51 51.48 51.59 51.68 51.67 51.76 51.75 51.77 51.80 51.71 51.35 51.34 51.05 50.85 51.31 51.54 51.88 52.00 52.42 53.03 53.33 53.66 54.08 54.50 54.83 55.04 55.32 55.49 55.49 55.50 55.70 55.65 55.61 55.85 55.94 55.80 55.75 55.95 56.38 56.49 56.28 56.36 56.33 56.59 56.76 56.72 56.99 56.68 55.91 54.56 53.92 53.74 53.02 52.41 52.21 51.90 51.74 51.70 51.50 51.50 51.61 52.41 52.97 53.11 53.18 53.21 53.50 53.54 53.33 52.94 52.78 52.77 53.18 53.27 53.07 53.00 52.99 53.13 53.49 53.50 53.53 54.08 53.11 52.61 52.50 52.30 52.30 52.58 53.06 53.42 53.26 53.18 53.02 53.15 53.14 53.12 53.13 52.90 52.55 52.24 52.13 52.20 52.06 52.15 51.74 51.95 51.78 51.07 51.33 51.44 52.44 52.46 52.33 51.68 50.30 49.34 49.16 48.99 48.66 48.52 48.24 48.30 47.94 45.83 46.33 48.09 48.71 48.95 49.02 48.88 48.47 48.36 48.23 47.74 46.68 40.09 37.50 37.50 38.76 42.90 45.96 48.11 48.79 48.30 45.99 44.04 45.47 47.58 48.27 48.80 49.07 49.25 49.39 49.54 49.72 50.38 50.70 50.71 50.90 51.05 51.38 51.92 52.74 53.37 53.71 54.34 55.47 55.93 54.88 52.88 52.46 52.94 53.15 53.36 53.40 53.68 53.95 54.49 54.70 53.95 54.13 54.85 55.34 58.64 60.13 55.64 55.44 56.01 56.45 56.72 57.02 57.58 58.71 60.77 61.97 63.67 62.63 61.95 61.16 61.71 61.21 60.57 60.50 60.50 60.50 60.50 60.50 60.50 60.74 60.93 60.84 61.33 62.01 62.28 62.91 63.94 63.66 64.06 64.14 64.38 64.55 65.02 65.53 64.93 65.46 67.33 66.92 66.97 68.44 68.49 68.09 68.99 71.79 72.47 72.31 73.78 75.83 73.77 73.02 73.59 73.30 74.44 75.06 75.81 77.39 77.47 77.63 78.45 79.57 80.56 81.58 82.45 84.00 86.05 88.85 88.69 87.57 90.02 92.17 92.75 92.80 94.35 96.17 97.13 98.75 99.63 95.61 93.70 91.89 91.44 89.42 87.38 86.25 85.29 84.33 83.45 83.36 82.31 81.53 80.86 80.20 79.63 79.06 78.42 78.12 78.39 79.01 78.06 77.46 77.29 76.77 76.81 77.31 78.14 79.29 82.01 83.71 81.73 79.83 78.94 78.39 78.04 78.71 79.01 76.80 75.82 75.09 74.92 74.73 74.51 74.26 74.51 74.91 75.05 75.21 75.21 75.43 75.51 75.65 75.64 76.23 76.58 76.96 77.23 77.52 77.75 77.70 77.75 77.87 78.18 78.34 78.50 78.67 78.73 78.85 78.93 78.87 79.00 78.96 79.17 79.39 79.30 79.29 79.57 79.85 80.01 80.33 80.37 80.72 80.91 81.05 81.45 81.91 81.80 81.95 82.19 82.37 82.77 83.09 83.18 83.29 83.55 83.78 83.85 84.03 84.11 84.17 84.29 84.34 84.25 84.35 84.41
50.75 50.65 50.39 50.15 49.77 49.10 48.03 48.09 49.24 49.78 50.10 50.31 50.18 49.83 48.30 48.15 47.82 48.62 49.30 49.82 50.16 50.61 51.01 51.22 51.41 51.52 51.61 51.58 51.57 51.58 51.77 51.90 51.93 51.83 51.89 51.94 52.06 52.16 51.86 51.99 51.68 51.14 51.60 52.12 52.17 52.43 52.65 53.17 53.57 53.88 54.31 54.64 54.95 55.08 55.32 55.54 55.47 55.45 55.64 55.73 55.54 55.77 55.81 55.72 56.09 56.31 56.61 56.48 56.13 55.78 55.87 55.93 55.82 55.71 55.79 56.35 55.47 53.33 52.85 52.90 52.17 51.82 51.95 52.34 51.93 51.86 51.60 51.51 52.29 53.01 52.96 53.36 53.44 53.57 54.34 54.53 53.52 53.31 53.14 53.01 53.22 53.52 53.62 53.52 53.59 53.69 53.71 53.30 53.57 53.91 53.07 52.97 52.94 52.82 52.84 52.99 53.24 53.45 53.48 53.42 53.31 53.34 53.17 53.34 53.11 53.20 52.97 52.52 52.49 52.47 52.36 52.38 52.55 51.95 51.67 51.23 51.70 51.94 52.50 53.09 52.82 51.21 50.65 49.65 49.27 49.38 49.10 49.16 49.42 48.40 47.67 46.31 46.10 47.77 48.91 49.51 48.65 48.74 48.58 48.48 48.11 47.73 47.01 41.02 37.60 37.50 38.28 41.95 45.85 47.99 48.81 48.63 47.77 45.58 44.92 47.11 48.32 48.76 49.08 49.32 49.40 49.52 49.87 50.45 51.03 51.03 51.17 51.13 51.27 51.69 52.51 53.20 53.93 54.69 55.36 55.15 54.18 53.02 52.47 52.80 53.00 53.49 53.51 53.80 54.13 54.82 55.25 54.39 54.29 54.66 55.13 58.55 58.69 55.93 56.03 56.19 56.44 56.71 57.05 57.67 58.91 61.74 63.08 63.95 62.33 62.35 62.23 62.45 61.97 60.90 60.50 60.50 60.50 60.50 60.50 60.50 60.52 60.66 60.55 60.85 61.67 62.18 63.61 64.74 63.95 65.14 64.77 64.61 64.98 64.89 65.28 65.04 65.23 65.99 66.04 66.22 68.74 68.07 69.28 69.74 70.07 71.22 71.81 72.07 73.12 72.56 73.01 73.74 74.19 75.37 75.48 75.49 76.10 76.73 77.58 78.74 80.06 81.36 83.80 84.32 85.69 89.09 90.64 90.33 89.32 88.72 91.33 93.68 94.62 94.39 95.57 97.41 98.78 97.85 93.99 92.51 91.17 89.87 88.95 87.50 86.41 85.36 84.52 84.08 83.09 82.04 81.63 80.77 80.37 79.45 78.76 78.41 78.47 78.68 79.32 78.30 77.78 77.50 77.39 77.53 77.91 78.26 78.80 80.52 82.31 81.52 80.03 79.62 79.25 79.14 79.24 79.97 77.89 76.58 75.85 75.15 75.10 74.61 74.35 74.56 74.96 75.02 75.30 75.36 75.29 75.46 75.76 75.95 76.27 76.50 76.79 77.11 77.35 77.53 77.56 77.52 77.71 77.99 78.07 78.30 78.33 78.48 78.57 78.41 78.52 78.65 78.80 78.88 79.02 79.04 79.12 79.24 79.46 79.81 80.27 80.12 80.38 80.64 80.89 81.20 81.79 81.65 81.65 82.12 82.18 82.46 83.02 82.89 83.04 83.27 83.65 83.79 83.82 83.78 83.88 83.88 83.99 84.05 84.08 84.14
50.90 50.76 50.59 50.43 50.06 49.10 48.05 48.56 49.62 50.03 50.19 50.44 50.39 49.86 48.57 48.42 47.88 48.77 49.99 50.16 50.22 50.51 50.86 51.09 51.41 51.47 51.62 51.70 51.72 51.82 51.78 51.92 52.03 52.04 52.11 52.13 52.20 52.44 52.20 52.15 51.96 51.31 51.25 52.28 52.38 52.78 53.07 53.34 53.71 54.09 54.45 54.71 54.99 55.27 55.45 55.49 55.46 55.42 55.62 55.77 55.56 55.66 55.74 55.88 56.39 56.53 56.57 56.35 56.22 55.70 55.57 55.25 55.09 55.46 55.51 55.30 54.44 52.82 52.48 52.37 52.17 52.23 52.41 52.64 52.19 52.29 52.27 51.67 53.02 53.26 53.22 53.71 53.89 53.98 54.33 54.17 53.76 53.58 53.36 53.35 53.56 53.62 53.78 53.77 53.59 53.37 53.51 53.51 53.89 53.80 53.38 53.45 53.58 53.52 53.34 53.39 53.37 53.55 53.61 53.84 54.17 54.05 53.91 53.93 53.48 53.58 53.38 52.99 52.93 52.77 52.57 52.92 52.77 51.92 51.80 51.74 51.84 51.92 52.08 52.70 52.90 51.41 50.73 50.16 49.78 49.87 49.47 49.18 49.08 48.42 47.38 45.94 45.72 48.22 49.26 49.66 48.84 48.68 48.69 48.49 48.21 47.93 47.16 41.72 37.50 37.50 38.05 41.13 45.36 47.72 48.53 48.79 48.55 47.87 46.40 46.22 47.97 48.64 48.97 49.14 49.37 49.57 49.97 50.58 51.30 51.57 51.29 51.12 51.27 51.62 52.42 53.51 54.29 54.71 55.08 54.86 53.67 52.80 52.51 52.88 53.06 53.53 53.79 53.88 54.17 54.83 55.81 54.90 54.39 54.63 55.19 56.20 55.89 55.52 55.93 56.25 56.56 56.78 57.14 57.97 59.20 61.34 63.73 64.78 64.20 63.22 62.88 63.30 63.38 61.84 60.62 60.50 60.50 60.50 60.50 60.50 60.50 60.58 60.55 60.62 60.93 61.99 64.40 64.17 64.05 65.01 64.94 65.52 66.18 65.18 65.10 65.53 65.39 65.43 65.72 66.27 67.75 67.30 69.05 70.67 69.81 69.89 70.21 70.94 71.42 71.94 72.63 73.60 75.96 75.66 75.73 76.01 76.48 76.93 78.03 78.98 81.08 83.29 86.29 87.31 86.25 88.90 91.60 92.17 91.68 89.24 90.09 92.42 94.55 96.12 96.28 97.36 98.48 96.52 93.40 92.27 91.33 90.09 88.84 87.31 85.98 84.95 84.22 83.96 82.73 81.94 81.63 80.87 80.35 79.41 78.86 78.67 78.68 78.54 78.26 78.19 78.25 77.89 77.72 77.82 77.90 78.09 78.51 79.44 80.79 81.37 80.87 80.74 80.12 79.49 79.05 78.76 77.25 76.57 76.21 75.80 75.11 74.76 74.77 74.70 75.07 74.97 75.23 75.62 75.66 75.41 75.82 76.20 76.33 76.43 76.52 76.97 77.24 77.24 77.44 77.34 77.42 77.58 77.87 77.99 77.94 78.07 78.08 78.18 78.29 78.25 78.41 78.62 78.68 78.89 78.95 79.00 79.25 79.42 79.77 79.80 80.12 80.39 80.56 80.81 81.28 81.41 81.59 81.90 81.86 82.07 82.77 82.55 82.72 82.85 83.05 83.19 83.48 83.53 83.36 83.52 83.80 83.86 83.77 83.83
50.90 50.68 50.57 50.36 49.79 49.05 48.49 48.88 49.67 50.11 50.34 50.52 50.58 50.18 49.38 48.37 47.93 48.61 49.76 50.27 50.54 50.67 50.79 50.87 51.20 51.43 51.59 51.67 51.86 51.91 51.87 51.96 52.14 52.20 52.17 52.35 52.35 52.51 52.37 52.23 51.98 51.18 51.64 52.31 52.87 53.12 53.39 53.57 53.90 54.18 54.51 54.75 54.94 55.08 55.29 55.65 56.02 55.57 55.54 55.82 55.83 55.74 55.99 56.21 56.12 55.95 55.54 55.40 55.21 55.10 55.14 54.86 54.79 55.37 55.39 55.23 53.67 52.66 52.66 53.04 52.97 52.70 52.84 52.81 52.52 52.92 53.23 52.27 53.37 53.71 53.68 53.97 54.03 54.12 54.17 54.31 54.02 53.95 53.92 53.89 53.99 53.80 53.85 54.00 53.70 53.54 53.49 53.52 53.78 53.73 53.48 53.64 53.79 53.63 53.66 53.88 53.78 53.85 53.92 54.12 54.23 53.88 54.14 53.97 53.61 53.59 53.35 53.36 53.33 53.15 53.09 53.20 52.95 52.24 52.20 52.11 51.81 51.61 51.56 52.22 52.42 51.33 51.11 50.60 49.92 49.64 49.68 49.15 48.82 48.55 47.54 46.16 45.45 47.28 48.69 49.87 49.45 48.67 48.62 48.51 48.23 47.81 46.46 42.02 37.91 37.50 37.62 39.88 44.37 47.35 48.47 48.92 48.95 48.56 48.17 46.74 46.70 47.76 48.63 49.02 49.35 49.67 49.95 50.65 51.32 51.86 51.92 51.40 51.24 51.54 52.26 53.12 53.72 54.44 54.55 54.16 53.73 53.39 53.12 53.05 53.15 53.72 53.97 53.98 54.16 54.60 55.95 55.69 54.85 54.73 54.90 55.35 55.62 56.28 56.37 56.49 56.63 56.92 57.36 58.33 59.49 61.30 64.01 65.62 65.29 64.11 63.73 64.14 63.95 62.58 61.12 60.55 60.50 60.50 60.50 60.50 60.50 60.50 60.50 60.56 60.93 61.82 64.29 64.31 63.54 64.35 64.54 65.34 65.86 65.31 64.86 65.48 65.92 65.89 66.61 66.81 67.47 67.58 68.35 69.56 69.80 69.91 69.54 70.43 71.44 72.21 72.84 73.51 74.73 75.24 76.20 76.43 77.31 77.61 77.88 79.15 83.48 86.13 87.69 89.72 88.64 89.25 91.52 93.49 93.12 90.70 90.38 92.81 94.90 96.21 97.44 98.04 99.12 97.70 93.05 92.08 91.05 89.55 87.95 86.77 85.64 84.85 84.15 83.76 82.63 82.13 81.73 81.07 80.37 79.95 79.31 79.14 78.89 79.01 79.50 79.48 78.95 77.85 78.02 78.32 78.29 78.24 78.53 79.04 79.69 81.10 82.72 83.07 81.19 80.81 79.81 79.21 77.42 76.47 75.98 75.70 75.27 74.94 74.75 74.90 75.26 75.10 75.42 75.66 75.81 75.74 75.67 75.87 76.09 76.25 76.27 76.62 76.99 77.01 77.20 76.94 77.20 77.16 77.40 77.59 77.52 77.80 78.03 78.02 77.98 78.03 78.22 78.19 78.38 78.37 78.65 78.87 79.09 79.24 79.42 79.56 79.89 80.11 80.20 80.39 80.86 81.06 81.30 81.51 81.58 81.77 82.36 82.27 82.45 82.40 82.39 82.57 82.86 83.06 83.07 83.34 83.51 83.33 83.39 83.53
50.71 50.61 50.59 50.19 49.48 48.39 48.01 48.96 49.68 50.02 50.32 50.64 50.64 50.39 49.47 47.90 48.22 48.26 48.86 49.89 50.51 50.75 50.95 51.03 51.06 51.30 51.58 51.68 51.88 51.97 51.97 51.96 52.08 52.28 52.34 52.43 52.44 52.55 52.58 52.25 52.00 51.48 52.04 52.56 52.95 53.13 53.38 53.70 53.93 54.12 54.38 54.57 54.68 54.76 55.12 55.51 55.93 55.48 55.41 56.07 56.33 55.78 55.67 55.78 55.76 55.53 55.16 54.93 54.68 54.79 54.81 54.60 54.76 54.75 54.04 53.85 53.40 52.62 52.70 53.30 53.27 52.97 53.34 53.21 52.83 52.87 53.35 53.35 54.10 54.55 54.20 54.08 54.16 54.47 54.43 54.46 54.23 54.63 54.20 54.14 54.35 54.12 54.08 54.24 54.09 53.90 53.68 53.82 54.03 54.00 53.79 54.14 54.17 53.87 54.00 54.21 54.15 54.19 54.41 54.31 54.54 54.29 54.23 53.81 53.62 53.64 53.62 53.69 53.56 53.29 53.59 52.99 53.03 52.18 52.07 52.01 52.04 51.87 51.60 52.35 52.85 51.61 51.00 50.43 49.91 49.80 49.72 49.76 49.04 48.75 47.81 46.85 45.81 46.71 48.19 48.84 49.74 48.86 48.76 48.69 48.41 47.83 45.61 44.62 38.93 37.50 37.50 38.76 43.12 46.86 48.39 49.01 49.16 49.03 48.94 48.05 46.60 46.62 47.71 48.72 49.05 49.49 50.03 50.74 51.31 52.17 52.08 51.48 51.28 51.61 52.07 52.51 52.97 53.61 54.16 53.90 53.36 53.11 53.13 53.09 53.16 53.69 53.85 54.04 54.43 54.49 55.09 55.28 55.05 55.02 55.22 55.65 56.08 56.72 56.66 56.58 56.82 57.20 57.67 58.60 59.94 61.91 64.22 65.76 66.15 65.65 64.90 64.97 65.69 63.96 62.56 61.54 60.91 60.87 60.63 60.50 60.50 60.50 60.50 60.74 61.06 61.52 62.93 63.24 63.86 64.84 64.56 64.50 64.37 65.46 65.57 65.77 66.39 67.34 68.21 67.46 68.02 69.94 70.13 69.66 70.46 71.06 70.51 71.34 71.37 72.06 72.70 73.52 74.49 75.45 76.32 76.88 77.84 78.33 78.37 79.87 84.86 87.61 88.86 91.06 91.46 91.35 92.50 94.20 94.88 92.26 92.17 92.66 95.08 96.91 98.41 99.39 99.14 96.65 92.97 91.67 90.27 89.06 87.57 86.61 85.66 84.85 84.08 83.77 82.90 82.43 81.93 81.56 80.86 80.05 79.56 79.29 79.21 79.38 79.97 79.58 79.17 78.14 78.30 78.08 78.34 78.65 78.47 78.88 79.29 80.17 82.58 83.75 82.19 82.06 80.40 80.17 77.76 76.43 75.98 75.64 75.37 75.33 74.96 75.02 75.19 75.09 75.20 75.44 75.52 75.85 75.70 75.81 75.97 76.06 76.07 76.32 76.75 76.80 76.87 76.81 77.00 76.94 77.18 77.19 77.36 77.63 77.72 77.71 77.71 77.86 78.00 78.04 78.17 77.96 78.21 78.38 78.52 78.91 79.05 79.27 79.63 79.89 80.07 80.30 80.69 80.75 80.91 81.17 81.37 81.49 81.96 81.92 82.07 82.11 82.23 82.48 82.75 82.94 82.79 82.90 83.05 83.03 83.14 83.40
50.79 50.50 50.50 50.11 49.38 48.44 47.77 48.86 49.62 50.20 50.48 50.79 50.60 50.50 49.31 48.16 48.94 48.69 48.67 49.27 49.83 50.54 51.03 51.20 51.33 51.32 51.57 51.84 51.84 51.91 52.04 52.02 52.01 52.26 52.37 52.47 52.62 52.58 52.63 52.47 52.32 51.93 52.16 52.78 53.07 53.13 53.47 53.72 53.62 53.73 54.06 54.39 54.43 54.65 55.22 55.39 55.32 55.36 56.07 57.20 56.65 55.90 55.43 55.50 55.42 55.11 54.99 54.81 54.54 54.35 54.46 54.48 54.53 53.59 53.17 53.36 52.96 52.73 53.05 53.53 53.78 53.22 53.28 53.04 52.90 53.13 53.76 54.03 54.31 54.64 54.70 54.43 54.37 54.71 54.86 54.80 54.62 55.00 54.86 54.67 54.65 54.42 54.47 54.41 54.41 54.35 54.12 54.16 54.30 54.22 54.39 54.57 54.63 54.49 54.22 54.45 54.50 54.34 54.55 55.06 55.34 54.72 54.49 54.17 54.00 53.89 54.06 54.19 53.84 53.48 53.46 53.30 53.08 52.28 52.30 52.04 52.34 52.58 51.90 52.44 53.35 52.27 51.26 50.76 50.24 49.89 49.77 49.71 48.99 48.68 48.65 48.03 46.89 46.39 47.39 48.75 49.91 49.10 48.84 48.76 48.64 47.83 47.11 47.65 41.56 37.50 37.50 38.19 41.83 46.41 48.29 48.85 49.22 49.13 49.01 48.69 48.16 47.65 47.18 48.31 48.71 49.25 50.15 50.94 51.72 52.49 52.60 51.74 51.57 51.65 51.82 52.23 52.66 53.14 53.76 53.84 53.25 53.10 53.06 53.01 53.14 53.53 53.84 54.06 54.56 55.07 55.08 55.21 55.40 55.45 55.53 55.70 56.07 56.28 56.47 56.73 57.00 57.62 58.31 59.05 61.09 63.25 63.93 64.76 65.50 66.64 66.29 65.80 67.01 67.30 64.98 63.65 64.14 64.89 63.03 61.29 60.62 60.51 60.50 60.64 61.01 61.77 62.25 62.55 63.52 64.40 64.77 64.25 64.49 66.29 65.96 66.16 65.64 66.80 68.42 68.58 68.55 68.54 69.24 69.26 69.49 69.68 70.32 71.98 73.06 72.96 72.82 73.70 74.36 75.14 76.02 77.22 78.24 78.91 79.51 81.09 84.71 88.83 91.72 92.26 93.19 93.26 92.99 94.23 95.98 93.81 94.46 93.81 94.48 96.84 98.27 99.58 99.65 95.39 93.29 91.63 89.98 88.81 87.41 86.34 85.66 84.76 84.14 83.67 83.02 82.88 82.31 81.96 80.92 79.97 79.85 80.14 79.63 79.11 79.86 79.48 79.24 78.73 78.88 78.66 78.24 78.24 78.36 78.73 79.03 79.67 81.71 83.78 83.79 81.36 79.43 79.21 77.51 76.46 75.90 75.83 75.59 75.58 75.59 75.32 75.27 75.18 75.14 75.41 75.52 75.54 75.92 75.90 75.85 75.86 75.91 75.98 76.31 76.62 76.66 76.69 76.69 76.70 76.87 77.00 77.12 77.39 77.29 77.25 77.33 77.72 77.88 77.82 77.94 77.93 78.05 78.13 78.30 78.54 78.94 79.16 79.37 79.83 80.00 80.12 80.41 80.51 80.67 80.77 80.96 81.18 81.46 81.47 81.58 81.79 82.03 82.10 82.43 82.71 82.61 82.55 82.75 82.75 82.89 83.37
50.53 50.25 50.08 49.64 49.10 48.75 48.03 49.38 49.83 50.45 50.75 50.78 50.22 50.54 48.78 48.32 49.52 49.30 49.09 49.03 49.14 49.66 50.66 51.19 51.59 51.62 51.62 51.65 51.76 51.92 52.13 52.10 51.98 52.19 52.39 52.55 52.69 52.73 52.66 52.55 52.39 51.84 51.76 52.32 52.78 53.49 54.14 53.80 53.36 53.64 53.97 54.17 54.35 54.59 55.10 55.46 55.19 55.36 56.56 58.06 56.58 55.85 55.30 55.12 55.30 54.87 54.74 54.78 55.59 54.88 54.19 54.31 53.80 53.02 53.11 53.37 52.87 53.19 53.68 53.70 54.26 53.77 53.47 53.29 53.41 53.50 54.10 54.50 54.22 54.43 54.92 54.99 54.71 54.99 55.24 55.17 54.92 55.30 55.38 54.99 54.96 54.77 54.73 54.74 54.67 54.34 54.32 54.57 54.54 54.55 55.01 55.16 55.07 54.98 54.79 54.64 54.74 54.80 55.41 55.94 55.17 54.79 54.53 54.24 54.20 54.02 54.33 54.38 53.97 53.57 53.22 53.23 53.33 52.97 53.19 53.11 52.89 52.64 52.21 52.06 52.63 52.04 51.15 50.82 50.51 50.03 49.73 49.57 49.28 48.96 48.83 48.43 47.86 46.60 46.63 48.61 49.96 49.72 49.10 48.91 48.74 48.39 48.37 48.48 43.82 37.61 37.50 37.78 40.30 45.23 48.17 48.90 49.11 49.23 49.26 49.21 48.94 48.53 47.58 47.63 48.20 49.07 50.04 51.10 51.86 52.68 53.09 52.32 51.73 51.46 51.55 52.00 52.55 53.07 53.45 54.00 53.40 53.14 53.18 53.17 53.31 53.62 53.89 54.17 54.95 55.70 55.34 55.40 55.46 55.56 55.90 56.07 56.44 56.51 56.70 57.02 57.08 57.66 58.56 59.91 63.20 64.88 63.94 63.64 64.62 66.03 66.81 66.60 67.54 69.00 66.65 66.01 67.98 69.26 66.64 63.19 61.69 60.85 60.52 61.05 61.94 63.26 63.67 63.32 65.35 63.84 63.16 63.03 64.38 65.56 65.01 66.99 66.09 66.42 69.05 68.51 68.45 68.23 68.55 68.32 68.83 69.53 70.31 71.51 73.05 73.55 72.89 73.47 74.20 75.09 75.95 77.22 78.03 79.00 80.09 82.68 86.67 90.94 93.57 93.73 94.29 92.90 92.02 94.62 96.97 94.96 95.57 96.60 95.11 96.10 97.54 98.84 100.45 97.06 93.74 91.26 89.76 88.59 87.38 86.46 85.76 84.68 84.04 83.64 83.19 83.46 82.06 81.92 80.98 80.15 80.37 80.45 79.39 78.83 79.67 79.60 79.14 78.58 78.51 78.66 78.24 78.27 78.32 78.51 78.96 79.67 81.17 82.18 81.81 79.52 78.29 78.13 77.30 76.44 76.03 75.90 76.07 76.37 76.56 76.00 75.73 75.41 75.30 75.28 75.37 75.46 75.82 75.99 75.74 75.71 75.72 75.88 76.11 76.43 76.32 76.40 76.54 76.44 76.48 76.84 76.97 77.01 76.88 77.01 77.11 77.58 77.63 77.59 77.70 77.73 77.75 77.88 78.04 78.30 78.66 78.96 79.03 79.44 79.70 79.93 80.01 80.11 80.34 80.60 80.73 80.89 81.22 81.27 81.34 81.54 81.83 81.85 82.18 82.22 82.34 82.28 82.35 82.44 82.66 83.06
50.67 50.38 50.22 49.71 49.17 48.77 47.93 49.60 50.11 50.54 50.80 50.83 50.07 49.62 48.14 49.23 49.96 49.58 49.89 49.90 49.54 49.29 50.13 50.86 51.47 51.67 51.75 51.71 51.80 51.86 52.09 52.26 52.19 52.26 52.46 52.53 52.54 52.63 52.61 52.57 52.51 52.22 52.11 52.10 52.10 52.93 53.93 55.67 54.09 53.96 53.90 54.00 54.15 54.66 55.47 55.48 55.26 55.04 55.02 55.73 56.41 55.84 55.18 54.84 55.05 54.72 54.71 54.57 55.23 55.06 54.48 53.83 53.11 52.90 52.99 53.30 53.24 54.31 54.24 54.19 54.52 53.91 53.50 53.29 53.48 53.78 54.24 54.62 54.54 54.61 55.05 55.24 55.32 55.32 55.52 55.59 55.45 55.70 55.91 55.09 55.12 55.22 55.21 55.18 55.03 54.51 54.44 54.66 54.61 54.88 55.34 55.54 55.34 55.24 55.07 54.89 55.14 55.17 55.48 55.28 54.95 54.98 54.73 54.62 54.37 54.24 54.51 54.52 54.13 53.77 53.39 53.30 53.36 53.21 53.61 53.32 52.99 52.73 52.24 52.06 52.16 51.73 51.16 50.92 50.76 50.07 50.00 49.63 49.47 49.28 49.25 49.73 48.90 46.94 46.85 48.90 50.13 50.28 49.56 49.17 48.86 48.63 48.64 49.08 46.12 38.31 37.51 37.69 39.11 43.11 47.49 48.82 49.13 49.33 49.46 49.44 49.16 48.74 48.15 47.28 47.70 48.77 49.95 50.71 51.56 52.63 53.23 53.06 52.05 51.50 51.63 51.99 52.60 53.00 53.34 53.87 53.68 53.21 53.17 53.21 53.48 53.68 53.92 54.17 54.91 55.77 55.65 55.55 55.75 55.99 56.07 56.39 56.87 56.57 56.69 56.95 57.01 57.48 58.38 60.37 63.68 65.19 63.55 62.94 63.70 64.96 66.29 66.89 68.00 70.04 67.88 67.17 68.15 68.91 69.08 67.27 65.96 63.90 61.55 61.78 62.26 63.06 64.57 63.08 64.05 62.92 62.57 62.74 64.08 64.78 64.46 66.11 66.23 66.59 67.26 67.41 68.14 68.58 68.77 68.47 68.87 69.64 70.47 71.44 72.18 72.08 71.63 72.62 74.14 75.21 76.20 77.35 78.22 79.57 80.95 82.77 84.99 88.88 90.60 91.76 92.01 89.90 91.48 95.85 98.09 96.47 97.02 98.49 96.95 96.80 99.05 100.39 99.64 94.80 93.70 91.74 90.16 89.12 87.77 86.97 85.92 84.72 83.95 83.27 82.78 82.78 81.86 81.89 81.16 80.56 80.37 79.73 79.37 78.92 79.36 79.85 79.50 79.17 78.36 78.30 78.29 78.36 78.35 78.46 79.04 80.04 81.16 81.38 79.92 78.79 78.07 77.68 76.92 76.51 76.28 76.05 76.12 76.13 75.86 76.34 76.79 75.64 75.35 75.27 75.43 75.58 75.78 75.85 75.95 75.64 75.61 75.72 75.79 76.09 76.20 76.13 76.07 76.18 76.21 76.49 76.64 76.67 76.80 76.82 76.88 77.21 77.30 77.34 77.44 77.50 77.53 77.62 77.84 78.20 78.47 78.70 78.84 79.13 79.36 79.67 79.64 79.78 80.00 80.20 80.40 80.46 80.91 80.99 81.11 81.51 81.70 81.63 81.81 81.96 82.05 81.91 82.04 82.25 82.53 82.72
50.95 50.84 50.57 50.24 49.50 48.80 48.29 49.43 50.20 50.65 50.86 50.87 50.45 48.81 48.10 49.94 50.25 49.81 50.39 50.64 50.30 50.22 50.31 50.32 51.09 51.66 51.88 52.00 51.97 51.93 52.09 52.21 52.32 52.27 52.38 52.51 52.60 52.77 52.87 52.60 52.60 52.43 52.33 52.57 52.35 52.65 53.82 54.46 54.26 54.28 53.83 54.00 54.12 54.25 55.07 55.11 54.90 54.71 54.61 55.24 56.08 55.91 54.97 54.77 54.63 54.54 54.68 54.35 54.32 54.41 54.10 53.43 52.96 52.79 53.01 53.30 53.49 55.00 54.31 54.80 54.41 54.38 53.91 53.58 53.72 53.85 54.25 54.61 54.72 54.96 55.52 56.27 55.92 55.64 56.05 56.19 56.23 56.22 56.69 55.66 55.39 55.68 55.67 55.66 55.29 54.90 54.99 55.10 54.99 55.21 55.67 55.78 55.77 55.68 55.27 55.24 55.34 55.13 55.05 55.09 55.50 55.71 55.37 55.18 54.81 54.58 54.83 54.49 54.15 53.83 53.56 53.47 53.34 53.32 53.21 52.62 52.73 52.64 52.20 52.12 52.33 52.18 51.57 51.15 50.74 50.30 49.92 49.85 49.57 49.90 50.59 49.95 49.04 46.80 46.92 49.17 50.30 50.22 49.74 49.35 49.07 48.85 48.98 51.18 48.68 39.84 37.82 37.96 38.55 41.14 46.46 48.75 49.18 49.39 49.43 49.29 49.32 48.98 48.67 47.82 47.61 48.15 49.11 50.13 51.20 52.34 52.88 52.81 51.82 51.16 51.42 52.14 52.55 53.03 53.53 53.93 53.85 53.06 52.95 53.19 53.37 53.65 53.95 54.19 54.87 55.99 56.00 55.77 55.85 56.28 56.52 56.88 57.15 56.98 56.88 57.23 57.63 58.25 58.71 59.74 63.01 65.40 63.45 62.64 63.16 64.11 65.10 65.97 67.63 71.01 70.42 68.69 68.85 68.19 68.75 69.21 69.23 67.65 65.30 63.06 62.65 62.74 63.84 62.56 63.03 62.98 62.74 63.26 63.09 63.73 64.68 66.13 66.41 66.60 67.22 67.52 67.97 68.09 68.36 68.84 69.35 70.11 70.83 71.23 71.13 71.04 71.23 72.70 74.12 75.21 76.58 77.95 79.44 81.97 83.31 86.04 85.30 85.82 86.66 87.58 88.13 88.96 91.62 96.16 98.85 97.93 98.18 99.91 99.28 98.04 99.05 100.99 99.05 92.58 92.10 91.89 90.48 89.23 87.84 86.83 85.78 84.69 83.76 83.17 82.71 82.39 81.59 81.41 81.22 81.23 80.27 79.57 79.38 79.10 79.21 79.79 79.15 79.03 79.66 79.14 78.59 78.36 78.27 78.53 79.13 80.13 81.29 81.20 79.16 78.54 78.32 77.66 76.94 76.84 76.46 76.09 76.06 76.10 76.70 76.35 76.03 75.57 75.35 75.51 75.39 75.51 75.78 75.89 75.81 75.67 75.68 75.61 75.63 75.80 75.91 75.77 75.73 75.91 76.22 76.39 76.47 76.50 76.83 76.83 76.76 76.94 77.02 77.06 77.20 77.40 77.46 77.44 77.68 77.93 78.21 78.40 78.55 78.75 78.91 79.13 79.29 79.47 79.59 79.95 80.17 80.24 80.58 80.71 80.81 81.11 81.24 81.30 81.55 81.61 81.71 81.67 81.70 81.92 82.33 82.74
50.97 50.74 50.34 50.10 49.17 48.59 49.35 49.71 50.10 50.59 51.02 51.13 51.00 49.89 48.79 49.08 49.91 49.89 50.23 50.88 50.60 50.59 50.98 50.61 50.67 51.23 51.68 51.99 52.11 52.06 52.11 52.27 52.38 52.37 52.53 52.60 52.70 52.70 52.91 52.86 52.69 52.62 52.43 52.49 52.54 52.55 53.61 54.05 54.01 54.10 53.92 54.45 54.23 54.00 54.81 55.03 54.87 54.76 54.62 55.08 55.41 55.11 54.81 54.71 54.57 54.42 54.37 53.98 53.62 53.48 53.32 53.21 52.97 52.81 53.06 52.93 54.31 56.26 55.62 56.41 55.24 55.31 54.32 54.11 54.05 54.18 54.21 54.54 55.04 55.29 55.39 56.59 56.50 56.20 56.18 56.61 56.65 56.76 57.21 56.28 55.72 56.07 56.19 56.37 55.96 55.59 55.57 55.63 55.36 55.55 56.07 56.26 56.25 56.05 55.56 55.56 56.39 55.94 55.58 55.57 55.78 55.78 55.59 55.48 55.18 54.84 54.79 54.41 54.36 54.06 53.99 54.03 53.86 53.63 53.19 52.96 52.89 52.60 52.38 52.35 52.36 52.38 52.10 51.47 50.86 50.34 50.04 49.69 49.48 49.66 50.04 49.61 47.80 46.73 47.25 49.49 50.34 49.74 49.88 49.66 49.13 49.20 48.97 50.54 49.72 43.37 38.09 38.00 38.24 39.73 44.38 48.67 49.33 49.43 49.52 49.50 49.35 49.37 49.10 48.53 47.81 47.64 48.25 48.96 50.26 51.40 51.90 51.60 51.08 50.92 51.38 52.12 52.59 53.08 53.59 53.74 53.35 52.90 52.76 52.96 53.06 53.41 53.79 54.15 55.20 56.51 56.24 56.19 56.31 56.40 56.57 56.83 57.21 57.29 57.39 57.73 58.04 58.62 58.86 59.46 62.33 65.93 63.57 62.39 62.78 63.54 64.95 65.46 66.75 69.47 71.76 70.68 70.82 70.07 67.97 67.78 67.30 66.73 66.86 64.83 62.96 62.76 62.32 63.27 63.13 62.85 62.98 63.95 63.11 63.08 64.45 65.19 65.29 65.55 66.67 67.13 68.03 68.43 68.55 68.89 69.50 70.55 71.50 71.19 71.26 71.57 72.41 73.37 74.66 75.70 76.97 78.87 82.43 86.63 86.97 88.70 87.42 87.59 86.22 86.80 87.95 89.43 93.00 97.05 98.85 99.32 99.43 100.61 101.01 100.32 100.49 101.57 100.16 93.72 91.70 92.07 91.31 90.09 87.73 86.42 85.38 84.64 83.78 83.13 82.61 82.35 81.72 81.67 81.53 81.89 80.27 79.72 79.59 79.40 79.36 79.13 78.62 78.77 79.44 79.31 78.72 78.46 78.38 78.50 78.81 79.57 81.34 80.90 79.08 78.17 77.66 77.38 77.51 77.13 76.75 76.25 76.12 76.13 76.52 75.99 75.65 75.58 75.46 75.89 75.59 75.39 75.74 75.58 75.58 75.74 75.73 75.65 75.57 75.69 75.62 75.46 75.57 75.99 76.20 76.15 76.18 76.37 76.62 76.66 76.53 76.56 76.62 76.90 77.05 77.19 77.19 77.26 77.43 77.70 77.93 78.12 78.25 78.51 78.71 78.95 79.15 79.25 79.40 79.63 79.73 79.91 80.15 80.45 80.44 80.51 80.64 80.91 81.13 81.45 81.55 81.49 81.68 81.81 82.00 82.35
50.63 50.26 49.83 49.47 48.63 49.07 49.79 50.17 50.31 50.81 51.12 51.29 50.94 50.27 49.74 48.66 49.43 50.13 49.91 50.39 50.74 50.96 51.33 51.31 51.21 51.21 51.39 51.66 51.92 52.03 52.24 52.43 52.45 52.50 52.65 52.61 52.77 52.73 52.91 53.01 52.92 52.95 52.69 52.53 52.61 52.77 53.44 53.70 53.92 53.70 53.97 53.90 54.26 53.95 54.48 54.93 54.92 54.64 54.57 54.58 54.67 54.76 54.72 54.49 54.55 54.37 54.21 53.70 53.45 53.34 53.31 53.13 53.03 53.16 53.09 52.56 54.32 54.79 54.90 55.28 54.75 54.65 54.28 54.28 54.27 54.40 54.53 54.83 55.34 55.87 56.01 56.11 56.52 56.55 56.75 56.82 56.96 57.04 56.62 56.44 56.11 56.39 56.34 56.34 55.68 55.43 55.49 55.39 55.54 55.86 56.25 56.54 56.58 56.48 55.95 56.04 57.14 56.84 55.95 55.86 55.73 55.79 55.80 55.69 55.46 55.05 54.87 54.63 54.45 54.34 54.15 54.00 53.74 53.49 53.38 53.33 53.07 52.82 52.47 52.41 52.11 51.86 51.44 51.13 50.91 50.96 50.41 49.78 49.71 49.85 49.68 48.69 47.32 46.94 46.80 48.88 49.34 49.56 50.11 50.08 49.62 49.52 49.09 49.74 50.65 47.16 39.30 38.00 38.12 38.95 41.85 47.32 49.36 49.50 49.65 49.88 49.80 49.74 49.37 49.02 48.69 48.42 48.29 48.18 48.87 50.28 50.83 50.63 50.53 50.62 51.31 52.13 52.55 52.88 53.42 53.43 53.10 53.04 52.91 53.00 53.21 53.51 53.95 54.51 55.69 57.97 58.56 57.02 56.68 56.64 56.80 56.97 57.43 57.72 57.81 58.04 58.27 58.65 59.08 59.48 61.63 64.96 62.62 62.03 62.52 63.22 64.58 65.83 67.32 68.69 70.86 71.68 72.13 72.59 69.19 67.03 65.90 65.44 65.04 64.39 63.16 62.82 62.20 62.42 62.42 62.47 62.09 62.16 62.63 63.20 63.94 64.18 64.37 65.04 65.75 67.40 68.28 68.65 69.47 69.71 69.99 71.61 72.60 72.54 73.16 72.84 74.14 75.20 75.57 76.27 77.39 79.80 84.29 85.15 87.65 89.36 88.58 88.35 86.57 87.52 88.76 90.29 93.18 95.96 97.83 99.45 100.21 99.96 99.49 100.20 100.96 101.85 102.49 96.26 92.50 92.21 91.86 90.72 87.31 85.84 84.75 84.33 83.77 83.20 82.66 82.19 81.92 81.63 81.33 81.08 80.46 80.02 79.73 79.55 79.47 79.09 78.70 78.88 79.31 79.80 78.55 78.38 78.40 78.35 78.46 79.01 79.72 79.61 78.90 78.16 77.61 77.90 77.26 76.91 77.09 76.83 76.21 75.89 75.77 75.83 75.64 75.70 75.83 75.89 75.79 75.87 75.98 75.70 75.65 75.59 75.62 75.81 75.85 75.60 75.36 75.25 75.45 75.69 75.81 75.77 75.83 75.89 75.90 76.03 76.29 76.19 76.24 76.59 76.91 77.03 77.05 77.16 77.41 77.57 77.66 77.80 78.02 78.21 78.38 78.61 78.82 79.07 79.27 79.45 79.54 79.77 79.96 80.33 80.22 80.22 80.42 80.63 80.85 81.30 81.67 81.43 81.65 81.81 82.05 81.89
50.43 49.66 48.87 49.06 49.10 49.39 49.97 50.32 50.56 50.85 51.07 51.21 51.05 50.75 50.14 49.19 49.31 49.93 49.89 50.20 50.82 51.01 51.22 51.44 51.42 51.63 51.63 51.75 51.83 52.09 52.30 52.46 52.51 52.63 52.65 52.72 52.77 52.71 52.90 53.15 53.10 53.11 53.01 52.75 52.63 52.81 53.68 53.76 53.67 53.70 53.68 53.66 54.09 54.34 54.37 54.97 55.26 54.68 54.53 54.62 54.71 54.73 54.63 54.44 54.54 54.23 53.83 53.69 53.57 53.43 53.19 53.01 53.07 53.31 53.37 53.56 54.32 54.38 54.65 54.48 54.45 54.50 54.26 54.18 54.28 54.48 54.77 54.91 55.31 55.79 56.30 56.14 56.29 57.10 57.71 57.42 57.62 57.24 56.74 56.65 56.56 56.69 56.63 56.21 55.60 55.73 55.81 55.83 55.97 56.20 56.60 56.83 56.86 56.83 56.43 56.41 57.53 57.72 56.34 56.12 56.13 56.15 56.24 56.22 55.72 55.14 54.83 54.75 54.77 54.53 54.29 54.02 53.82 53.73 53.51 53.49 53.26 52.96 52.46 52.41 52.14 51.82 51.49 51.31 51.09 51.68 51.29 50.51 50.96 50.38 49.47 47.91 47.63 47.38 46.27 47.76 49.04 49.85 50.40 50.10 49.49 49.46 49.35 49.69 50.40 50.32 42.51 38.00 38.04 38.30 39.73 44.52 48.81 49.49 49.70 49.90 49.97 49.75 49.59 49.52 49.14 48.93 48.91 48.72 48.78 49.32 49.70 49.67 50.08 50.57 51.27 51.78 52.21 52.62 53.02 53.01 52.87 52.92 52.98 53.28 53.49 53.78 54.25 55.01 56.22 58.62 60.44 58.05 56.88 56.84 57.06 57.15 57.40 58.18 57.97 58.25 58.51 58.72 59.26 59.82 61.53 62.25 61.58 61.96 62.49 63.22 64.39 65.29 66.92 68.49 69.67 71.43 71.45 70.39 69.24 66.92 65.36 64.52 64.17 63.40 62.57 62.62 62.14 61.60 62.65 62.55 61.29 61.31 61.71 62.66 63.40 64.18 64.47 65.11 65.15 66.14 67.15 68.52 69.55 69.15 69.16 71.05 72.70 73.21 73.87 74.18 75.40 76.55 76.37 76.34 77.06 78.39 79.90 81.42 84.41 85.68 85.52 85.66 86.59 88.75 91.08 92.93 93.56 95.57 97.19 98.85 98.83 97.41 96.13 96.29 98.36 99.97 101.70 97.38 94.12 92.77 91.77 89.25 86.23 84.92 83.91 83.65 83.51 83.24 82.71 82.32 82.04 81.48 81.15 80.77 80.31 80.13 79.88 79.70 79.77 79.42 79.01 78.99 79.46 79.43 78.60 78.39 78.40 78.35 78.56 78.71 78.54 78.47 78.74 78.17 77.61 78.22 77.86 77.06 76.70 76.50 76.49 76.06 76.04 76.05 75.97 75.96 76.01 75.83 75.78 75.89 76.04 75.89 75.63 75.55 75.75 76.54 77.05 76.13 75.33 75.22 75.27 75.32 75.52 75.79 75.72 75.62 75.54 75.73 76.04 75.89 75.94 76.25 76.65 76.80 76.77 76.89 77.25 77.47 77.49 77.61 77.87 77.95 78.19 78.46 78.63 78.97 79.00 79.21 79.43 79.54 80.06 80.14 79.99 80.11 80.33 80.51 80.71 80.97 81.15 81.04 81.17 81.53 81.63 81.49
49.95 49.19 49.32 49.75 49.42 49.58 49.98 50.14 50.43 50.89 51.09 51.34 51.35 51.13 50.50 48.97 49.10 49.34 49.84 50.30 50.55 51.21 51.42 51.62 51.61 51.95 51.97 51.97 51.97 52.03 52.30 52.51 52.56 52.61 52.74 52.83 52.93 52.86 52.93 53.17 53.15 53.16 53.20 53.00 52.80 52.71 53.54 53.78 54.06 53.88 53.47 53.74 54.01 54.46 54.69 54.51 54.80 54.68 54.64 54.71 54.69 54.76 54.77 54.69 54.62 54.40 53.71 53.71 53.62 53.42 53.31 53.15 53.17 53.44 53.34 54.06 54.32 54.44 54.62 54.57 54.37 54.46 54.44 54.36 54.43 54.47 54.89 55.08 55.31 55.82 56.34 56.83 56.54 57.26 57.85 57.95 58.00 57.09 57.03 57.09 57.14 57.20 56.79 56.28 56.19 56.43 56.54 56.53 56.57 56.80 57.12 57.28 57.26 57.32 56.72 56.82 58.15 58.11 56.73 56.51 56.55 56.66 56.71 56.50 55.92 55.39 55.19 55.27 55.11 54.73 54.45 54.38 54.08 54.30 53.81 53.49 53.26 53.01 52.73 52.52 52.47 52.16 51.90 51.42 51.33 51.35 51.39 51.74 51.14 49.99 49.15 48.22 47.98 47.89 46.95 47.16 48.89 50.10 50.68 50.27 50.52 51.26 50.24 49.98 50.67 50.17 45.11 38.37 38.00 38.01 38.45 41.88 47.63 49.44 49.70 49.99 50.15 49.93 49.81 49.89 49.82 49.61 49.69 49.41 49.10 49.36 49.69 49.83 50.09 50.66 51.07 51.29 51.57 51.97 52.29 52.63 52.62 52.79 53.09 53.48 53.62 53.93 54.35 54.99 56.79 59.59 61.27 58.45 57.18 57.21 57.27 57.35 57.50 57.97 58.16 58.42 58.82 59.22 59.65 60.30 60.82 60.57 60.85 61.96 62.60 63.35 64.26 65.13 66.68 68.04 68.70 70.89 71.19 68.46 67.55 66.26 65.59 64.87 63.52 62.51 62.21 63.08 62.07 61.82 62.40 62.32 61.19 61.56 61.80 62.61 63.17 63.16 63.91 64.65 65.05 65.89 66.88 67.88 68.12 67.78 67.78 67.96 68.53 69.07 70.60 73.09 74.74 75.28 75.27 75.92 77.12 78.48 79.80 81.00 81.84 82.60 83.83 86.12 89.30 91.67 94.36 96.27 96.54 97.15 98.40 98.75 96.78 94.68 93.06 94.12 97.72 100.10 99.09 95.71 93.05 92.48 91.08 87.18 85.10 84.05 83.26 82.83 82.96 82.87 82.60 82.56 82.41 81.73 81.52 81.06 80.50 80.56 80.30 79.65 79.43 79.38 79.05 78.95 78.95 78.79 78.94 78.76 78.78 78.85 78.72 78.66 78.26 78.01 78.15 78.05 77.65 77.67 77.31 76.71 76.36 76.28 76.63 76.40 76.58 76.00 76.11 76.13 75.89 75.70 75.59 75.58 75.84 75.56 75.39 75.64 76.76 77.35 77.42 77.22 75.75 75.29 75.27 75.03 75.26 75.64 75.57 75.43 75.31 75.45 75.70 75.74 75.92 76.24 76.35 76.42 76.46 76.89 77.37 77.63 77.54 77.51 77.69 77.87 78.19 78.24 78.35 78.71 78.83 79.14 79.30 79.36 79.65 79.68 79.70 80.03 80.15 80.28 80.40 80.67 80.74 80.79 80.95 81.21 81.13 81.16
49.77 49.04 49.49 49.89 49.52 49.84 50.17 50.22 50.39 50.82 51.20 51.39 51.41 51.36 50.63 49.03 49.24 49.50 49.96 50.50 50.62 51.38 51.65 51.76 51.85 52.00 52.16 52.16 52.09 52.25 52.34 52.47 52.66 52.67 52.77 52.98 52.96 52.96 52.96 53.16 53.65 53.41 54.11 53.63 53.01 52.85 52.86 53.20 53.79 54.74 53.66 53.81 54.24 54.70 55.06 54.69 54.55 54.52 54.57 54.73 54.94 54.87 54.72 54.66 54.67 54.38 53.86 53.79 53.60 53.37 53.43 53.32 53.34 53.50 52.84 54.03 54.33 54.65 54.86 54.92 54.55 54.65 54.71 54.59 54.80 54.99 55.15 55.34 55.55 56.06 56.54 57.21 57.27 57.45 57.97 58.08 57.78 57.28 57.25 57.44 57.35 57.12 56.74 56.54 56.69 56.92 56.96 56.80 56.95 57.06 57.41 57.42 57.42 57.38 56.95 57.02 57.28 57.43 56.83 56.98 56.98 57.05 57.13 56.74 56.05 55.96 55.98 55.86 55.57 54.98 54.80 54.46 54.10 54.62 54.17 53.58 53.46 53.01 52.96 52.81 52.73 52.56 52.23 51.64 51.34 51.32 51.92 51.21 49.70 49.02 49.16 49.51 49.00 48.83 47.82 46.80 47.81 50.86 50.74 50.14 51.25 52.16 50.66 49.77 51.13 50.33 46.58 39.60 38.07 38.00 38.02 39.33 44.94 49.04 49.68 49.96 50.17 50.23 50.19 50.25 50.17 49.96 49.95 49.97 49.70 49.82 50.18 50.24 50.38 50.68 50.88 51.32 51.43 51.62 51.90 52.36 52.40 52.77 53.00 53.34 53.50 53.81 54.28 54.96 56.40 57.84 59.34 58.06 57.47 57.60 57.69 57.76 57.87 58.16 58.33 58.57 59.42 59.77 59.60 60.02 60.12 60.76 61.87 62.38 62.72 63.53 64.22 65.15 66.42 67.86 68.39 69.57 70.67 68.13 66.17 65.54 65.46 64.49 63.31 62.23 61.79 62.47 62.40 63.44 61.58 61.17 61.05 61.23 61.89 63.11 63.09 62.72 63.74 64.24 64.59 65.36 66.31 66.89 66.85 66.66 66.48 65.40 66.55 67.03 67.62 69.53 71.57 73.36 74.18 75.29 77.14 78.59 79.22 80.05 81.77 83.24 84.92 87.71 91.21 93.42 95.12 96.57 97.73 98.35 97.84 96.80 94.85 92.21 91.32 94.57 99.21 99.93 96.42 92.35 90.48 89.74 87.79 85.37 84.10 83.26 82.77 82.16 82.41 83.01 83.05 82.50 82.29 81.86 81.49 81.02 80.78 80.59 80.36 79.87 79.57 79.54 79.20 79.08 79.08 79.04 79.17 78.88 78.66 78.42 78.65 78.96 78.17 77.95 77.93 78.00 77.66 77.28 76.87 76.45 76.33 76.26 76.43 76.32 76.83 76.14 76.08 75.81 75.73 75.74 75.78 75.77 75.77 75.59 75.52 76.47 77.23 77.31 77.27 77.60 76.79 75.23 75.00 74.81 75.05 75.29 75.29 75.29 75.28 75.30 75.46 75.59 75.82 76.24 76.23 76.03 76.28 76.61 76.91 77.30 77.36 77.34 77.52 77.70 77.94 78.00 78.26 78.49 78.77 79.02 79.22 79.30 79.57 79.61 79.72 79.93 79.92 80.03 80.16 80.46 80.40 80.45 80.58 80.73 80.88 80.90
49.73 49.14 49.60 49.85 49.81 50.24 50.32 50.49 50.66 51.00 51.24 51.38 51.50 51.50 50.83 49.49 49.01 49.87 50.36 50.64 50.77 51.26 51.55 51.79 51.99 52.12 52.38 52.37 52.19 52.34 52.54 52.54 52.77 52.81 52.90 52.96 52.95 53.23 53.44 53.24 53.92 53.94 54.72 54.36 53.27 53.13 53.02 53.03 53.54 54.29 53.78 53.68 54.32 54.87 54.99 54.82 54.30 54.29 54.50 54.64 54.97 54.91 54.91 54.68 54.49 54.66 54.74 54.08 53.67 53.48 53.57 53.43 53.50 53.80 52.91 54.13 54.68 54.94 55.15 55.10 54.84 54.94 54.87 54.85 55.01 55.21 55.40 55.78 55.91 56.33 57.01 57.74 57.83 57.82 58.28 58.24 58.01 57.94 57.88 57.73 57.60 57.53 57.34 57.25 57.03 57.15 57.16 57.06 57.32 57.37 57.68 57.78 57.64 57.41 57.09 56.89 57.05 57.31 57.23 57.47 57.64 57.50 57.20 56.51 56.08 56.18 56.01 55.81 55.62 54.88 54.79 54.48 54.34 54.70 54.20 53.76 53.71 53.26 53.20 52.99 52.88 52.65 52.66 51.98 51.56 51.32 51.26 50.57 49.37 49.00 49.23 49.87 49.54 49.67 48.22 47.24 46.95 49.43 50.08 49.65 50.50 51.24 50.83 50.17 51.28 51.31 48.05 42.03 39.12 38.01 38.00 38.16 40.92 47.24 49.71 49.95 50.36 50.40 50.53 50.48 50.43 50.27 50.18 50.31 50.27 50.25 51.03 50.52 50.50 50.45 50.78 51.37 51.81 52.07 52.01 52.04 52.28 52.89 52.98 53.21 53.45 53.83 54.10 54.79 56.05 56.41 56.84 57.32 57.57 58.01 58.23 58.52 58.39 58.52 58.76 58.78 59.02 59.28 59.51 59.91 60.05 60.80 62.06 62.55 63.00 63.70 64.29 65.04 65.71 65.94 67.14 67.34 69.54 68.14 65.71 64.86 64.63 64.21 63.39 62.53 61.32 60.98 61.79 63.52 60.84 60.84 60.92 61.08 61.70 63.05 63.11 63.10 64.08 64.88 64.51 64.64 65.59 66.52 66.64 66.07 66.00 65.84 68.17 68.36 67.73 68.06 69.25 73.03 74.39 75.06 76.45 77.80 77.18 78.10 81.62 83.67 86.82 88.02 89.29 91.63 93.76 95.57 96.98 96.62 94.43 93.41 93.01 90.25 90.39 94.48 98.26 97.71 96.04 89.88 88.09 86.83 85.47 84.35 83.51 82.77 82.24 81.75 82.24 82.85 83.05 82.50 82.07 81.80 81.49 81.15 80.92 80.62 80.45 79.99 79.86 79.80 79.49 79.33 79.23 79.11 79.11 78.73 78.40 78.89 78.77 78.85 78.17 78.16 77.90 78.10 77.91 77.19 76.69 76.34 76.35 76.25 76.31 76.33 76.64 76.25 76.15 76.10 76.03 75.83 75.66 75.83 75.70 75.67 76.15 77.12 77.08 77.14 77.39 77.59 77.15 75.46 75.05 74.66 74.41 74.33 74.56 74.94 75.05 75.08 75.20 75.33 75.55 75.90 75.98 75.84 76.16 76.44 76.57 76.95 77.09 77.09 77.29 77.53 77.70 77.83 78.10 78.30 78.60 78.60 79.04 79.11 79.18 79.42 79.49 79.62 79.73 79.91 80.04 80.18 80.17 80.21 80.37 80.41 80.62 80.53
49.90 49.57 49.56 49.84 49.83 50.06 50.17 50.53 50.76 50.98 51.14 51.25 51.49 51.68 51.49 50.72 49.29 49.64 50.50 50.69 50.89 51.29 51.45 51.73 52.01 52.20 52.41 52.44 52.49 52.51 52.62 52.71 52.83 53.03 53.05 53.04 53.12 53.60 54.68 53.45 53.56 54.14 53.97 54.85 53.75 53.62 53.99 53.23 53.37 53.63 53.61 53.65 54.05 54.63 55.04 55.15 54.43 54.30 54.54 54.68 54.82 54.82 54.79 54.68 54.64 55.23 55.42 54.81 53.90 53.65 53.65 53.63 53.91 54.05 54.16 55.09 54.99 55.10 55.25 55.17 55.09 55.07 55.03 55.04 55.18 55.54 55.80 56.16 56.53 56.98 57.57 58.46 58.28 58.30 58.42 58.38 58.44 58.11 58.06 58.01 58.09 58.23 57.95 57.75 57.55 57.78 57.72 57.59 57.82 57.86 57.99 58.25 58.53 58.14 57.65 57.49 57.66 58.24 57.89 57.67 57.90 57.88 57.32 56.95 56.74 56.42 56.10 55.83 55.70 55.31 55.03 55.07 54.82 54.59 54.60 54.16 53.94 53.65 53.41 53.28 52.89 52.68 52.55 52.51 51.45 50.85 50.31 50.61 50.62 49.77 49.90 50.13 49.72 49.10 47.91 47.17 47.11 47.61 48.90 49.40 50.48 51.14 50.79 50.72 51.39 50.99 48.21 44.40 42.82 38.65 38.00 38.02 38.43 42.72 48.66 50.08 50.59 50.50 50.75 50.70 50.61 50.57 50.44 50.41 50.44 50.72 51.19 50.98 50.84 50.94 50.94 51.33 51.67 51.82 51.98 52.18 52.47 52.92 53.11 53.21 53.57 54.05 54.23 54.97 56.14 56.62 56.32 57.00 57.57 58.25 58.96 58.91 58.69 58.92 59.48 59.33 59.18 59.31 59.52 59.83 60.04 60.60 61.56 62.51 63.41 63.52 63.86 64.44 63.34 62.40 63.09 64.61 68.17 68.68 65.93 64.81 64.60 64.08 63.01 62.08 61.76 60.71 61.09 61.48 60.32 60.38 60.87 61.18 61.90 63.05 62.84 63.33 64.16 64.87 64.48 64.69 65.69 66.09 66.19 66.00 66.09 66.65 67.95 68.18 68.72 69.10 70.92 74.05 74.47 75.35 76.27 76.78 76.44 78.63 82.38 84.79 87.91 89.28 91.29 92.59 94.30 95.59 95.46 92.36 91.11 91.13 90.56 88.57 89.31 92.11 95.56 95.26 94.42 88.32 86.65 85.62 84.62 83.55 82.88 82.39 81.78 81.35 81.98 82.37 82.63 82.33 82.02 82.06 82.00 81.66 80.94 80.56 80.44 79.83 79.77 79.78 79.78 79.42 79.04 79.06 79.12 79.02 78.70 79.02 78.43 78.60 78.34 78.33 78.19 78.30 78.00 76.70 76.12 75.81 75.78 75.90 76.04 76.23 76.40 76.15 76.07 76.27 76.23 76.01 75.67 75.68 75.71 75.73 76.35 77.09 77.22 76.78 76.30 76.55 76.81 76.15 74.92 74.13 73.28 72.37 73.29 74.61 74.87 75.00 75.18 75.21 75.43 75.70 75.79 75.79 75.91 76.13 76.27 76.71 76.97 76.91 77.14 77.47 77.52 77.57 77.78 78.20 78.33 78.24 78.34 78.59 78.73 78.76 79.01 79.24 79.30 79.56 79.83 79.92 80.06 80.02 80.09 80.14 80.26 80.32
50.13 49.41 50.05 50.22 49.84 49.91 50.07 50.31 50.67 51.01 51.21 51.46 51.65 51.66 51.50 51.36 50.13 49.12 49.48 49.71 50.00 50.67 50.86 50.84 51.30 51.77 52.35 52.57 52.66 52.67 52.70 52.90 52.99 53.20 53.22 53.21 53.20 53.30 54.04 53.91 53.50 53.93 54.04 54.18 53.73 53.83 53.97 53.51 53.24 53.51 53.60 53.80 53.94 54.47 55.00 55.19 54.78 54.52 54.64 54.72 54.81 54.77 54.74 54.74 54.79 55.16 55.18 55.98 54.67 53.77 53.77 53.88 54.39 55.49 56.83 56.27 55.15 55.33 55.44 55.25 55.29 55.24 55.25 55.33 55.44 55.87 56.23 56.62 57.25 57.94 58.33 58.97 58.76 58.50 58.10 58.39 58.72 58.50 58.44 58.78 58.93 59.23 59.43 59.36 59.28 59.28 58.77 58.27 57.75 57.75 58.47 58.46 58.50 58.24 57.72 57.69 57.82 58.17 58.22 58.37 58.30 58.10 57.49 57.20 57.07 56.98 57.03 56.50 55.98 55.35 55.18 55.46 55.16 54.70 54.88 54.74 54.35 54.08 53.66 53.39 52.99 52.89 52.44 52.42 51.49 50.60 50.62 51.44 51.14 51.86 50.84 50.35 50.03 49.43 48.99 47.74 47.68 47.60 48.31 49.60 50.79 51.31 51.11 50.54 50.77 50.72 48.78 45.44 47.17 41.98 38.26 38.13 38.03 39.26 45.21 49.60 50.44 50.49 50.74 50.89 50.80 50.84 50.76 50.71 50.61 50.59 50.88 51.02 51.20 51.25 51.19 51.39 51.62 51.64 51.78 52.09 52.59 53.10 53.06 53.23 53.64 54.26 54.48 55.16 56.13 57.37 56.73 57.57 59.29 58.70 58.70 58.86 59.14 59.59 59.77 59.56 59.53 59.51 59.91 60.21 60.53 60.68 61.15 62.27 63.46 63.25 63.35 63.25 62.06 61.53 61.52 62.71 68.29 69.21 66.53 65.29 64.87 64.06 63.69 63.76 62.38 61.20 60.36 60.01 59.90 60.23 60.78 61.24 61.52 62.24 62.88 63.38 63.97 64.32 64.79 65.62 65.87 66.17 65.71 66.02 66.45 66.97 67.75 68.38 67.78 69.73 72.06 71.90 72.17 74.29 75.50 76.81 77.30 80.00 82.36 85.46 88.76 90.13 92.74 93.53 94.14 95.52 93.35 88.98 88.82 89.10 88.00 87.22 88.19 90.60 93.69 93.32 91.34 87.40 85.42 84.62 84.05 82.99 82.10 81.86 81.28 80.83 81.59 81.66 81.91 81.88 81.69 81.87 81.62 81.60 81.33 80.88 80.40 80.11 79.81 79.65 79.71 79.21 79.01 79.09 79.33 79.01 78.31 78.05 78.01 78.31 78.20 78.26 78.07 78.12 77.81 76.58 76.26 76.01 75.59 75.47 75.41 75.85 75.78 75.42 75.51 75.92 75.86 75.97 75.62 75.49 75.52 75.72 76.23 76.26 76.55 76.55 76.10 76.52 76.73 76.97 74.07 71.88 71.85 72.46 73.35 74.14 74.65 74.83 75.06 75.26 75.41 75.63 75.83 75.63 75.65 75.88 76.04 76.39 76.56 76.60 76.88 77.27 77.38 77.19 77.30 77.52 77.87 77.73 77.93 78.26 78.33 78.52 78.98 79.02 78.93 79.09 79.36 79.69 79.98 79.74 79.84 79.97 80.04 80.07
50.24 49.44 50.31 50.46 50.33 50.34 50.25 50.18 50.58 50.96 51.24 51.53 51.83 51.93 51.73 51.39 50.97 49.95 49.70 50.36 50.45 50.46 50.60 50.39 49.92 50.44 51.80 52.64 52.84 52.91 52.84 52.87 53.08 53.17 53.22 53.21 53.25 53.33 53.60 54.08 53.64 53.94 53.95 53.56 53.49 53.61 53.57 53.48 53.49 53.34 53.62 53.84 53.98 54.33 54.56 54.55 54.59 54.59 54.72 54.84 54.89 54.97 55.12 54.98 54.97 55.71 55.77 55.62 54.75 53.84 53.97 54.09 54.87 56.96 58.15 56.78 55.47 55.51 55.68 55.70 55.79 55.55 55.51 55.69 55.83 56.21 56.56 57.08 57.64 58.51 58.91 59.24 59.14 58.66 58.61 58.96 59.12 59.02 58.93 59.69 59.58 60.10 60.75 61.12 60.99 60.56 59.36 58.46 58.22 57.95 58.31 58.28 58.57 58.54 57.91 58.16 58.41 58.38 58.08 58.44 58.50 58.17 57.75 57.79 57.69 57.40 57.41 57.14 56.49 55.87 55.65 55.73 55.61 55.14 54.83 54.89 54.62 54.28 53.70 53.33 53.16 52.97 52.82 52.65 52.18 51.59 51.44 51.55 51.40 51.79 51.25 50.75 50.60 49.86 49.41 48.32 48.01 47.58 47.99 48.98 50.02 50.75 51.16 50.68 50.01 50.25 48.71 45.86 47.42 46.49 40.39 38.43 38.18 38.21 41.03 47.44 50.30 50.54 50.67 50.85 50.93 51.01 50.98 50.80 50.71 50.73 50.95 50.99 51.06 51.47 51.29 51.48 51.82 51.88 52.06 52.35 52.57 52.84 53.25 53.62 53.93 54.39 54.70 55.51 56.81 58.05 58.20 60.20 63.85 61.19 59.47 59.45 59.71 60.00 59.98 59.77 59.85 59.84 59.99 60.42 60.91 61.18 61.18 62.03 63.13 62.98 63.20 63.04 62.13 61.56 61.53 62.05 65.86 68.63 68.40 66.41 64.93 63.87 64.00 64.11 62.51 61.07 60.82 59.98 59.95 59.90 60.46 61.03 61.41 62.09 62.76 62.89 63.13 63.82 64.57 65.77 65.71 66.21 66.07 66.00 66.48 66.98 67.59 68.34 68.32 68.64 69.95 71.04 72.58 74.28 75.52 76.66 78.72 80.60 82.74 86.04 89.45 91.18 92.97 94.54 94.57 94.14 90.54 88.29 87.18 87.37 86.42 85.99 86.96 89.97 92.46 92.43 89.29 86.59 84.82 83.67 83.16 82.74 81.75 81.47 80.76 80.44 80.98 81.21 81.37 81.53 81.21 81.57 81.62 81.76 81.58 80.89 80.75 80.19 79.79 79.54 79.61 79.19 78.99 78.83 78.92 78.66 78.34 77.97 78.01 78.39 78.59 78.23 78.02 77.76 77.51 76.87 76.73 76.20 75.38 74.97 74.82 75.22 75.45 75.25 75.04 75.51 75.49 75.62 75.38 75.13 74.19 74.96 75.32 75.84 76.13 76.13 76.10 76.46 76.69 76.04 72.45 70.59 71.50 71.83 72.84 72.58 73.21 74.59 74.85 75.03 75.13 75.24 75.31 75.26 75.40 75.57 75.50 75.62 75.81 76.30 76.51 76.68 76.85 76.74 77.00 77.27 77.63 77.51 77.68 77.96 78.08 78.12 78.37 78.55 78.79 78.82 79.12 79.63 80.32 79.89 79.58 79.79 79.80 79.59
50.23 49.40 50.73 50.71 50.60 50.78 50.66 50.29 50.58 51.05 51.06 51.40 51.67 51.79 51.81 51.66 51.51 51.08 50.67 50.86 49.61 50.99 51.24 51.03 50.82 50.21 50.98 52.82 54.12 53.05 52.90 52.92 53.11 53.13 53.25 53.30 53.28 53.43 53.46 53.60 53.77 54.06 53.94 53.59 53.67 53.75 53.60 53.49 53.64 53.47 53.64 53.83 53.99 54.19 54.39 54.48 54.42 54.52 54.73 54.88 55.06 55.00 55.01 54.82 54.91 55.40 55.84 55.17 54.50 54.16 54.15 54.34 55.08 56.17 57.06 56.70 56.14 55.93 56.28 56.29 56.32 56.01 56.03 56.35 56.53 56.60 57.05 57.48 58.13 58.85 59.36 59.57 59.40 59.07 58.97 59.47 59.44 59.34 59.38 59.91 60.04 60.45 60.93 60.76 60.41 60.38 59.14 58.94 58.72 58.42 58.56 58.87 59.06 58.56 58.35 58.69 59.00 59.03 58.86 58.74 58.54 58.04 58.08 58.21 58.17 57.87 58.02 58.01 57.16 56.71 56.29 56.03 55.85 55.47 55.21 55.15 54.70 54.36 54.07 53.57 53.40 53.14 52.83 52.45 52.35 52.14 51.90 51.75 51.72 51.58 51.29 51.04 51.27 51.22 49.72 48.59 48.33 47.65 48.12 48.93 49.75 50.73 51.14 51.03 50.48 49.75 48.56 47.21 48.02 49.08 44.75 39.36 38.44 38.20 38.66 43.21 48.81 50.59 50.77 50.96 51.06 51.12 51.14 51.00 50.89 50.84 50.83 50.82 51.06 51.49 51.31 51.43 51.91 52.10 52.37 52.62 52.83 53.05 53.49 53.71 53.84 54.29 54.94 55.87 57.17 58.75 59.49 61.31 63.07 61.75 61.01 60.86 60.16 60.25 60.47 60.17 60.38 60.39 60.25 60.68 61.22 61.61 61.53 62.03 62.84 62.82 62.95 63.24 62.96 62.34 62.61 63.44 65.03 66.51 69.80 67.96 66.82 65.66 64.47 62.53 61.62 61.08 61.03 60.31 60.01 60.07 60.18 60.68 61.27 62.20 62.54 62.38 63.11 63.98 64.04 64.36 65.49 65.18 65.47 65.75 66.14 66.60 67.05 67.97 68.66 69.49 70.71 72.15 73.35 74.48 75.80 76.57 78.93 81.47 86.18 88.21 88.80 90.97 92.65 94.69 94.69 92.17 88.44 87.38 86.80 86.19 85.23 85.24 85.93 88.84 93.37 92.59 88.15 85.40 84.16 83.21 82.44 81.98 81.17 80.63 80.22 79.87 80.49 80.73 80.70 80.90 80.64 81.24 81.86 81.88 81.83 80.79 80.57 79.96 79.69 79.57 79.75 79.20 78.77 78.57 78.41 78.43 78.63 77.85 77.81 78.12 78.40 77.99 77.70 77.26 76.94 76.75 76.24 75.61 75.07 74.68 74.56 74.82 74.91 74.77 74.95 75.28 75.49 75.47 75.16 74.63 72.96 73.35 74.04 74.94 75.08 75.53 75.54 75.00 74.11 71.54 70.25 70.86 72.82 72.89 72.01 71.23 71.83 73.92 74.74 74.90 74.93 75.03 75.08 75.08 74.99 75.08 75.15 75.15 75.17 75.75 75.91 76.12 76.43 76.41 76.66 76.99 77.24 77.28 77.50 77.53 77.62 77.74 77.90 78.10 78.38 78.61 78.97 79.19 80.05 79.53 79.13 79.23 79.23 79.23
49.96 48.91 50.54 51.14 50.84 50.97 50.78 50.72 51.00 51.15 51.13 51.40 51.63 51.88 52.17 52.03 51.76 51.28 50.19 50.46 49.76 50.63 51.36 51.49 51.86 50.78 50.61 52.04 53.22 53.12 53.01 53.12 53.25 53.12 53.22 53.30 53.39 53.44 53.89 54.46 53.92 53.89 53.94 53.78 53.76 53.84 53.73 53.61 53.66 53.80 53.82 54.03 53.99 54.12 54.39 54.50 54.45 54.43 54.66 54.86 54.99 54.97 54.84 54.83 55.28 55.73 55.76 55.45 54.79 54.53 54.32 54.55 55.60 56.29 57.22 57.15 57.49 56.65 56.42 56.58 56.67 56.50 56.67 57.01 56.95 57.00 57.50 58.04 58.71 59.33 60.02 60.43 60.14 59.61 59.39 59.74 59.76 59.61 59.95 60.28 60.41 60.80 61.13 60.91 60.30 59.78 59.34 59.44 59.24 58.90 58.79 59.02 58.99 58.70 58.85 59.20 59.49 59.45 59.34 59.35 58.82 58.41 58.69 58.80 58.71 58.68 59.01 59.07 58.17 57.57 56.85 56.19 56.05 55.88 55.56 55.33 55.05 54.63 54.52 53.86 53.52 53.01 52.69 52.80 52.58 52.35 52.19 52.14 51.97 51.79 51.62 51.25 51.41 50.81 50.09 49.40 48.62 47.88 48.34 49.11 49.72 50.80 51.10 51.71 51.59 50.84 49.28 48.08 50.31 51.26 48.15 42.10 38.72 38.56 38.23 40.01 45.75 50.27 50.83 50.88 51.01 51.13 51.07 51.25 51.39 50.89 50.87 51.14 51.54 51.74 51.62 51.60 52.03 52.32 52.35 52.64 52.92 53.06 53.49 53.62 53.81 54.21 54.85 55.56 57.55 58.62 59.65 61.07 61.79 62.00 62.79 62.66 61.03 61.01 61.14 61.86 61.97 61.52 61.19 61.27 61.51 61.88 61.94 62.28 63.24 62.91 63.14 63.60 63.66 63.42 63.92 64.38 65.18 65.92 68.25 67.52 69.92 70.51 67.86 65.28 62.91 62.75 61.28 60.76 60.16 60.11 60.96 61.97 61.50 62.10 62.16 62.48 63.37 64.04 64.34 64.59 65.60 65.59 65.09 66.02 65.82 66.21 66.87 67.66 68.72 69.78 71.25 72.59 73.18 74.37 75.54 75.96 79.21 82.13 87.26 88.30 90.32 92.34 93.13 94.22 93.93 89.62 87.49 86.69 85.78 84.95 84.16 84.57 85.17 87.77 92.81 91.02 85.96 84.04 83.24 82.54 81.89 81.29 80.28 79.82 79.67 79.52 80.27 80.37 80.02 80.10 80.24 80.65 80.85 80.87 82.05 81.19 80.12 79.72 79.94 79.68 79.57 79.31 78.88 78.47 78.14 78.38 78.34 77.64 77.50 77.44 77.53 77.43 77.35 76.96 76.74 76.50 76.04 75.26 74.86 74.68 74.51 74.45 74.31 74.49 74.74 75.14 75.21 75.23 74.98 74.69 74.31 72.63 71.31 71.81 72.65 73.71 72.28 70.70 70.70 69.76 69.89 71.37 73.20 73.36 71.19 70.70 71.64 72.81 74.16 74.79 74.84 74.94 74.94 74.83 74.75 74.69 74.67 74.72 74.88 75.25 75.35 75.58 75.94 76.08 76.27 76.71 76.79 76.98 77.19 77.21 77.34 77.45 77.82 78.14 78.32 78.50 78.69 78.81 79.08 78.91 78.67 78.73 78.98 79.01
49.52 48.93 49.63 51.08 50.87 51.06 51.00 50.96 51.13 51.23 51.42 51.63 52.01 52.41 52.36 52.06 51.79 51.28 50.44 50.22 50.59 50.50 50.91 51.81 52.33 51.42 49.96 51.46 52.80 53.20 53.37 53.20 53.27 53.28 53.46 53.48 53.54 53.71 54.16 54.76 54.31 54.06 54.18 53.97 53.91 53.96 53.98 53.91 53.60 53.89 53.85 54.03 54.22 54.25 54.38 54.58 54.63 54.63 54.72 54.96 55.06 55.10 55.04 55.32 56.11 56.70 56.06 55.40 55.04 54.82 54.89 54.98 55.96 57.00 58.23 57.56 57.90 56.94 56.46 56.50 56.88 56.86 57.13 57.50 57.55 57.69 58.16 58.65 59.16 59.56 60.56 61.14 60.99 60.47 60.05 60.27 60.46 60.20 60.51 60.80 60.91 61.31 61.93 61.63 60.12 60.19 59.78 59.70 59.80 59.46 59.33 59.36 59.43 59.12 59.36 59.73 59.90 59.79 59.64 59.44 59.26 59.03 59.22 59.37 59.38 59.45 59.71 59.90 59.14 58.62 57.46 56.76 56.55 56.39 56.21 55.64 55.19 54.94 54.86 54.11 53.70 53.31 52.97 53.15 53.05 52.72 52.50 52.37 52.13 52.06 51.84 51.54 51.34 51.04 50.65 49.87 48.82 48.43 47.83 48.91 49.79 50.20 50.93 50.87 50.31 51.16 50.84 48.80 50.43 50.92 49.12 45.51 40.02 38.74 38.72 38.80 42.10 47.11 50.26 50.82 51.08 51.19 51.15 51.23 51.37 51.12 51.02 51.31 51.52 51.77 51.83 51.87 52.23 52.45 52.65 52.75 52.93 52.96 53.30 53.66 54.14 54.57 54.95 55.70 58.17 60.33 61.49 62.31 62.39 62.02 62.88 62.93 61.77 61.82 62.15 63.99 64.77 64.20 63.63 62.69 62.49 62.77 63.00 63.25 63.56 62.61 63.21 64.03 64.29 63.32 64.19 64.96 64.74 65.36 66.00 66.68 69.53 72.04 71.38 68.92 66.44 65.91 64.21 61.06 61.11 60.33 61.49 62.72 61.79 61.70 62.28 62.56 63.23 63.75 64.26 65.78 65.89 66.14 65.24 65.69 65.50 65.70 66.29 67.37 68.23 69.03 70.39 71.98 73.14 74.15 76.20 78.45 81.09 84.48 88.26 90.14 91.12 91.13 91.79 92.51 92.63 88.39 86.47 85.74 84.78 83.91 83.24 83.68 84.46 86.47 91.14 89.25 83.86 82.71 82.23 81.81 81.20 80.53 78.63 78.59 79.04 79.19 79.98 79.86 79.35 79.39 79.58 79.86 80.29 80.58 81.62 81.78 80.56 79.79 79.47 79.31 79.12 79.03 78.76 78.32 77.88 78.04 78.38 78.02 77.50 77.19 76.95 76.98 76.85 76.58 76.44 76.09 75.82 75.01 74.65 74.70 74.58 74.25 74.07 74.26 74.59 74.93 75.07 74.88 74.86 74.23 72.81 71.45 70.65 70.50 71.19 71.40 70.82 69.69 70.34 70.56 70.96 71.60 72.90 73.27 72.40 71.05 71.24 72.23 73.77 74.68 74.85 74.87 74.58 74.09 74.09 74.06 74.06 74.27 74.64 74.96 75.07 75.11 75.49 75.81 75.98 76.30 76.38 76.60 76.87 76.92 77.10 77.53 77.83 78.14 78.25 78.32 78.42 78.71 78.86 78.65 78.63 78.53 78.68 78.90
49.90 49.67 48.90 50.76 51.12 51.42 51.54 51.24 50.98 51.32 51.73 52.20 53.01 53.60 52.99 52.17 51.92 51.68 51.06 50.50 50.58 51.41 51.70 51.67 52.06 52.34 50.48 51.27 52.26 53.15 53.32 53.15 53.18 53.56 54.20 54.12 54.29 53.74 53.90 54.85 54.44 54.03 53.98 53.88 53.95 53.99 54.13 54.15 53.89 53.91 53.95 53.92 54.12 54.15 54.34 54.62 54.74 54.93 54.96 55.01 55.11 55.23 55.30 55.82 56.54 56.42 56.13 56.46 58.02 56.57 56.43 55.57 56.36 57.06 57.58 56.97 57.99 57.58 56.66 56.41 56.65 56.90 57.28 57.84 58.34 58.37 58.72 59.51 59.91 60.14 60.89 61.40 61.55 61.01 60.72 61.27 60.65 60.93 60.90 61.40 61.72 62.16 62.56 62.42 60.97 60.98 60.49 60.36 60.31 59.92 59.61 59.86 59.51 59.70 60.07 60.52 60.07 59.98 59.73 59.58 59.59 59.66 59.96 60.11 60.12 60.24 60.57 60.81 59.91 59.66 58.46 57.67 57.10 56.74 56.29 55.97 55.76 55.26 55.05 54.33 53.76 53.59 53.57 53.45 53.27 53.14 52.92 52.56 52.20 52.06 52.00 51.71 51.42 51.20 50.77 50.59 49.72 48.89 49.10 48.81 49.58 50.07 51.16 51.05 51.36 51.53 51.28 50.11 50.30 50.96 50.68 48.13 43.36 39.20 38.88 38.65 39.18 41.30 47.69 50.64 51.03 51.20 51.24 51.24 51.35 51.23 51.04 51.20 51.30 51.45 51.43 51.84 52.37 52.65 52.85 52.91 53.18 53.12 53.35 53.55 54.00 54.57 54.97 56.12 59.19 61.32 61.98 63.36 63.63 62.30 62.61 64.12 63.93 63.93 64.75 65.87 66.82 66.78 66.41 65.26 64.78 63.80 63.27 63.57 63.70 63.35 63.86 64.96 64.55 62.87 63.30 64.06 64.51 65.07 65.90 66.81 68.70 71.42 70.39 69.05 68.03 66.42 64.67 61.74 61.05 60.18 60.85 61.38 61.34 61.73 62.30 62.24 62.72 63.40 63.74 65.39 65.08 65.06 65.71 65.57 65.26 65.22 66.05 66.98 67.44 67.82 69.49 71.16 72.61 74.48 78.34 82.46 85.08 87.87 89.56 89.37 89.53 90.64 92.03 92.04 90.27 87.93 86.67 84.70 83.67 83.13 82.46 82.84 83.63 85.67 91.21 87.66 82.46 81.42 81.28 80.94 80.47 79.71 78.47 78.84 78.86 79.01 79.47 79.53 79.11 78.99 79.23 79.66 80.15 80.47 80.87 81.56 80.28 79.32 78.99 78.86 78.68 78.27 78.20 77.91 77.38 77.52 78.19 78.12 77.35 76.91 76.67 76.66 76.51 76.52 76.09 75.75 75.71 75.23 74.72 74.51 74.33 74.06 73.92 74.38 74.69 74.84 75.00 74.57 74.18 73.34 71.36 71.21 70.69 70.50 70.89 71.50 70.31 69.99 70.68 71.78 72.40 72.81 73.03 73.17 73.21 72.69 71.58 72.92 73.67 74.36 74.50 74.24 73.75 73.63 73.70 73.67 73.62 73.92 74.38 74.86 74.99 75.16 75.52 75.59 75.87 76.05 76.30 76.44 76.69 76.72 76.80 77.22 77.62 77.85 77.99 78.13 78.34 78.43 78.39 78.25 78.33 78.30 78.66 78.85
50.35 49.70 49.21 49.45 50.99 51.52 52.94 52.54 51.19 51.38 51.75 52.55 53.91 53.88 53.82 52.82 52.16 51.88 51.52 50.99 51.10 51.52 52.40 52.09 51.82 52.76 52.04 51.05 52.28 53.00 52.87 53.11 53.25 54.14 54.71 54.94 54.93 53.94 53.91 54.07 54.18 53.99 53.92 53.91 54.15 54.17 54.14 54.17 54.17 53.88 54.05 53.97 54.02 54.00 54.30 54.46 54.54 54.86 55.10 55.08 55.22 55.35 55.41 55.54 56.23 56.03 56.22 56.74 58.06 57.88 56.83 56.29 56.46 56.70 57.25 56.80 57.44 57.04 56.91 56.72 56.88 57.08 57.57 58.14 58.67 59.04 59.24 60.01 60.61 60.66 61.47 61.89 61.98 61.43 60.78 61.13 60.93 61.43 61.42 61.75 62.33 62.88 63.31 63.51 62.43 61.49 61.25 61.20 60.82 60.45 60.46 60.35 59.89 60.25 60.45 60.65 60.19 60.28 60.21 59.98 59.95 60.11 60.28 60.55 60.76 61.07 61.52 61.55 60.93 60.63 59.30 58.45 57.69 57.19 56.81 56.25 55.92 55.40 55.00 54.47 54.10 54.00 54.12 53.77 53.46 53.33 53.07 52.72 52.48 52.46 52.67 52.38 51.90 51.41 51.14 50.98 50.64 49.77 49.51 48.81 48.94 50.02 50.91 51.25 52.12 51.50 51.39 51.35 52.11 51.26 51.49 50.34 47.82 41.95 38.99 38.77 38.79 39.84 44.25 49.70 50.83 51.09 51.27 51.50 51.45 51.27 50.98 50.96 51.30 51.33 51.54 51.82 52.27 52.71 52.95 53.22 53.33 53.38 53.43 53.70 54.09 54.74 55.29 57.05 60.77 62.40 62.90 63.89 63.91 62.44 62.69 63.76 64.36 64.78 65.15 65.73 66.39 66.80 67.16 67.41 67.04 64.80 63.77 64.17 64.21 63.75 64.77 65.63 64.85 63.21 62.87 63.77 65.13 66.08 66.35 66.40 66.47 70.44 70.90 66.79 64.82 64.16 61.62 60.35 59.88 60.20 60.69 60.87 60.85 61.07 61.47 61.60 62.17 62.60 63.51 64.91 65.82 66.55 67.84 66.48 65.01 64.94 65.64 66.38 66.89 67.79 69.46 69.84 72.62 80.08 86.84 90.28 89.47 89.32 88.19 87.29 89.30 91.00 91.89 90.01 87.63 87.39 84.91 83.16 82.52 82.02 81.68 82.24 82.85 84.44 90.37 85.60 81.22 80.44 80.44 80.23 79.80 79.51 79.11 78.89 78.57 78.70 78.95 78.89 78.56 78.67 78.87 79.33 80.05 80.43 80.67 80.80 79.97 79.28 79.02 78.61 78.06 77.62 77.58 77.38 76.99 76.98 77.41 77.33 76.91 76.55 76.47 76.47 76.12 76.40 76.28 75.76 75.46 75.25 74.98 74.56 74.20 74.08 74.09 74.68 74.62 74.27 74.19 73.79 73.62 72.90 71.31 71.35 71.02 70.61 70.53 70.92 71.65 72.13 72.76 72.92 72.78 72.86 72.97 73.06 73.16 73.21 72.93 73.31 72.42 72.96 73.70 73.30 73.19 73.32 73.44 73.37 73.53 73.84 74.13 74.40 74.71 75.04 75.09 75.30 75.57 75.76 75.99 76.07 76.42 76.51 76.60 76.91 77.15 77.38 77.53 77.79 77.81 77.92 77.99 77.99 77.88 77.97 78.35 78.62
50.56 49.80 49.78 48.44 50.72 51.73 52.27 52.10 51.41 51.47 51.79 52.13 53.54 54.15 53.68 52.98 52.28 51.99 51.56 51.14 51.06 51.43 52.47 53.00 52.20 53.14 53.71 52.02 51.79 52.25 52.11 53.13 53.20 53.45 53.63 53.78 53.71 53.82 53.93 54.12 54.16 54.17 54.01 54.05 54.11 54.19 54.26 54.28 54.24 53.98 54.13 54.17 54.21 54.15 54.38 54.62 54.48 54.82 55.15 55.27 55.32 55.39 55.48 55.44 55.96 56.94 57.00 56.49 56.28 55.99 56.14 56.59 56.85 57.16 57.70 57.03 56.99 56.95 57.11 57.17 56.85 57.37 57.86 58.38 58.94 59.48 59.88 60.43 61.02 61.50 62.14 62.51 62.35 61.66 61.04 61.12 61.27 61.60 61.97 62.20 63.05 63.48 64.09 64.53 63.67 61.66 61.80 61.83 61.38 61.05 60.89 60.35 60.34 60.62 60.78 60.91 60.42 60.44 60.34 60.17 60.29 60.70 60.94 61.22 61.55 62.05 62.99 62.68 61.95 61.01 59.57 58.81 58.23 57.68 56.98 56.42 56.01 55.49 54.95 54.71 54.68 54.46 54.35 54.03 53.84 53.71 53.43 53.28 53.53 52.75 53.19 53.10 52.75 51.83 51.27 51.32 50.92 50.22 49.69 49.03 48.95 49.63 49.67 50.33 50.54 51.40 51.43 52.49 53.14 50.38 51.50 51.50 50.01 46.60 40.56 38.68 38.67 39.26 41.81 46.90 50.42 51.71 51.62 51.58 51.47 51.28 51.15 51.11 51.61 52.19 51.94 51.88 52.26 52.67 52.99 53.28 53.48 53.71 53.60 53.93 54.16 54.79 55.69 58.32 61.76 63.08 63.34 63.75 64.32 63.16 63.23 63.45 63.39 63.92 64.57 65.12 65.89 66.70 67.83 68.70 68.76 66.55 64.78 64.77 64.49 63.86 64.39 64.59 64.51 64.58 64.51 64.77 65.51 66.06 66.33 65.65 64.76 66.36 67.45 64.89 62.29 61.40 60.55 59.68 59.55 59.97 60.50 60.48 61.00 61.12 61.03 61.23 61.94 62.44 63.65 64.37 65.98 67.59 68.51 66.71 65.16 65.40 65.11 65.98 66.51 67.70 70.30 71.93 79.19 90.59 93.30 92.11 89.87 88.40 85.87 86.91 89.67 91.44 91.73 88.70 85.91 86.38 83.77 82.32 81.50 81.10 81.23 81.88 81.92 82.80 87.10 82.45 80.13 79.55 79.45 79.40 78.91 78.50 77.90 77.94 78.14 78.21 78.50 78.27 78.21 78.74 78.84 79.37 80.10 80.49 80.80 80.65 80.16 79.66 79.07 78.45 77.95 77.61 77.49 77.15 76.73 76.50 77.01 76.91 76.41 75.95 76.12 76.19 75.69 75.79 76.17 76.10 75.76 75.73 75.64 74.91 73.99 73.99 73.68 73.54 73.58 73.56 73.37 73.24 73.30 72.12 70.99 70.87 70.81 70.61 70.52 71.02 71.96 72.50 72.93 72.69 72.64 72.68 72.82 72.92 72.98 72.93 72.97 72.93 72.91 72.92 72.95 72.58 72.88 73.09 73.29 73.08 73.41 73.74 73.92 74.09 74.43 74.65 74.73 74.93 75.11 75.38 75.64 75.87 76.20 76.34 76.45 76.53 76.71 77.00 77.21 77.46 77.46 77.55 77.67 77.64 77.53 77.69 77.90 77.99
51.06 49.63 49.27 49.89 50.24 51.38 51.15 50.83 50.96 51.37 51.77 52.07 53.45 53.73 52.93 53.16 52.63 52.38 51.95 51.36 51.30 51.76 52.56 53.64 53.62 55.01 55.22 54.42 53.11 51.75 51.34 51.54 51.45 52.61 53.60 53.78 53.74 53.94 53.97 54.12 54.18 54.21 54.25 54.18 54.31 54.37 54.38 54.40 54.23 54.06 54.18 54.37 54.23 54.25 54.46 54.74 54.65 54.76 55.04 55.33 55.38 55.42 55.53 55.82 56.87 57.57 56.95 56.08 55.99 55.97 56.03 56.99 58.10 58.36 57.72 57.25 57.27 57.24 57.26 57.26 57.01 57.63 58.09 58.59 59.15 60.00 60.70 61.21 61.40 61.68 62.45 62.83 62.68 61.77 61.31 61.30 61.63 61.83 62.47 62.51 63.36 64.06 64.59 64.86 63.63 61.44 61.55 61.78 61.81 61.46 60.96 60.60 60.63 60.95 61.09 61.09 60.72 60.69 60.54 60.54 60.61 61.08 61.45 61.67 62.04 62.65 63.52 63.03 61.86 60.50 59.71 59.50 58.88 57.68 56.98 56.39 56.04 55.78 55.08 55.01 54.85 54.66 54.53 54.44 54.36 53.87 53.51 53.54 54.21 53.11 53.64 53.50 52.99 52.17 51.75 51.79 50.62 50.76 50.57 49.30 49.41 50.07 50.01 50.31 50.46 50.44 50.50 53.05 52.40 51.30 52.27 51.42 50.61 48.83 44.10 39.75 38.55 38.68 40.38 43.20 47.17 51.45 52.74 52.83 51.99 51.39 51.34 51.43 51.93 52.46 52.00 51.72 52.08 52.86 53.43 53.56 53.68 53.84 53.90 54.24 54.75 55.38 56.87 59.81 61.90 62.86 63.20 63.97 64.13 64.40 64.35 64.03 64.17 64.42 65.15 65.94 66.84 67.03 67.80 68.90 69.26 68.32 66.97 65.55 64.67 64.14 64.04 63.65 63.84 64.22 64.72 65.07 64.69 64.29 65.36 64.53 64.77 64.14 62.96 61.90 60.67 60.29 59.64 59.46 59.67 59.92 59.86 60.14 60.60 60.58 60.86 61.05 61.78 62.35 63.86 64.49 63.90 64.87 65.91 65.15 64.74 65.64 65.26 66.34 67.51 68.70 70.50 73.11 81.01 91.38 93.28 90.40 87.64 86.49 84.85 88.10 89.69 90.95 90.91 89.03 85.95 84.18 83.02 81.79 80.88 80.37 80.75 81.07 80.69 80.73 81.48 79.85 79.25 78.84 78.68 77.84 76.45 75.36 74.88 75.74 77.04 77.41 77.48 77.71 78.31 78.93 79.30 80.03 80.85 80.90 81.01 80.60 80.07 79.69 79.30 78.81 78.14 77.68 77.47 77.06 76.54 76.18 76.26 76.33 75.94 75.81 75.74 75.60 75.32 75.30 999.00 999.00 999.00 999.00 999.00 999.00 999.00 999.00 999.00 999.00 999.00 999.00 999.00 999.00 999.00 999.00 999.00 999.00 999.00 999.00 999.00 999.00 999.00 999.00 999.00 999.00 999.00 999.00 999.00 999.00 999.00 999.00 999.00 999.00 999.00 999.00 999.00 999.00 999.00 999.00 999.00 999.00 999.00 999.00 999.00 999.00 999.00 999.00 999.00 999.00 999.00 999.00 999.00 999.00 999.00 999.00 999.00 999.00 999.00 999.00 999.00 999.00 999.00 999.00 999.00 999.00 999.00 999.00 999.00 999.00
51.53 50.57 48.98 49.99 50.29 50.70 50.37 50.45 50.65 50.92 51.54 51.95 52.33 52.52 53.16 52.99 52.45 52.34 52.18 51.76 51.47 51.34 52.11 53.54 53.27 55.03 56.16 56.58 56.57 55.24 53.14 52.24 51.57 51.64 53.34 53.89 53.92 54.02 54.11 54.16 54.33 54.32 54.35 54.29 54.38 54.43 54.34 54.27 54.23 54.27 54.21 54.37 54.33 54.33 54.53 54.87 54.81 54.85 54.91 55.16 55.35 55.43 55.57 56.10 56.21 55.99 55.89 55.74 55.94 56.26 56.28 56.88 57.65 58.07 57.89 57.66 57.71 57.64 57.60 57.46 57.22 57.86 58.24 58.82 59.53 60.42 61.26 61.96 62.43 62.29 62.54 62.88 62.55 61.53 61.39 61.62 62.60 63.13 63.01 62.81 63.39 64.42 65.04 65.37 63.68 61.57 61.97 62.06 62.06 61.78 61.51 61.20 61.16 61.30 61.44 61.39 61.20 61.10 60.94 61.03 60.88 61.24 61.71 62.06 62.48 62.90 63.57 63.22 62.06 60.76 60.55 60.33 59.11 57.66 56.81 56.45 56.12 56.03 55.46 55.47 55.21 54.92 54.82 54.80 54.47 54.01 53.61 53.73 54.57 53.57 53.69 53.31 52.78 52.80 52.14 51.97 50.96 50.63 50.66 49.15 49.29 49.74 49.54 49.90 50.37 50.46 50.42 50.59 51.81 52.38 51.21 50.29 50.37 49.98 47.89 42.96 39.17 38.52 39.25 40.40 41.86 46.91 50.53 51.82 52.75 52.83 52.37 52.27 52.24 52.05 52.15 51.45 51.25 52.53 53.58 53.81 53.71 54.46 54.98 55.26 55.67 56.82 58.83 61.14 62.08 62.35 62.59 63.14 64.28 64.75 64.15 64.32 64.66 65.07 65.81 66.88 67.76 67.65 68.12 68.84 69.16 68.74 67.86 66.10 64.97 64.58 64.09 63.63 63.81 63.97 63.07 63.28 63.34 63.42 64.14 64.35 64.99 63.50 61.29 60.04 59.23 59.71 59.74 59.41 59.49 60.07 59.98 60.35 59.98 60.13 60.91 61.79 62.57 63.17 64.06 999.00 999.00 999.00 999.00 999.00 999.00 999.00 999.00 999.00 999.00 999.00 999.00 999.00 999.00 999.00 999.00 999.00 999.00 999.00 999.00 999.00 999.00 999.00 999.00 999.00 999.00 999.00 999.00 999.00 999.00 999.00 999.00 999.00 999.00 999.00 999.00 999.00 999.00 999.00 999.00 999.00 999.00 999.00 999.00 999.00 999.00 999.00 999.00 999.00 999.00 999.00 999.00 999.00 999.00 999.00 999.00 999.00 999.00 999.00 999.00 999.00 999.00 999.00 999.00 999.00 999.00 999.00 999.00 999.00 999.00 999.00 999.00 999.00 999.00 999.00 999.00 999.00 999.00 999.00 999.00 999.00 999.00 999.00 999.00 999.00 999.00 999.00 999.00 999.00 999.00 999.00 999.00 999.00 999.00 999.00 999.00 999.00 999.00 999.00 999.00 999.00 999.00 999.00 999.00 999.00 999.00 999.00 999.00 999.00 999.00 999.00 999.00 999.00 999.00 999.00 999.00 999.00 999.00 999.00 999.00 999.00 999.00 999.00 999.00 999.00 999.00 999.00 999.00 999.00 999.00 999.00 999.00 999.00 999.00 999.00 999.00 999.00 999.00 999.00 999.00 999.00 999.00 999.00 999.00 999.00
51.17 50.82 49.65 50.24 50.22 50.75 50.95 50.97 51.11 51.27 51.61 51.95 51.84 51.98 52.71 52.75 52.39 52.45 52.35 52.32 52.07 51.61 51.87 53.49 51.59 53.10 55.76 57.43 58.32 57.74 55.16 52.94 52.42 51.56 52.39 53.82 53.96 54.07 54.17 54.27 54.42 54.36 54.30 54.34 54.39 54.42 54.48 54.41 54.26 54.27 54.19 54.37 54.41 54.38 54.71 55.00 54.88 54.99 55.13 55.31 55.45 55.56 55.50 55.85 55.85 55.96 56.06 55.86 56.02 56.29 56.13 56.90 57.02 57.39 57.86 57.96 57.93 58.04 58.04 57.55 57.41 57.91 58.41 58.71 59.69 60.69 61.44 62.16 62.97 63.43 63.20 62.64 62.12 61.73 61.87 62.18 63.59 64.09 63.35 63.26 63.84 65.10 65.34 66.05 65.15 63.46 62.98 62.34 62.26 62.38 62.11 61.76 61.71 61.89 61.88 61.69 61.62 61.47 61.46 61.40 61.28 61.50 62.07 62.47 62.89 63.21 63.48 62.80 61.89 62.00 62.50 61.56 59.28 58.17 57.49 57.02 56.50 56.23 55.72 55.83 55.66 55.42 55.19 54.93 54.56 54.25 53.91 53.87 55.04 54.43 54.09 53.58 52.95 52.08 51.17 50.96 50.86 50.21 49.95 49.33 49.10 49.16 49.26 49.57 50.16 50.48 50.50 50.70 51.52 50.60 50.50 50.41 50.29 50.42 49.50 45.50 41.44 38.73 38.70 39.39 39.80 41.88 46.42 47.60 48.38 50.49 52.29 53.78 54.00 52.55 52.96 53.03 52.33 52.16 52.93 54.01 54.27 55.56 57.15 58.05 59.09 59.55 59.45 999.00 999.00 999.00 999.00 62.59 63.96 64.31 64.10 64.41 64.75 999.00 999.00 999.00 999.00 999.00 999.00 999.00 999.00 999.00 999.00 999.00 999.00 999.00 999.00 999.00 999.00 999.00 999.00 999.00 999.00 999.00 999.00 999.00 999.00 999.00 999.00 999.00 999.00 999.00 999.00 999.00 999.00 999.00 999.00 999.00 999.00 999.00 999.00 999.00 999.00 999.00 999.00 999.00 999.00 999.00 999.00 999.00 999.00 999.00 999.00 999.00 999.00 999.00 999.00 999.00 999.00 999.00 999.00 999.00 999.00 999.00 999.00 999.00 999.00 999.00 999.00 999.00 999.00 999.00 999.00 999.00 999.00 999.00 999.00 999.00 999.00 999.00 999.00 999.00 999.00 999.00 999.00 999.00 999.00 999.00 999.00 999.00 999.00 999.00 999.00 999.00 999.00 999.00 999.00 999.00 999.00 999.00 999.00 999.00 999.00 999.00 999.00 999.00 999.00 999.00 999.00 999.00 999.00 999.00 999.00 999.00 999.00 999.00 999.00 999.00 999.00 999.00 999.00 999.00 999.00 999.00 999.00 999.00 999.00 999.00 999.00 999.00 999.00 999.00 999.00 999.00 999.00 999.00 999.00 999.00 999.00 999.00 999.00 999.00 999.00 999.00 999.00 999.00 999.00 999.00 999.00 999.00 999.00 999.00 999.00 999.00 999.00 999.00 999.00 999.00 999.00 999.00 999.00 999.00 999.00 999.00 999.00 999.00 999.00 999.00 999.00 999.00 999.00 999.00 999.00 999.00 999.00 999.00 999.00 999.00 999.00 999.00 999.00 999.00 999.00 999.00 999.00 999.00 999.00 999.00 999.00 999.00
51.02 51.12 51.36 50.73 50.40 50.85 51.34 51.28 51.43 51.11 51.28 51.92 51.97 52.14 52.55 53.14 52.65 52.69 52.63 52.50 52.45 52.48 52.26 53.75 51.51 52.05 54.95 57.36 58.52 57.93 55.79 53.18 52.62 52.46 51.77 53.10 54.00 54.21 54.35 54.41 54.31 54.34 54.42 54.52 54.53 54.55 54.63 54.67 54.56 54.43 54.47 54.37 54.46 54.61 54.85 54.99 55.01 55.15 55.41 55.45 55.52 55.68 55.72 55.85 55.96 55.95 56.06 56.07 56.18 56.36 56.32 56.96 57.14 57.63 58.09 58.21 58.31 58.48 58.47 57.96 57.89 58.27 58.84 59.06 59.63 60.81 61.66 62.49 63.26 63.90 63.67 62.72 62.07 62.11 62.58 63.22 63.71 64.37 63.77 63.88 64.12 65.27 65.66 66.94 66.95 65.27 64.44 62.63 62.95 63.03 62.80 62.48 62.40 62.32 62.21 62.00 61.91 61.69 61.70 61.73 61.59 61.64 62.24 62.82 63.28 63.65 63.76 63.31 62.99 63.51 62.66 61.10 59.50 58.55 57.76 57.44 56.64 56.25 56.17 56.15 55.95 55.86 55.48 55.22 54.67 54.51 54.25 54.41 54.99 54.98 54.31 53.80 53.25 51.68 51.51 51.16 50.89 50.66 50.43 50.12 49.33 49.73 49.70 49.57 49.83 50.35 51.01 51.75 52.66 50.94 50.51 50.14 50.23 50.04 49.10 48.11 45.90 40.26 38.58 38.98 39.27 39.58 42.30 43.92 44.59 46.67 49.20 49.95 51.53 53.32 57.46 58.83 58.46 57.34 56.17 56.54 57.96 59.08 59.52 58.78 999.00 999.00 999.00 999.00 999.00 999.00 999.00 999.00 999.00 999.00 999.00 999.00 999.00 999.00 999.00 999.00 999.00 999.00 999.00 999.00 999.00 999.00 999.00 999.00 999.00 999.00 999.00 999.00 999.00 999.00 999.00 999.00 999.00 999.00 999.00 999.00 999.00 999.00 999.00 999.00 999.00 999.00 999.00 999.00 999.00 999.00 999.00 999.00 999.00 999.00 999.00 999.00 999.00 999.00 999.00 999.00 999.00 999.00 999.00 999.00 999.00 999.00 999.00 999.00 999.00 999.00 999.00 999.00 999.00 999.00 999.00 999.00 999.00 999.00 999.00 999.00 999.00 999.00 999.00 999.00 999.00 999.00 999.00 999.00 999.00 999.00 999.00 999.00 999.00 999.00 999.00 999.00 999.00 999.00 999.00 999.00 999.00 999.00 999.00 999.00 999.00 999.00 999.00 999.00 999.00 999.00 999.00 999.00 999.00 999.00 999.00 999.00 999.00 999.00 999.00 999.00 999.00 999.00 999.00 999.00 999.00 999.00 999.00 999.00 999.00 999.00 999.00 999.00 999.00 999.00 999.00 999.00 999.00 999.00 999.00 999.00 999.00 999.00 999.00 999.00 999.00 999.00 999.00 999.00 999.00 999.00 999.00 999.00 999.00 999.00 999.00 999.00 999.00 999.00 999.00 999.00 999.00 999.00 999.00 999.00 999.00 999.00 999.00 999.00 999.00 999.00 999.00 999.00 999.00 999.00 999.00 999.00 999.00 999.00 999.00 999.00 999.00 999.00 999.00 999.00 999.00 999.00 999.00 999.00 999.00 999.00 999.00 999.00 999.00 999.00 999.00 999.00 999.00 999.00 999.00 999.00 999.00 999.00 999.00 999.00
51.23 51.19 51.41 50.97 50.28 51.15 51.63 51.50 51.49 51.40 51.54 52.00 52.23 52.21 52.40 52.65 52.59 52.78 52.79 52.70 52.89 53.75 52.71 53.03 51.94 52.53 54.58 55.90 57.31 56.75 54.84 53.20 53.00 53.06 52.39 51.73 53.73 54.21 54.35 54.38 54.37 54.32 54.46 54.59 54.63 54.72 54.86 54.78 54.71 54.68 54.58 54.65 54.79 54.81 54.93 55.18 55.18 55.27 55.36 55.55 55.61 55.70 55.78 55.84 55.88 55.95 56.15 56.28 56.42 56.49 56.53 57.06 57.54 57.82 58.45 58.53 58.58 58.74 58.79 58.59 58.30 58.75 59.28 59.73 59.84 60.45 61.56 62.61 63.44 63.93 63.61 62.84 62.51 62.75 63.14 64.29 65.35 65.00 64.13 64.23 64.19 64.50 65.71 66.99 67.63 65.96 64.73 63.14 63.78 63.48 63.16 62.85 62.72 62.57 62.51 62.30 62.18 62.04 62.03 62.02 61.85 61.95 62.43 63.04 63.61 64.09 64.33 64.41 64.48 64.40 62.26 60.63 59.77 58.98 58.23 57.70 57.25 57.05 56.85 56.63 56.17 56.01 55.63 55.28 55.01 55.04 55.24 55.10 55.01 55.00 54.32 53.66 53.00 52.21 52.28 51.79 51.25 51.03 50.81 50.75 50.03 50.82 50.18 49.54 49.87 50.25 50.83 51.05 50.82 50.23 50.38 50.14 50.03 49.77 49.59 49.67 48.48 43.25 39.23 38.62 39.14 39.44 41.16 41.79 43.27 44.66 45.62 46.37 48.21 54.03 58.12 57.02 57.34 58.14 999.00 999.00 999.00 999.00 999.00 999.00 999.00 999.00 999.00 999.00 999.00 999.00 999.00 999.00 999.00 999.00 999.00 999.00 999.00 999.00 999.00 999.00 999.00 999.00 999.00 999.00 999.00 999.00 999.00 999.00 999.00 999.00 999.00 999.00 999.00 999.00 999.00 999.00 999.00 999.00 999.00 999.00 999.00 999.00 999.00 999.00 999.00 999.00 999.00 999.00 999.00 999.00 999.00 999.00 999.00 999.00 999.00 999.00 999.00 999.00 999.00 999.00 999.00 999.00 999.00 999.00 999.00 999.00 999.00 999.00 999.00 999.00 999.00 999.00 999.00 999.00 999.00 999.00 999.00 999.00 999.00 999.00 999.00 999.00 999.00 999.00 999.00 999.00 999.00 999.00 999.00 999.00 999.00 999.00 999.00 999.00 999.00 999.00 999.00 999.00 999.00 999.00 999.00 999.00 999.00 999.00 999.00 999.00 999.00 999.00 999.00 999.00 999.00 999.00 999.00 999.00 999.00 999.00 999.00 999.00 999.00 999.00 999.00 999.00 999.00 999.00 999.00 999.00 999.00 999.00 999.00 999.00 999.00 999.00 999.00 999.00 999.00 999.00 999.00 999.00 999.00 999.00 999.00 999.00 999.00 999.00 999.00 999.00 999.00 999.00 999.00 999.00 999.00 999.00 999.00 999.00 999.00 999.00 999.00 999.00 999.00 999.00 999.00 999.00 999.00 999.00 999.00 999.00 999.00 999.00 999.00 999.00 999.00 999.00 999.00 999.00 999.00 999.00 999.00 999.00 999.00 999.00 999.00 999.00 999.00 999.00 999.00 999.00 999.00 999.00 999.00 999.00 999.00 999.00 999.00 999.00 999.00 999.00 999.00 999.00 999.00 999.00 999.00 999.00 999.00 999.00
51.41 51.27 51.64 51.21 50.22 50.76 51.63 51.73 51.61 51.35 51.62 52.16 52.30 52.30 52.45 52.49 52.53 52.72 53.10 53.16 53.07 53.86 52.87 52.99 53.48 53.76 53.80 54.66 55.50 55.43 54.20 53.62 53.53 53.38 52.85 50.96 52.54 53.95 54.36 54.36 54.46 54.42 54.71 54.75 54.93 54.96 54.94 54.84 54.82 54.86 54.67 54.76 54.96 55.02 55.12 55.21 55.39 55.36 55.47 55.62 55.74 55.89 56.02 56.12 56.19 56.22 56.46 56.51 56.66 56.75 56.93 57.43 57.98 58.19 58.58 58.68 58.77 58.91 59.05 58.93 58.49 59.17 59.88 60.44 60.79 60.74 61.01 61.82 63.12 63.85 63.96 63.26 62.99 62.88 63.17 64.57 65.74 65.34 64.79 64.74 64.77 64.43 65.78 66.82 67.72 66.39 64.68 63.13 64.16 63.91 63.41 63.18 63.00 62.89 62.77 62.59 62.39 62.29 62.33 62.25 62.40 62.26 62.69 63.35 63.91 64.40 64.97 65.20 63.95 62.95 61.54 60.10 59.86 59.08 58.33 57.70 57.35 57.33 57.04 56.93 56.51 56.23 55.82 55.55 55.11 55.31 55.74 55.35 55.29 55.51 53.60 52.47 52.65 52.56 52.24 51.84 51.56 51.28 50.90 50.42 50.26 50.57 50.24 49.91 49.83 50.20 50.30 50.42 50.55 50.36 50.27 50.14 50.07 49.84 49.58 49.42 48.90 46.57 41.00 38.60 39.03 39.74 40.68 41.13 42.37 43.93 44.32 45.29 51.26 999.00 999.00 999.00 999.00 999.00 999.00 999.00 999.00 999.00 999.00 999.00 999.00 999.00 999.00 999.00 999.00 999.00 999.00 999.00 999.00 999.00 999.00 999.00 999.00 999.00 999.00 999.00 999.00 999.00 999.00 999.00 999.00 999.00 999.00 999.00 999.00 999.00 999.00 999.00 999.00 999.00 999.00 999.00 999.00 999.00 999.00 999.00 999.00 999.00 999.00 999.00 999.00 999.00 999.00 999.00 999.00 999.00 999.00 999.00 999.00 999.00 999.00 999.00 999.00 999.00 999.00 999.00 999.00 999.00 999.00 999.00 999.00 999.00 999.00 999.00 999.00 999.00 999.00 999.00 999.00 999.00 999.00 999.00 999.00 999.00 999.00 999.00 999.00 999.00 999.00 999.00 999.00 999.00 999.00 999.00 999.00 999.00 999.00 999.00 999.00 999.00 999.00 999.00 999.00 999.00 999.00 999.00 999.00 999.00 999.00 999.00 999.00 999.00 999.00 999.00 999.00 999.00 999.00 999.00 999.00 999.00 999.00 999.00 999.00 999.00 999.00 999.00 999.00 999.00 999.00 999.00 999.00 999.00 999.00 999.00 999.00 999.00 999.00 999.00 999.00 999.00 999.00 999.00 999.00 999.00 999.00 999.00 999.00 999.00 999.00 999.00 999.00 999.00 999.00 999.00 999.00 999.00 999.00 999.00 999.00 999.00 999.00 999.00 999.00 999.00 999.00 999.00 999.00 999.00 999.00 999.00 999.00 999.00 999.00 999.00 999.00 999.00 999.00 999.00 999.00 999.00 999.00 999.00 999.00 999.00 999.00 999.00 999.00 999.00 999.00 999.00 999.00 999.00 999.00 999.00 999.00 999.00 999.00 999.00 999.00 999.00 999.00 999.00 999.00 999.00 999.00 999.00 999.00 999.00 999.00 999.00
51.56 51.72 51.86 51.52 50.48 50.38 50.99 51.54 51.67 51.77 51.78 51.98 52.07 52.37 52.45 52.60 52.60 52.78 53.17 53.39 53.41 53.80 53.30 52.90 52.95 52.91 54.34 54.52 54.33 54.54 54.66 54.85 54.51 54.09 53.10 51.35 51.46 52.76 54.26 54.50 54.63 54.66 54.73 54.75 54.93 54.94 54.97 54.95 54.82 54.83 54.85 55.01 55.11 55.25 55.17 55.26 55.41 55.45 55.58 55.71 55.83 56.03 56.29 56.50 56.47 56.50 56.77 56.73 56.82 57.25 57.76 58.38 58.48 58.22 58.47 58.82 59.03 59.13 59.24 59.26 58.88 59.58 60.39 61.11 61.67 61.90 61.61 61.58 62.46 63.59 64.27 63.90 63.22 63.22 63.64 64.12 64.45 65.26 65.55 65.09 65.54 65.30 66.08 67.18 67.85 67.00 65.33 64.48 64.66 64.21 63.84 63.65 63.35 63.13 62.97 62.87 62.69 62.58 62.72 62.75 62.77 62.65 63.00 63.43 63.84 64.38 65.04 65.09 63.55 61.62 61.03 59.88 59.79 58.95 58.20 57.78 57.80 57.60 57.18 57.03 56.82 56.54 56.03 55.64 55.28 55.17 55.70 55.36 55.09 54.68 53.49 52.87 52.69 52.38 52.05 52.10 51.79 51.50 50.78 50.27 50.45 50.55 51.21 51.02 50.10 50.47 50.56 50.45 50.59 50.68 50.56 50.35 50.02 50.02 49.57 49.31 48.73 47.98 45.07 39.59 38.64 39.06 39.88 40.89 41.93 43.16 44.26 48.92 999.00 999.00 999.00 999.00 999.00 999.00 999.00 999.00 999.00 999.00 999.00 999.00 999.00 999.00 999.00 999.00 999.00 999.00 999.00 999.00 999.00 999.00 999.00 999.00 999.00 999.00 999.00 999.00 999.00 999.00 999.00 999.00 999.00 999.00 999.00 999.00 999.00 999.00 999.00 999.00 999.00 999.00 999.00 999.00 999.00 999.00 999.00 999.00 999.00 999.00 999.00 999.00 999.00 999.00 999.00 999.00 999.00 999.00 999.00 999.00 999.00 999.00 999.00 999.00 999.00 999.00 999.00 999.00 999.00 999.00 999.00 999.00 999.00 999.00 999.00 999.00 999.00 999.00 999.00 999.00 999.00 999.00 999.00 999.00 999.00 999.00 999.00 999.00 999.00 999.00 999.00 999.00 999.00 999.00 999.00 999.00 999.00 999.00 999.00 999.00 999.00 999.00 999.00 999.00 999.00 999.00 999.00 999.00 999.00 999.00 999.00 999.00 999.00 999.00 999.00 999.00 999.00 999.00 999.00 999.00 999.00 999.00 999.00 999.00 999.00 999.00 999.00 999.00 999.00 999.00 999.00 999.00 999.00 999.00 999.00 999.00 999.00 999.00 999.00 999.00 999.00 999.00 999.00 999.00 999.00 999.00 999.00 999.00 999.00 999.00 999.00 999.00 999.00 999.00 999.00 999.00 999.00 999.00 999.00 999.00 999.00 999.00 999.00 999.00 999.00 999.00 999.00 999.00 999.00 999.00 999.00 999.00 999.00 999.00 999.00 999.00 999.00 999.00 999.00 999.00 999.00 999.00 999.00 999.00 999.00 999.00 999.00 999.00 999.00 999.00 999.00 999.00 999.00 999.00 999.00 999.00 999.00 999.00 999.00 999.00 999.00 999.00 999.00 999.00 999.00 999.00 999.00 999.00 999.00 999.00 999.00 999.00
51.73 51.99 51.95 51.64 50.70 50.53 50.71 51.44 51.69 51.81 51.88 51.90 52.19 52.45 52.58 52.73 52.83 52.95 53.29 53.45 53.30 53.57 53.86 53.17 52.58 52.71 53.33 53.74 53.92 54.58 54.76 55.24 55.14 54.61 53.83 52.64 52.48 51.80 52.97 54.41 54.68 54.82 54.78 54.90 54.97 54.97 55.07 55.06 55.02 55.05 54.89 55.03 55.19 55.39 55.30 55.15 55.32 55.46 55.64 55.70 55.79 56.06 56.36 56.52 56.61 56.80 56.97 56.86 57.97 59.43 58.75 58.25 58.40 58.50 58.47 58.68 59.12 59.29 59.59 59.71 59.38 59.98 60.98 61.79 62.29 62.70 62.53 62.02 62.18 62.85 63.64 63.81 63.63 63.46 64.20 64.47 64.34 64.95 65.58 65.65 66.04 66.33 66.80 67.83 68.30 67.82 67.34 65.86 64.83 64.50 64.06 63.78 63.65 63.40 63.32 63.25 63.06 62.86 62.98 62.97 63.07 63.01 63.12 63.43 63.67 63.96 64.34 64.35 64.07 63.19 62.17 60.26 59.77 59.27 58.45 58.24 58.12 57.86 57.50 57.16 57.00 56.76 56.28 55.75 55.30 55.07 55.58 55.02 53.74 53.41 53.52 53.14 52.72 52.37 52.05 52.28 52.14 51.83 50.79 50.58 51.62 52.95 52.81 51.21 50.58 51.18 50.93 50.52 50.68 50.70 50.55 50.31 50.13 49.93 49.63 49.45 49.27 48.67 47.31 43.19 39.24 38.82 39.18 39.96 41.09 42.38 47.92 55.03 999.00 999.00 999.00 999.00 999.00 999.00 999.00 999.00 999.00 999.00 999.00 999.00 999.00 999.00 999.00 999.00 999.00 999.00 999.00 999.00 999.00 999.00 999.00 999.00 999.00 999.00 999.00 999.00 999.00 999.00 999.00 999.00 999.00 999.00 999.00 999.00 999.00 999.00 999.00 999.00 999.00 999.00 999.00 999.00 999.00 999.00 999.00 999.00 999.00 999.00 999.00 999.00 999.00 999.00 999.00 999.00 999.00 999.00 999.00 999.00 999.00 999.00 999.00 999.00 999.00 999.00 999.00 999.00 999.00 999.00 999.00 999.00 999.00 999.00 999.00 999.00 999.00 999.00 999.00 999.00 999.00 999.00 999.00 999.00 999.00 999.00 999.00 999.00 999.00 999.00 999.00 999.00 999.00 999.00 999.00 999.00 999.00 999.00 999.00 999.00 999.00 999.00 999.00 999.00 999.00 999.00 999.00 999.00 999.00 999.00 999.00 999.00 999.00 999.00 999.00 999.00 999.00 999.00 999.00 999.00 999.00 999.00 999.00 999.00 999.00 999.00 999.00 999.00 999.00 999.00 999.00 999.00 999.00 999.00 999.00 999.00 999.00 999.00 999.00 999.00 999.00 999.00 999.00 999.00 999.00 999.00 999.00 999.00 999.00 999.00 999.00 999.00 999.00 999.00 999.00 999.00 999.00 999.00 999.00 999.00 999.00 999.00 999.00 999.00 999.00 999.00 999.00 999.00 999.00 999.00 999.00 999.00 999.00 999.00 999.00 999.00 999.00 999.00 999.00 999.00 999.00 999.00 999.00 999.00 999.00 999.00 999.00 999.00 999.00 999.00 999.00 999.00 999.00 999.00 999.00 999.00 999.00 999.00 999.00 999.00 999.00 999.00 999.00 999.00 999.00 999.00 999.00 999.00 999.00 999.00 999.00 999.00
52.24 52.26 51.98 51.63 50.92 50.77 50.75 51.30 51.78 51.90 52.10 52.04 52.33 52.62 52.88 52.93 52.92 53.04 53.31 53.59 53.80 53.98 53.99 53.17 52.94 53.00 53.27 54.38 54.80 54.91 54.45 54.91 54.71 54.26 53.34 52.40 52.86 52.04 52.47 53.79 54.09 54.64 54.67 54.73 54.99 55.05 55.21 55.20 55.18 55.22 55.12 55.19 55.15 55.33 55.27 55.31 55.53 55.62 55.84 55.91 55.90 56.08 56.49 56.47 56.73 57.92 57.80 56.94 57.29 57.77 58.35 58.22 58.14 58.56 58.57 58.83 59.25 59.67 59.91 60.12 59.71 59.99 61.43 62.28 62.83 63.22 63.06 62.55 62.29 62.48 62.88 63.34 63.66 63.67 64.82 65.79 64.77 65.12 65.57 65.86 66.09 66.48 67.16 68.19 68.58 68.66 68.30 66.36 65.21 64.75 64.44 64.12 63.99 63.57 63.67 63.55 63.33 63.17 63.18 63.24 63.43 63.51 63.63 63.68 63.44 63.50 63.58 63.62 63.49 63.54 63.05 61.48 59.85 59.60 58.98 58.72 58.42 58.06 57.68 57.32 57.15 56.84 56.33 55.91 55.21 54.58 53.98 54.03 53.64 53.81 53.65 53.13 52.74 52.30 52.30 52.61 52.55 52.13 51.42 51.65 52.26 51.62 51.23 51.13 51.12 51.46 51.19 50.74 50.80 50.89 50.74 50.52 50.37 50.29 50.01 49.52 49.36 49.25 48.27 45.91 40.66 39.04 38.77 39.08 40.91 48.00 55.23 999.00 999.00 999.00 999.00 999.00 999.00 999.00 999.00 999.00 999.00 999.00 999.00 999.00 999.00 999.00 999.00 999.00 999.00 999.00 999.00 999.00 999.00 999.00 999.00 999.00 999.00 999.00 999.00 999.00 999.00 999.00 999.00 999.00 999.00 999.00 999.00 999.00 999.00 999.00 999.00 999.00 999.00 999.00 999.00 999.00 999.00 999.00 999.00 999.00 999.00 999.00 999.00 999.00 999.00 999.00 999.00 999.00 999.00 999.00 999.00 999.00 999.00 999.00 999.00 999.00 999.00 999.00 999.00 999.00 999.00 999.00 999.00 999.00 999.00 999.00 999.00 999.00 999.00 999.00 999.00 999.00 999.00 999.00 999.00 999.00 999.00 999.00 999.00 999.00 999.00 999.00 999.00 999.00 999.00 999.00 999.00 999.00 999.00 999.00 999.00 999.00 999.00 999.00 999.00 999.00 999.00 999.00 999.00 999.00 999.00 999.00 999.00 999.00 999.00 999.00 999.00 999.00 999.00 999.00 999.00 999.00 999.00 999.00 999.00 999.00 999.00 999.00 999.00 999.00 999.00 999.00 999.00 999.00 999.00 999.00 999.00 999.00 999.00 999.00 999.00 999.00 999.00 999.00 999.00 999.00 999.00 999.00 999.00 999.00 999.00 999.00 999.00 999.00 999.00 999.00 999.00 999.00 999.00 999.00 999.00 999.00 999.00 999.00 999.00 999.00 999.00 999.00 999.00 999.00 999.00 999.00 999.00 999.00 999.00 999.00 999.00 999.00 999.00 999.00 999.00 999.00 999.00 999.00 999.00 999.00 999.00 999.00 999.00 999.00 999.00 999.00 999.00 999.00 999.00 999.00 999.00 999.00 999.00 999.00 999.00 999.00 999.00 999.00 999.00 999.00 999.00 999.00 999.00 999.00 999.00 999.00 999.00 999.00
52.46 52.34 52.08 51.81 51.02 50.81 50.87 51.19 52.06 52.33 52.36 52.21 52.37 52.68 52.91 53.04 53.11 53.23 53.37 53.71 54.12 53.97 53.55 53.68 53.88 53.66 53.79 54.70 55.46 55.40 54.59 54.70 54.46 53.90 53.49 52.88 52.39 52.16 52.96 53.54 53.56 53.66 53.75 54.36 54.82 55.10 55.33 55.33 55.36 55.40 55.32 55.35 55.35 55.52 55.40 55.37 55.80 56.11 56.31 56.64 56.86 57.04 57.30 57.59 60.11 60.91 57.92 58.06 58.23 58.48 58.35 57.99 57.98 58.34 58.57 58.89 59.36 59.77 60.11 60.47 60.76 60.60 60.64 61.81 62.80 63.32 63.22 62.84 62.63 62.81 62.87 63.37 63.53 64.26 64.34 65.01 65.17 65.25 65.86 66.22 66.36 66.90 67.70 68.74 68.96 69.08 68.08 66.59 65.63 65.03 64.65 64.43 64.14 63.94 64.01 63.74 63.61 63.54 63.50 63.60 63.71 63.58 63.67 63.63 63.31 63.13 63.05 63.04 62.79 62.53 62.27 61.57 59.83 59.49 59.16 58.99 58.57 58.04 57.71 57.29 57.04 56.76 56.07 55.37 54.96 53.84 53.46 54.25 54.16 53.98 53.81 53.24 53.13 52.42 52.40 52.78 52.93 52.46 51.74 51.68 51.05 51.21 51.04 51.12 51.04 50.55 50.67 50.89 51.10 51.17 51.00 50.73 50.44 50.26 50.37 50.08 49.82 49.56 47.93 45.51 43.89 40.89 38.71 39.74 47.14 55.03 999.00 999.00 999.00 999.00 999.00 999.00 999.00 999.00 999.00 999.00 999.00 999.00 999.00 999.00 999.00 999.00 999.00 999.00 999.00 999.00 999.00 999.00 999.00 999.00 999.00 999.00 999.00 999.00 999.00 999.00 999.00 999.00 999.00 999.00 999.00 999.00 999.00 999.00 999.00 999.00 999.00 999.00 999.00 999.00 999.00 999.00 999.00 999.00 999.00 999.00 999.00 999.00 999.00 999.00 999.00 999.00 999.00 999.00 999.00 999.00 999.00 999.00 999.00 999.00 999.00 999.00 999.00 999.00 999.00 999.00 999.00 999.00 999.00 999.00 999.00 999.00 999.00 999.00 999.00 999.00 999.00 999.00 999.00 999.00 999.00 999.00 999.00 999.00 999.00 999.00 999.00 999.00 999.00 999.00 999.00 999.00 999.00 999.00 999.00 999.00 999.00 999.00 999.00 999.00 999.00 999.00 999.00 999.00 999.00 999.00 999.00 999.00 999.00 999.00 999.00 999.00 999.00 999.00 999.00 999.00 999.00 999.00 999.00 999.00 999.00 999.00 999.00 999.00 999.00 999.00 999.00 999.00 999.00 999.00 999.00 999.00 999.00 999.00 999.00 999.00 999.00 999.00 999.00 999.00 999.00 999.00 999.00 999.00 999.00 999.00 999.00 999.00 999.00 999.00 999.00 999.00 999.00 999.00 999.00 999.00 999.00 999.00 999.00 999.00 999.00 999.00 999.00 999.00 999.00 999.00 999.00 999.00 999.00 999.00 999.00 999.00 999.00 999.00 999.00 999.00 999.00 999.00 999.00 999.00 999.00 999.00 999.00 999.00 999.00 999.00 999.00 999.00 999.00 999.00 999.00 999.00 999.00 999.00 999.00 999.00 999.00 999.00 999.00 999.00 999.00 999.00 999.00 999.00 999.00 999.00 999.00 999.00 999.00 999.00
52.70 52.36 51.92 51.49 50.50 51.21 51.30 51.06 52.06 52.49 52.63 52.50 52.54 52.79 53.05 53.29 53.33 53.34 53.35 53.82 54.10 53.82 53.81 53.99 54.15 54.45 54.23 54.37 54.80 54.57 54.32 54.28 54.38 54.20 54.97 54.20 53.42 53.05 53.43 53.58 53.58 53.78 53.55 53.96 54.95 55.25 55.40 55.47 55.51 55.56 55.54 55.46 55.53 55.66 55.51 55.53 56.19 57.17 57.49 57.92 58.09 58.07 57.52 58.02 63.60 63.68 59.71 61.66 61.86 61.70 58.97 58.04 58.15 58.48 58.72 59.22 59.63 59.81 60.15 60.64 61.50 62.06 61.12 60.85 62.27 62.86 62.94 62.96 63.02 63.03 63.07 63.58 63.80 64.02 64.60 65.03 65.07 65.37 65.98 66.54 66.82 67.23 67.82 68.95 69.38 69.09 67.41 66.54 65.98 65.16 64.85 64.73 64.43 64.46 64.28 64.00 63.89 63.89 63.94 63.97 64.07 63.93 63.81 63.78 63.37 62.75 62.43 62.40 61.91 61.51 61.06 60.55 59.81 58.91 58.70 58.87 58.69 58.07 57.81 57.26 56.82 56.22 55.45 55.23 55.07 54.33 54.53 54.73 54.38 54.07 53.98 53.24 53.26 52.84 52.74 53.15 53.39 52.81 52.05 51.58 51.22 50.69 50.56 50.79 50.97 50.31 50.23 50.74 51.19 51.33 51.16 50.93 50.78 50.53 50.34 50.40 50.47 50.30 48.11 47.73 48.13 46.45 43.23 47.78 55.31 999.00 999.00 999.00 999.00 999.00 999.00 999.00 999.00 999.00 999.00 999.00 999.00 999.00 999.00 999.00 999.00 999.00 999.00 999.00 999.00 999.00 999.00 999.00 999.00 999.00 999.00 999.00 999.00 999.00 999.00 999.00 999.00 999.00 999.00 999.00 999.00 999.00 999.00 999.00 999.00 999.00 999.00 999.00 999.00 999.00 999.00 999.00 999.00 999.00 999.00 999.00 999.00 999.00 999.00 999.00 999.00 999.00 999.00 999.00 999.00 999.00 999.00 999.00 999.00 999.00 999.00 999.00 999.00 999.00 999.00 999.00 999.00 999.00 999.00 999.00 999.00 999.00 999.00 999.00 999.00 999.00 999.00 999.00 999.00 999.00 999.00 999.00 999.00 999.00 999.00 999.00 999.00 999.00 999.00 999.00 999.00 999.00 999.00 999.00 999.00 999.00 999.00 999.00 999.00 999.00 999.00 999.00 999.00 999.00 999.00 999.00 999.00 999.00 999.00 999.00 999.00 999.00 999.00 999.00 999.00 999.00 999.00 999.00 999.00 999.00 999.00 999.00 999.00 999.00 999.00 999.00 999.00 999.00 999.00 999.00 999.00 999.00 999.00 999.00 999.00 999.00 999.00 999.00 999.00 999.00 999.00 999.00 999.00 999.00 999.00 999.00 999.00 999.00 999.00 999.00 999.00 999.00 999.00 999.00 999.00 999.00 999.00 999.00 999.00 999.00 999.00 999.00 999.00 999.00 999.00 999.00 999.00 999.00 999.00 999.00 999.00 999.00 999.00 999.00 999.00 999.00 999.00 999.00 999.00 999.00 999.00 999.00 999.00 999.00 999.00 999.00 999.00 999.00 999.00 999.00 999.00 999.00 999.00 999.00 999.00 999.00 999.00 999.00 999.00 999.00 999.00 999.00 999.00 999.00 999.00 999.00 999.00 999.00 999.00 999.00
52.70 52.47 52.26 51.80 51.22 51.66 51.61 51.11 51.63 52.13 52.48 52.61 52.70 52.75 53.12 53.41 53.39 53.40 53.46 54.17 54.70 54.67 53.98 54.16 54.52 54.62 54.48 54.04 54.33 54.27 54.30 54.30 54.46 54.68 56.07 55.97 55.13 53.72 53.36 53.63 53.63 54.29 53.92 53.60 54.37 55.26 55.42 55.64 55.68 55.68 55.73 55.70 55.81 55.82 55.73 55.75 56.26 56.70 56.90 57.51 57.56 58.94 59.80 57.71 60.09 61.31 61.77 62.48 62.76 62.21 58.73 58.36 58.45 58.70 59.12 59.69 59.90 60.20 60.43 60.59 61.27 62.07 62.28 61.35 61.30 61.86 62.24 62.72 63.19 63.38 63.84 64.19 64.35 64.24 64.72 65.16 65.22 65.65 66.04 66.72 67.14 67.63 68.04 68.90 69.38 67.36 66.15 66.42 65.94 65.47 65.16 64.91 64.74 64.78 64.53 64.35 64.21 64.11 64.03 64.16 64.21 64.07 63.88 63.60 63.28 62.56 62.22 61.96 61.49 61.31 60.64 60.07 59.54 58.67 58.34 58.14 58.32 57.43 57.08 56.56 56.33 55.62 54.80 53.56 54.13 54.62 55.15 54.88 54.61 54.25 53.88 53.62 53.62 53.05 53.06 53.47 53.66 53.35 52.49 51.69 51.88 51.09 50.85 51.05 51.56 50.84 50.07 50.42 50.96 51.22 51.30 51.21 51.26 51.10 50.51 50.42 50.01 49.65 49.65 49.46 48.42 48.91 51.68 55.78 999.00 999.00 999.00 999.00 999.00 999.00 999.00 999.00 999.00 999.00 999.00 999.00 999.00 999.00 999.00 999.00 999.00 999.00 999.00 999.00 999.00 999.00 999.00 999.00 999.00 999.00 999.00 999.00 999.00 999.00 999.00 999.00 999.00 999.00 999.00 999.00 999.00 999.00 999.00 999.00 999.00 999.00 999.00 999.00 999.00 999.00 999.00 999.00 999.00 999.00 999.00 999.00 999.00 999.00 999.00 999.00 999.00 999.00 999.00 999.00 999.00 999.00 999.00 999.00 999.00 999.00 999.00 999.00 999.00 999.00 999.00 999.00 999.00 999.00 999.00 999.00 999.00 999.00 999.00 999.00 999.00 999.00 999.00 999.00 999.00 999.00 999.00 999.00 999.00 999.00 999.00 999.00 999.00 999.00 999.00 999.00 999.00 999.00 999.00 999.00 999.00 999.00 999.00 999.00 999.00 999.00 999.00 999.00 999.00 999.00 999.00 999.00 999.00 999.00 999.00 999.00 999.00 999.00 999.00 999.00 999.00 999.00 999.00 999.00 999.00 999.00 999.00 999.00 999.00 999.00 999.00 999.00 999.00 999.00 999.00 999.00 999.00 999.00 999.00 999.00 999.00 999.00 999.00 999.00 999.00 999.00 999.00 999.00 999.00 999.00 999.00 999.00 999.00 999.00 999.00 999.00 999.00 999.00 999.00 999.00 999.00 999.00 999.00 999.00 999.00 999.00 999.00 999.00 999.00 999.00 999.00 999.00 999.00 999.00 999.00 999.00 999.00 999.00 999.00 999.00 999.00 999.00 999.00 999.00 999.00 999.00 999.00 999.00 999.00 999.00 999.00 999.00 999.00 999.00 999.00 999.00 999.00 999.00 999.00 999.00 999.00 999.00 999.00 999.00 999.00 999.00 999.00 999.00 999.00 999.00 999.00 999.00 999.00 999.00 999.00 999.00
52.94 52.75 52.35 51.97 51.52 51.94 51.95 51.42 51.36 52.14 52.39 52.59 52.70 52.76 53.04 53.25 53.21 53.50 53.50 53.74 54.24 54.59 54.41 54.59 54.67 54.87 54.62 54.24 54.49 54.48 54.71 54.59 54.60 54.85 56.37 56.62 55.45 54.07 53.22 53.61 54.07 54.72 54.50 53.71 53.94 54.78 55.45 55.60 55.65 55.81 55.96 55.91 55.97 55.92 55.90 56.23 56.41 56.30 56.35 56.64 56.76 56.96 56.83 56.97 57.44 57.63 62.00 65.68 64.11 62.80 59.43 59.56 58.75 58.80 59.09 59.52 59.90 60.51 60.85 61.00 61.49 61.95 62.11 61.73 61.45 61.84 62.48 63.08 63.51 64.29 64.57 64.79 64.74 64.72 64.97 64.88 65.26 65.76 66.31 66.98 67.44 68.06 68.57 69.01 69.24 67.01 66.28 66.61 66.10 65.74 65.30 65.20 65.05 65.00 64.76 64.54 64.47 64.36 64.09 64.25 64.25 64.01 63.80 63.48 63.16 62.81 62.57 62.36 62.00 61.76 61.15 60.47 59.80 59.78 59.35 58.73 58.16 57.50 56.93 56.60 56.29 55.60 54.50 55.09 55.24 55.64 55.77 55.15 54.72 54.57 54.27 53.75 53.61 53.59 53.57 53.98 54.17 53.92 52.90 52.19 53.22 52.77 52.50 52.05 52.54 51.43 50.56 50.73 50.92 51.09 51.48 51.88 51.90 51.63 51.04 50.64 50.49 49.59 49.91 50.09 49.18 50.19 55.62 57.30 999.00 999.00 999.00 999.00 999.00 999.00 999.00 999.00 999.00 999.00 999.00 999.00 999.00 999.00 999.00 999.00 999.00 999.00 999.00 999.00 999.00 999.00 999.00 999.00 999.00 999.00 999.00 999.00 999.00 999.00 999.00 999.00 999.00 999.00 999.00 999.00 999.00 999.00 999.00 999.00 999.00 999.00 999.00 999.00 999.00 999.00 999.00 999.00 999.00 999.00 999.00 999.00 999.00 999.00 999.00 999.00 999.00 999.00 999.00 999.00 999.00 999.00 999.00 999.00 999.00 999.00 999.00 999.00 999.00 999.00 999.00 999.00 999.00 999.00 999.00 999.00 999.00 999.00 999.00 999.00 999.00 999.00 999.00 999.00 999.00 999.00 999.00 999.00 999.00 999.00 999.00 999.00 999.00 999.00 999.00 999.00 999.00 999.00 999.00 999.00 999.00 999.00 999.00 999.00 999.00 999.00 999.00 999.00 999.00 999.00 999.00 999.00 999.00 999.00 999.00 999.00 999.00 999.00 999.00 999.00 999.00 999.00 999.00 999.00 999.00 999.00 999.00 999.00 999.00 999.00 999.00 999.00 999.00 999.00 999.00 999.00 999.00 999.00 999.00 999.00 999.00 999.00 999.00 999.00 999.00 999.00 999.00 999.00 999.00 999.00 999.00 999.00 999.00 999.00 999.00 999.00 999.00 999.00 999.00 999.00 999.00 999.00 999.00 999.00 999.00 999.00 999.00 999.00 999.00 999.00 999.00 999.00 999.00 999.00 999.00 999.00 999.00 999.00 999.00 999.00 999.00 999.00 999.00 999.00 999.00 999.00 999.00 999.00 999.00 999.00 999.00 999.00 999.00 999.00 999.00 999.00 999.00 999.00 999.00 999.00 999.00 999.00 999.00 999.00 999.00 999.00 999.00 999.00 999.00 999.00 999.00 999.00 999.00 999.00 999.00 999.00
52.84 52.56 52.23 51.99 51.78 52.13 52.15 51.73 51.47 52.04 52.45 52.69 52.82 52.92 53.03 53.10 53.09 53.51 53.72 53.61 53.88 54.12 54.06 54.54 54.54 54.92 54.85 54.27 54.21 54.62 54.87 54.97 54.85 54.93 55.98 56.37 54.97 54.26 53.64 53.88 54.46 55.00 54.95 53.88 53.97 54.58 55.18 55.48 55.71 55.87 56.00 56.09 56.12 56.22 56.18 56.37 56.42 56.38 56.52 56.71 56.77 56.83 56.73 56.92 57.31 58.70 61.41 63.25 66.80 64.72 60.91 61.48 59.04 58.53 58.88 59.38 59.85 60.47 61.06 61.53 62.23 62.88 62.64 62.05 61.84 62.28 62.67 63.49 64.13 64.22 64.51 64.75 64.91 65.28 65.25 65.22 65.61 66.12 66.78 67.40 67.89 68.39 69.00 69.37 69.74 68.63 67.43 66.85 66.41 65.91 65.62 65.68 65.58 65.44 65.36 64.92 64.67 64.57 64.37 64.46 64.27 63.99 63.83 63.78 63.67 63.48 63.18 62.96 62.71 62.22 61.69 61.19 60.95 60.53 59.54 59.07 58.37 57.85 57.42 57.33 57.19 55.34 55.85 56.59 56.18 56.11 55.86 55.37 55.01 54.82 54.46 53.99 53.73 53.99 54.25 54.47 54.63 54.39 53.38 52.49 52.93 53.64 54.98 54.50 54.10 51.92 51.07 52.17 51.80 51.16 51.31 51.52 51.46 51.44 51.31 51.00 51.17 50.67 49.55 49.55 49.90 54.40 58.90 999.00 999.00 999.00 999.00 999.00 999.00 999.00 999.00 999.00 999.00 999.00 999.00 999.00 999.00 999.00 999.00 999.00 999.00 999.00 999.00 999.00 999.00 999.00 999.00 999.00 999.00 999.00 999.00 999.00 999.00 999.00 999.00 999.00 999.00 999.00 999.00 999.00 999.00 999.00 999.00 999.00 999.00 999.00 999.00 999.00 999.00 999.00 999.00 999.00 999.00 999.00 999.00 999.00 999.00 999.00 999.00 999.00 999.00 999.00 999.00 999.00 999.00 999.00 999.00 999.00 999.00 999.00 999.00 999.00 999.00 999.00 999.00 999.00 999.00 999.00 999.00 999.00 999.00 999.00 999.00 999.00 999.00 999.00 999.00 999.00 999.00 999.00 999.00 999.00 999.00 999.00 999.00 999.00 999.00 999.00 999.00 999.00 999.00 999.00 999.00 999.00 999.00 999.00 999.00 999.00 999.00 999.00 999.00 999.00 999.00 999.00 999.00 999.00 999.00 999.00 999.00 999.00 999.00 999.00 999.00 999.00 999.00 999.00 999.00 999.00 999.00 999.00 999.00 999.00 999.00 999.00 999.00 999.00 999.00 999.00 999.00 999.00 999.00 999.00 999.00 999.00 999.00 999.00 999.00 999.00 999.00 999.00 999.00 999.00 999.00 999.00 999.00 999.00 999.00 999.00 999.00 999.00 999.00 999.00 999.00 999.00 999.00 999.00 999.00 999.00 999.00 999.00 999.00 999.00 999.00 999.00 999.00 999.00 999.00 999.00 999.00 999.00 999.00 999.00 999.00 999.00 999.00 999.00 999.00 999.00 999.00 999.00 999.00 999.00 999.00 999.00 999.00 999.00 999.00 999.00 999.00 999.00 999.00 999.00 999.00 999.00 999.00 999.00 999.00 999.00 999.00 999.00 999.00 999.00 999.00 999.00 999.00 999.00 999.00 999.00 999.00 999.00
52.95 52.52 52.34 52.17 52.03 51.99 51.94 51.47 51.80 52.13 52.37 52.68 52.88 53.00 53.35 53.40 53.23 53.38 53.65 53.73 54.36 54.20 53.96 54.84 55.08 54.99 54.76 54.51 54.56 54.77 55.10 55.38 55.09 54.98 55.27 55.29 54.97 54.35 54.14 54.60 54.65 55.03 54.76 54.04 53.91 54.63 54.95 55.46 55.79 55.81 55.78 56.06 56.16 56.39 56.45 56.38 56.41 56.49 56.62 56.85 56.94 56.95 56.90 56.91 57.24 57.88 58.29 59.05 60.63 60.98 61.88 60.42 58.63 58.53 58.99 59.29 59.59 60.20 60.87 61.61 62.65 63.45 63.06 62.39 62.17 62.52 62.94 63.48 64.28 64.48 64.70 64.82 65.12 65.48 65.32 65.52 65.84 66.39 67.01 67.65 68.17 68.84 69.46 69.86 70.05 69.32 68.01 67.38 66.86 66.37 66.15 66.18 66.14 65.98 65.78 65.37 64.97 64.76 64.52 64.51 64.48 64.39 64.33 64.27 64.33 64.02 63.81 63.60 63.32 62.75 62.30 61.86 62.66 62.22 60.11 59.45 58.99 58.51 58.16 57.90 56.69 54.99 56.95 56.98 56.64 56.51 56.20 55.74 55.38 55.34 54.96 54.43 54.09 54.21 54.75 54.91 54.92 54.73 53.89 52.91 52.78 53.20 54.73 54.12 53.11 52.69 51.28 52.28 52.60 51.36 51.39 51.51 51.50 51.57 51.61 51.70 51.84 50.82 49.48 48.79 53.45 58.82 999.00 999.00 999.00 999.00 999.00 999.00 999.00 999.00 999.00 999.00 999.00 999.00 999.00 999.00 999.00 999.00 999.00 999.00 999.00 999.00 999.00 999.00 999.00 999.00 999.00 999.00 999.00 999.00 999.00 999.00 999.00 999.00 999.00 999.00 999.00 999.00 999.00 999.00 999.00 999.00 999.00 999.00 999.00 999.00 999.00 999.00 999.00 999.00 999.00 999.00 999.00 999.00 999.00 999.00 999.00 999.00 999.00 999.00 999.00 999.00 999.00 999.00 999.00 999.00 999.00 999.00 999.00 999.00 999.00 999.00 999.00 999.00 999.00 999.00 999.00 999.00 999.00 999.00 999.00 999.00 999.00 999.00 999.00 999.00 999.00 999.00 999.00 999.00 999.00 999.00 999.00 999.00 999.00 999.00 999.00 999.00 999.00 999.00 999.00 999.00 999.00 999.00 999.00 999.00 999.00 999.00 999.00 999.00 999.00 999.00 999.00 999.00 999.00 999.00 999.00 999.00 999.00 999.00 999.00 999.00 999.00 999.00 999.00 999.00 999.00 999.00 999.00 999.00 999.00 999.00 999.00 999.00 999.00 999.00 999.00 999.00 999.00 999.00 999.00 999.00 999.00 999.00 999.00 999.00 999.00 999.00 999.00 999.00 999.00 999.00 999.00 999.00 999.00 999.00 999.00 999.00 999.00 999.00 999.00 999.00 999.00 999.00 999.00 999.00 999.00 999.00 999.00 999.00 999.00 999.00 999.00 999.00 999.00 999.00 999.00 999.00 999.00 999.00 999.00 999.00 999.00 999.00 999.00 999.00 999.00 999.00 999.00 999.00 999.00 999.00 999.00 999.00 999.00 999.00 999.00 999.00 999.00 999.00 999.00 999.00 999.00 999.00 999.00 999.00 999.00 999.00 999.00 999.00 999.00 999.00 999.00 999.00 999.00 999.00 999.00 999.00 999.00 999.00
52.85 52.50 52.33 52.29 52.49 52.09 51.86 51.47 51.97 52.30 52.28 52.48 52.90 53.22 53.30 53.47 53.37 53.41 53.57 53.85 54.24 54.03 53.94 54.74 55.25 54.88 54.51 54.68 55.00 54.91 55.07 55.15 55.20 55.24 55.13 55.25 54.96 54.33 54.60 55.18 54.97 54.98 54.52 53.95 54.06 54.49 54.82 55.15 55.54 55.70 55.24 55.71 56.09 56.34 56.44 56.47 56.57 56.63 56.69 56.81 57.06 57.20 57.29 57.24 57.22 57.62 57.76 57.92 58.13 59.87 62.33 60.50 58.73 58.77 59.13 59.48 59.70 60.08 60.76 61.74 62.98 63.67 63.31 62.70 62.50 62.80 63.34 63.47 63.89 64.58 65.60 65.57 65.68 65.46 65.41 65.52 65.86 66.31 66.87 67.60 68.34 69.04 69.89 70.57 70.43 69.58 68.45 67.65 67.25 66.88 66.61 66.50 66.50 66.37 66.19 65.84 65.41 65.02 64.80 64.92 65.11 65.09 64.91 64.92 64.97 64.73 64.53 64.34 63.93 63.33 62.93 62.60 64.20 63.81 60.94 60.23 59.71 58.98 58.56 58.25 56.44 55.78 57.54 57.31 57.03 56.78 56.47 55.96 55.52 55.38 55.23 54.75 54.37 54.30 54.79 54.98 55.14 54.92 54.41 53.32 52.34 52.22 52.29 51.68 51.31 51.32 51.27 51.60 51.94 51.51 51.57 51.68 51.75 51.80 52.10 52.16 52.05 50.92 51.06 53.06 58.51 999.00 999.00 999.00 999.00 999.00 999.00 999.00 999.00 999.00 999.00 999.00 999.00 999.00 999.00 999.00 999.00 999.00 999.00 999.00 999.00 999.00 999.00 999.00 999.00 999.00 999.00 999.00 999.00 999.00 999.00 999.00 999.00 999.00 999.00 999.00 999.00 999.00 999.00 999.00 999.00 999.00 999.00 999.00 999.00 999.00 999.00 999.00 999.00 999.00 999.00 999.00 999.00 999.00 999.00 999.00 999.00 999.00 999.00 999.00 999.00 999.00 999.00 999.00 999.00 999.00 999.00 999.00 999.00 999.00 999.00 999.00 999.00 999.00 999.00 999.00 999.00 999.00 999.00 999.00 999.00 999.00 999.00 999.00 999.00 999.00 999.00 999.00 999.00 999.00 999.00 999.00 999.00 999.00 999.00 999.00 999.00 999.00 999.00 999.00 999.00 999.00 999.00 999.00 999.00 999.00 999.00 999.00 999.00 999.00 999.00 999.00 999.00 999.00 999.00 999.00 999.00 999.00 999.00 999.00 999.00 999.00 999.00 999.00 999.00 999.00 999.00 999.00 999.00 999.00 999.00 999.00 999.00 999.00 999.00 999.00 999.00 999.00 999.00 999.00 999.00 999.00 999.00 999.00 999.00 999.00 999.00 999.00 999.00 999.00 999.00 999.00 999.00 999.00 999.00 999.00 999.00 999.00 999.00 999.00 999.00 999.00 999.00 999.00 999.00 999.00 999.00 999.00 999.00 999.00 999.00 999.00 999.00 999.00 999.00 999.00 999.00 999.00 999.00 999.00 999.00 999.00 999.00 999.00 999.00 999.00 999.00 999.00 999.00 999.00 999.00 999.00 999.00 999.00 999.00 999.00 999.00 999.00 999.00 999.00 999.00 999.00 999.00 999.00 999.00 999.00 999.00 999.00 999.00 999.00 999.00 999.00 999.00 999.00 999.00 999.00 999.00 999.00 999.00 999.00
52.89 52.63 52.56 52.52 52.38 52.09 51.92 51.68 51.87 52.40 52.56 52.73 53.04 53.33 53.35 53.58 53.51 53.53 53.53 53.82 54.14 54.07 54.28 54.85 55.02 54.99 54.51 54.66 55.25 55.37 55.32 55.35 55.29 55.17 55.13 55.22 55.12 54.62 54.56 55.30 55.39 55.17 54.84 54.31 54.19 54.24 54.64 54.49 54.94 55.71 55.95 56.12 56.11 56.18 56.38 56.69 56.73 56.76 56.82 56.85 57.05 57.33 57.46 57.52 57.38 57.55 57.72 57.89 58.22 60.40 61.82 60.48 58.90 59.09 59.37 59.87 60.12 60.27 60.88 61.90 63.21 63.79 63.30 62.97 62.97 63.30 63.41 63.53 63.51 64.12 64.89 65.73 65.43 65.35 65.48 65.62 65.99 66.46 67.00 67.63 68.40 69.17 70.07 70.81 70.72 69.88 69.26 68.20 68.00 67.45 67.13 66.88 66.85 66.74 66.33 65.94 65.59 65.42 65.31 65.71 66.10 66.27 65.86 65.79 65.64 65.52 65.38 65.28 64.85 64.15 63.63 63.28 64.02 63.20 61.38 60.66 59.94 59.07 58.59 58.32 57.04 57.33 57.90 57.59 57.29 57.03 56.70 56.14 55.60 55.45 55.31 54.98 54.57 54.52 54.98 55.29 55.59 55.33 54.66 53.70 52.43 52.07 51.83 51.46 51.37 51.49 51.42 51.64 51.62 51.63 51.63 51.80 52.03 52.27 52.55 52.39 51.88 51.10 53.34 58.65 999.00 999.00 999.00 999.00 999.00 999.00 999.00 999.00 999.00 999.00 999.00 999.00 999.00 999.00 999.00 999.00 999.00 999.00 999.00 999.00 999.00 999.00 999.00 999.00 999.00 999.00 999.00 999.00 999.00 999.00 999.00 999.00 999.00 999.00 999.00 999.00 999.00 999.00 999.00 999.00 999.00 999.00 999.00 999.00 999.00 999.00 999.00 999.00 999.00 999.00 999.00 999.00 999.00 999.00 999.00 999.00 999.00 999.00 999.00 999.00 999.00 999.00 999.00 999.00 999.00 999.00 999.00 999.00 999.00 999.00 999.00 999.00 999.00 999.00 999.00 999.00 999.00 999.00 999.00 999.00 999.00 999.00 999.00 999.00 999.00 999.00 999.00 999.00 999.00 999.00 999.00 999.00 999.00 999.00 999.00 999.00 999.00 999.00 999.00 999.00 999.00 999.00 999.00 999.00 999.00 999.00 999.00 999.00 999.00 999.00 999.00 999.00 999.00 999.00 999.00 999.00 999.00 999.00 999.00 999.00 999.00 999.00 999.00 999.00 999.00 999.00 999.00 999.00 999.00 999.00 999.00 999.00 999.00 999.00 999.00 999.00 999.00 999.00 999.00 999.00 999.00 999.00 999.00 999.00 999.00 999.00 999.00 999.00 999.00 999.00 999.00 999.00 999.00 999.00 999.00 999.00 999.00 999.00 999.00 999.00 999.00 999.00 999.00 999.00 999.00 999.00 999.00 999.00 999.00 999.00 999.00 999.00 999.00 999.00 999.00 999.00 999.00 999.00 999.00 999.00 999.00 999.00 999.00 999.00 999.00 999.00 999.00 999.00 999.00 999.00 999.00 999.00 999.00 999.00 999.00 999.00 999.00 999.00 999.00 999.00 999.00 999.00 999.00 999.00 999.00 999.00 999.00 999.00 999.00 999.00 999.00 999.00 999.00 999.00 999.00 999.00 999.00 999.00 999.00 999.00
53.14 52.83 52.78 52.80 52.41 52.14 52.12 51.78 51.34 52.16 52.53 52.90 52.88 53.30 53.47 53.65 53.69 53.72 53.85 53.97 54.33 54.22 54.33 54.94 55.12 55.08 54.77 54.73 55.32 55.39 55.40 55.44 55.45 55.39 55.32 55.36 55.25 55.00 54.57 55.13 55.63 55.46 55.18 54.69 54.46 54.32 54.51 54.71 54.95 56.16 56.28 56.36 56.46 56.48 56.46 56.66 56.84 56.95 57.01 57.10 57.17 57.34 57.62 57.69 57.38 57.56 57.83 57.87 58.46 62.16 62.42 61.09 60.33 59.95 59.48 60.15 60.54 60.56 60.92 61.77 62.98 63.84 63.62 63.30 63.30 63.60 63.81 63.95 64.59 65.31 65.31 65.55 65.70 65.22 65.57 65.88 66.09 66.51 67.17 67.74 68.45 69.22 69.87 70.41 70.61 70.20 69.66 69.00 68.64 67.69 67.61 67.23 67.03 66.77 66.35 66.05 65.77 65.64 65.89 66.39 67.03 67.33 67.27 67.05 66.65 66.49 66.37 66.21 65.75 64.96 64.24 63.89 62.92 62.22 61.28 60.00 59.10 57.49 56.58 57.02 56.66 58.15 58.15 57.88 57.43 57.13 56.70 56.20 55.96 55.59 55.38 55.01 54.81 54.55 54.82 55.14 55.73 55.73 54.86 54.06 53.40 53.44 52.40 51.94 51.87 51.80 51.62 51.76 51.87 51.83 51.81 52.08 52.39 52.70 53.07 52.88 51.85 52.23 57.66 58.19 999.00 999.00 999.00 999.00 999.00 999.00 999.00 999.00 999.00 999.00 999.00 999.00 999.00 999.00 999.00 999.00 999.00 999.00 999.00 999.00 999.00 999.00 999.00 999.00 999.00 999.00 999.00 999.00 999.00 999.00 999.00 999.00 999.00 999.00 999.00 999.00 999.00 999.00 999.00 999.00 999.00 999.00 999.00 999.00 999.00 999.00 999.00 999.00 999.00 999.00 999.00 999.00 999.00 999.00 999.00 999.00 999.00 999.00 999.00 999.00 999.00 999.00 999.00 999.00 999.00 999.00 999.00 999.00 999.00 999.00 999.00 999.00 999.00 999.00 999.00 999.00 999.00 999.00 999.00 999.00 999.00 999.00 999.00 999.00 999.00 999.00 999.00 999.00 999.00 999.00 999.00 999.00 999.00 999.00 999.00 999.00 999.00 999.00 999.00 999.00 999.00 999.00 999.00 999.00 999.00 999.00 999.00 999.00 999.00 999.00 999.00 999.00 999.00 999.00 999.00 999.00 999.00 999.00 999.00 999.00 999.00 999.00 999.00 999.00 999.00 999.00 999.00 999.00 999.00 999.00 999.00 999.00 999.00 999.00 999.00 999.00 999.00 999.00 999.00 999.00 999.00 999.00 999.00 999.00 999.00 999.00 999.00 999.00 999.00 999.00 999.00 999.00 999.00 999.00 999.00 999.00 999.00 999.00 999.00 999.00 999.00 999.00 999.00 999.00 999.00 999.00 999.00 999.00 999.00 999.00 999.00 999.00 999.00 999.00 999.00 999.00 999.00 999.00 999.00 999.00 999.00 999.00 999.00 999.00 999.00 999.00 999.00 999.00 999.00 999.00 999.00 999.00 999.00 999.00 999.00 999.00 999.00 999.00 999.00 999.00 999.00 999.00 999.00 999.00 999.00 999.00 999.00 999.00 999.00 999.00 999.00 999.00 999.00 999.00 999.00 999.00 999.00 999.00 999.00 999.00
53.01 52.82 52.72 52.78 52.55 52.61 52.51 52.25 51.25 51.99 52.52 52.89 52.97 53.22 53.64 53.82 53.92 54.12 54.06 54.38 54.98 54.51 54.61 55.15 55.25 55.43 54.90 54.93 55.38 55.40 55.42 55.59 55.63 55.56 55.56 55.59 55.39 54.99 54.75 55.20 55.74 55.71 55.56 55.33 54.86 54.46 54.42 54.57 54.87 55.47 56.05 56.25 56.52 56.72 56.81 56.73 56.95 57.13 57.13 57.14 57.38 57.59 57.75 57.67 57.35 57.46 57.61 57.81 58.82 61.81 61.25 60.32 60.29 61.09 61.14 61.37 61.69 60.93 61.00 61.71 62.32 63.30 63.72 63.77 63.69 63.69 64.00 64.69 65.72 65.01 64.83 65.13 65.51 65.37 65.57 65.83 66.30 66.74 67.25 67.76 68.41 69.28 69.92 70.37 70.77 70.52 70.01 69.41 68.67 67.98 68.00 67.56 67.10 66.76 66.57 66.49 66.43 66.26 66.51 67.10 67.69 68.23 68.68 69.12 69.00 68.32 67.67 67.11 66.40 65.75 64.97 64.14 63.80 62.72 61.70 60.10 57.65 56.10 56.34 56.98 56.94 58.37 58.31 58.06 57.40 57.11 56.73 56.43 56.31 55.86 55.40 55.20 55.06 54.56 54.47 54.54 54.92 55.27 54.80 54.33 55.30 54.77 52.82 52.42 52.17 51.84 51.61 51.93 52.38 52.10 52.03 52.24 52.47 52.73 53.16 53.13 53.21 56.96 58.89 999.00 999.00 999.00 999.00 999.00 999.00 999.00 999.00 999.00 999.00 999.00 999.00 999.00 999.00 999.00 999.00 999.00 999.00 999.00 999.00 999.00 999.00 999.00 999.00 999.00 999.00 999.00 999.00 999.00 999.00 999.00 999.00 999.00 999.00 999.00 999.00 999.00 999.00 999.00 999.00 999.00 999.00 999.00 999.00 999.00 999.00 999.00 999.00 999.00 999.00 999.00 999.00 999.00 999.00 999.00 999.00 999.00 999.00 999.00 999.00 999.00 999.00 999.00 999.00 999.00 999.00 999.00 999.00 999.00 999.00 999.00 999.00 999.00 999.00 999.00 999.00 999.00 999.00 999.00 999.00 999.00 999.00 999.00 999.00 999.00 999.00 999.00 999.00 999.00 999.00 999.00 999.00 999.00 999.00 999.00 999.00 999.00 999.00 999.00 999.00 999.00 999.00 999.00 999.00 999.00 999.00 999.00 999.00 999.00 999.00 999.00 999.00 999.00 999.00 999.00 999.00 999.00 999.00 999.00 999.00 999.00 999.00 999.00 999.00 999.00 999.00 999.00 999.00 999.00 999.00 999.00 999.00 999.00 999.00 999.00 999.00 999.00 999.00 999.00 999.00 999.00 999.00 999.00 999.00 999.00 999.00 999.00 999.00 999.00 999.00 999.00 999.00 999.00 999.00 999.00 999.00 999.00 999.00 999.00 999.00 999.00 999.00 999.00 999.00 999.00 999.00 999.00 999.00 999.00 999.00 999.00 999.00 999.00 999.00 999.00 999.00 999.00 999.00 999.00 999.00 999.00 999.00 999.00 999.00 999.00 999.00 999.00 999.00 999.00 999.00 999.00 999.00 999.00 999.00 999.00 999.00 999.00 999.00 999.00 999.00 999.00 999.00 999.00 999.00 999.00 999.00 999.00 999.00 999.00 999.00 999.00 999.00 999.00 999.00 999.00 999.00 999.00 999.00 999.00 999.00 999.00
52.97 53.02 53.01 52.94 52.76 52.93 52.47 51.95 51.54 52.03 52.62 52.91 53.04 53.20 53.59 53.78 54.01 54.22 54.01 54.17 54.88 54.57 54.60 54.98 54.96 55.18 54.85 55.10 55.39 55.51 55.53 55.63 55.71 55.55 55.69 55.81 55.62 55.26 54.98 55.43 55.77 55.88 55.92 55.55 55.31 55.11 54.75 54.66 55.19 55.10 56.00 56.41 56.42 56.62 56.94 56.94 57.08 57.29 57.38 57.52 57.71 57.82 57.86 57.71 57.78 58.89 59.37 59.40 61.26 63.01 61.54 61.39 61.40 60.71 60.48 61.43 60.25 60.63 61.19 61.65 62.15 62.83 63.57 64.18 64.61 64.53 64.33 65.08 65.03 64.82 64.87 65.21 65.34 65.44 65.46 65.65 66.27 66.87 67.27 67.71 68.49 69.27 69.97 70.55 71.20 71.05 71.03 70.19 69.01 68.32 68.16 67.95 67.68 67.47 67.09 66.97 66.75 66.78 67.09 67.65 68.48 69.26 70.09 70.90 71.70 70.77 68.93 68.04 67.30 66.69 65.89 65.52 65.33 63.49 61.67 59.81 57.40 56.76 57.88 58.39 58.37 58.73 58.46 58.17 57.47 57.13 56.80 56.45 56.16 55.95 55.44 55.15 54.99 54.67 54.37 54.15 54.16 54.24 53.97 53.56 54.95 55.14 53.05 52.43 52.15 52.11 53.15 53.78 53.32 52.10 52.00 52.20 52.47 52.75 52.84 52.85 56.23 59.05 999.00 999.00 999.00 999.00 999.00 999.00 999.00 999.00 999.00 999.00 999.00 999.00 999.00 999.00 999.00 999.00 999.00 999.00 999.00 999.00 999.00 999.00 999.00 999.00 999.00 999.00 999.00 999.00 999.00 999.00 999.00 999.00 999.00 999.00 999.00 999.00 999.00 999.00 999.00 999.00 999.00 999.00 999.00 999.00 999.00 999.00 999.00 999.00 999.00 999.00 999.00 999.00 999.00 999.00 999.00 999.00 999.00 999.00 999.00 999.00 999.00 999.00 999.00 999.00 999.00 999.00 999.00 999.00 999.00 999.00 999.00 999.00 999.00 999.00 999.00 999.00 999.00 999.00 999.00 999.00 999.00 999.00 999.00 999.00 999.00 999.00 999.00 999.00 999.00 999.00 999.00 999.00 999.00 999.00 999.00 999.00 999.00 999.00 999.00 999.00 999.00 999.00 999.00 999.00 999.00 999.00 999.00 999.00 999.00 999.00 999.00 999.00 999.00 999.00 999.00 999.00 999.00 999.00 999.00 999.00 999.00 999.00 999.00 999.00 999.00 999.00 999.00 999.00 999.00 999.00 999.00 999.00 999.00 999.00 999.00 999.00 999.00 999.00 999.00 999.00 999.00 999.00 999.00 999.00 999.00 999.00 999.00 999.00 999.00 999.00 999.00 999.00 999.00 999.00 999.00 999.00 999.00 999.00 999.00 999.00 999.00 999.00 999.00 999.00 999.00 999.00 999.00 999.00 999.00 999.00 999.00 999.00 999.00 999.00 999.00 999.00 999.00 999.00 999.00 999.00 999.00 999.00 999.00 999.00 999.00 999.00 999.00 999.00 999.00 999.00 999.00 999.00 999.00 999.00 999.00 999.00 999.00 999.00 999.00 999.00 999.00 999.00 999.00 999.00 999.00 999.00 999.00 999.00 999.00 999.00 999.00 999.00 999.00 999.00 999.00 999.00 999.00 999.00 999.00 999.00 999.00 999.00
53.45 53.50 53.33 53.15 52.88 52.86 52.43 52.24 52.21 52.13 52.90 53.25 53.24 53.36 53.55 53.81 54.05 54.27 54.10 54.41 54.83 54.76 54.78 54.88 54.68 54.87 55.08 55.18 55.47 55.66 55.74 55.79 55.80 55.75 55.87 56.02 55.94 55.32 55.18 55.79 56.03 56.05 56.14 55.77 55.83 55.61 54.96 54.68 55.31 55.45 56.03 56.46 56.56 56.62 56.97 57.23 57.21 57.50 57.68 57.70 57.78 57.86 57.89 57.71 58.71 63.45 64.05 63.06 63.68 65.93 65.03 65.18 65.03 63.05 60.86 60.84 58.15 60.07 61.22 62.07 62.77 63.36 63.63 63.94 64.62 65.19 65.03 65.17 65.25 65.06 65.10 65.40 65.46 65.57 65.70 66.01 66.47 66.76 67.17 67.76 68.52 69.23 70.14 70.85 71.41 71.25 71.18 70.66 69.67 68.76 68.44 68.42 68.15 67.87 67.51 67.29 66.90 66.92 67.28 68.04 69.14 69.94 70.85 71.65 72.73 72.85 70.65 69.32 68.51 67.66 67.16 67.18 66.81 64.18 61.80 59.68 57.67 57.47 58.84 59.28 59.28 58.98 58.65 58.34 57.73 57.22 56.85 56.57 56.07 55.83 55.57 55.12 54.94 54.71 54.40 54.03 53.54 53.39 53.35 53.14 53.78 54.16 53.10 52.44 52.10 52.20 52.81 52.59 52.42 52.32 52.31 52.60 52.93 53.12 52.85 55.05 59.10 999.00 999.00 999.00 999.00 999.00 999.00 999.00 999.00 999.00 999.00 999.00 999.00 999.00 999.00 999.00 999.00 999.00 999.00 999.00 999.00 999.00 999.00 999.00 999.00 999.00 999.00 999.00 999.00 999.00 999.00 999.00 999.00 999.00 999.00 999.00 999.00 999.00 999.00 999.00 999.00 999.00 999.00 999.00 999.00 999.00 999.00 999.00 999.00 999.00 999.00 999.00 999.00 999.00 999.00 999.00 999.00 999.00 999.00 999.00 999.00 999.00 999.00 999.00 999.00 999.00 999.00 999.00 999.00 999.00 999.00 999.00 999.00 999.00 999.00 999.00 999.00 999.00 999.00 999.00 999.00 999.00 999.00 999.00 999.00 999.00 999.00 999.00 999.00 999.00 999.00 999.00 999.00 999.00 999.00 999.00 999.00 999.00 999.00 999.00 999.00 999.00 999.00 999.00 999.00 999.00 999.00 999.00 999.00 999.00 999.00 999.00 999.00 999.00 999.00 999.00 999.00 999.00 999.00 999.00 999.00 999.00 999.00 999.00 999.00 999.00 999.00 999.00 999.00 999.00 999.00 999.00 999.00 999.00 999.00 999.00 999.00 999.00 999.00 999.00 999.00 999.00 999.00 999.00 999.00 999.00 999.00 999.00 999.00 999.00 999.00 999.00 999.00 999.00 999.00 999.00 999.00 999.00 999.00 999.00 999.00 999.00 999.00 999.00 999.00 999.00 999.00 999.00 999.00 999.00 999.00 999.00 999.00 999.00 999.00 999.00 999.00 999.00 999.00 999.00 999.00 999.00 999.00 999.00 999.00 999.00 999.00 999.00 999.00 999.00 999.00 999.00 999.00 999.00 999.00 999.00 999.00 999.00 999.00 999.00 999.00 999.00 999.00 999.00 999.00 999.00 999.00 999.00 999.00 999.00 999.00 999.00 999.00 999.00 999.00 999.00 999.00 999.00 999.00 999.00 999.00 999.00 999.00 999.00
53.69 53.79 53.63 53.21 52.96 52.96 52.94 53.16 52.06 51.76 52.50 53.53 53.35 53.45 53.64 53.85 54.00 54.24 54.29 54.58 55.00 55.00 54.72 54.63 54.59 54.82 55.24 55.16 55.49 55.97 56.06 56.00 55.94 56.01 55.96 56.13 56.26 55.65 55.32 55.97 56.16 56.18 56.15 55.79 56.00 55.92 55.41 54.73 55.14 55.88 56.21 56.19 56.61 56.89 57.06 57.33 57.29 57.43 57.73 57.79 57.91 58.00 58.12 58.07 60.61 65.92 66.08 65.24 64.45 65.03 65.42 66.68 66.41 63.10 60.65 60.18 58.56 60.71 61.61 62.50 63.16 63.84 64.53 64.74 64.85 65.41 65.32 65.53 65.75 65.64 65.55 65.69 65.76 65.88 65.77 65.95 66.54 66.80 67.32 67.94 68.64 69.16 70.01 70.78 71.23 71.39 71.08 70.76 70.19 69.36 68.89 68.70 68.30 68.06 67.97 67.60 67.22 66.94 67.17 67.93 69.14 70.03 71.22 72.27 73.46 73.76 71.21 70.41 69.83 68.99 69.03 69.31 67.97 64.88 61.88 60.18 58.56 58.19 59.60 59.84 59.64 59.37 58.74 58.39 57.73 57.25 56.97 56.90 56.38 55.84 55.72 55.34 55.04 54.87 54.56 54.17 53.51 53.19 53.03 53.24 53.68 53.41 52.92 52.57 52.33 52.35 52.60 52.87 53.34 52.89 52.65 52.71 52.92 53.79 54.35 58.53 999.00 999.00 999.00 999.00 999.00 999.00 999.00 999.00 999.00 999.00 999.00 999.00 999.00 999.00 999.00 999.00 999.00 999.00 999.00 999.00 999.00 999.00 999.00 999.00 999.00 999.00 999.00 999.00 999.00 999.00 999.00 999.00 999.00 999.00 999.00 999.00 999.00 999.00 999.00 999.00 999.00 999.00 999.00 999.00 999.00 999.00 999.00 999.00 999.00 999.00 999.00 999.00 999.00 999.00 999.00 999.00 999.00 999.00 999.00 999.00 999.00 999.00 999.00 999.00 999.00 999.00 999.00 999.00 999.00 999.00 999.00 999.00 999.00 999.00 999.00 999.00 999.00 999.00 999.00 999.00 999.00 999.00 999.00 999.00 999.00 999.00 999.00 999.00 999.00 999.00 999.00 999.00 999.00 999.00 999.00 999.00 999.00 999.00 999.00 999.00 999.00 999.00 999.00 999.00 999.00 999.00 999.00 999.00 999.00 999.00 999.00 999.00 999.00 999.00 999.00 999.00 999.00 999.00 999.00 999.00 999.00 999.00 999.00 999.00 999.00 999.00 999.00 999.00 999.00 999.00 999.00 999.00 999.00 999.00 999.00 999.00 999.00 999.00 999.00 999.00 999.00 999.00 999.00 999.00 999.00 999.00 999.00 999.00 999.00 999.00 999.00 999.00 999.00 999.00 999.00 999.00 999.00 999.00 999.00 999.00 999.00 999.00 999.00 999.00 999.00 999.00 999.00 999.00 999.00 999.00 999.00 999.00 999.00 999.00 999.00 999.00 999.00 999.00 999.00 999.00 999.00 999.00 999.00 999.00 999.00 999.00 999.00 999.00 999.00 999.00 999.00 999.00 999.00 999.00 999.00 999.00 999.00 999.00 999.00 999.00 999.00 999.00 999.00 999.00 999.00 999.00 999.00 999.00 999.00 999.00 999.00 999.00 999.00 999.00 999.00 999.00 999.00 999.00 999.00 999.00 999.00 999.00 999.00 999.00
53.93 53.84 53.47 53.15 53.27 53.46 53.39 53.22 51.77 51.57 52.39 53.63 53.47 53.53 53.71 53.81 54.00 54.14 54.18 54.77 54.80 54.72 54.56 54.61 54.73 54.93 55.53 55.38 55.71 56.18 56.33 56.25 56.22 56.30 56.20 56.27 56.19 55.76 55.52 55.93 56.23 56.20 56.18 55.97 56.24 56.16 55.46 54.85 55.14 55.56 56.38 56.50 56.86 57.20 57.25 57.40 57.37 57.43 57.67 57.90 58.02 58.18 58.34 58.25 59.48 61.81 61.73 62.36 63.79 63.40 62.98 63.61 64.19 62.57 61.56 61.37 59.89 61.36 61.62 62.61 63.51 64.08 64.76 65.28 65.60 65.95 66.05 66.34 66.43 66.20 66.04 65.96 66.04 66.03 66.01 66.03 66.45 66.79 67.34 67.95 68.60 69.15 69.84 70.56 71.14 71.68 71.48 70.95 70.64 70.07 69.48 69.27 68.81 68.53 68.36 67.95 67.43 67.13 67.11 67.73 68.85 69.91 71.13 72.25 73.73 72.99 70.20 70.11 70.09 70.33 70.84 69.63 66.54 63.62 61.81 60.13 58.67 59.08 60.00 60.16 59.97 59.52 58.99 58.44 57.93 57.65 57.28 57.17 56.53 56.10 56.01 55.63 55.10 54.91 54.65 54.21 53.48 52.83 53.03 53.59 54.14 53.74 53.22 52.80 52.35 52.68 54.58 54.83 53.71 52.95 52.75 52.91 53.35 53.83 57.01 58.56 999.00 999.00 999.00 999.00 999.00 999.00 999.00 999.00 999.00 999.00 999.00 999.00 999.00 999.00 999.00 999.00 999.00 999.00 999.00 999.00 999.00 999.00 999.00 999.00 999.00 999.00 999.00 999.00 999.00 999.00 999.00 999.00 999.00 999.00 999.00 999.00 999.00 999.00 999.00 999.00 999.00 999.00 999.00 999.00 999.00 999.00 999.00 999.00 999.00 999.00 999.00 999.00 999.00 999.00 999.00 999.00 999.00 999.00 999.00 999.00 999.00 999.00 999.00 999.00 999.00 999.00 999.00 999.00 999.00 999.00 999.00 999.00 999.00 999.00 999.00 999.00 999.00 999.00 999.00 999.00 999.00 999.00 999.00 999.00 999.00 999.00 999.00 999.00 999.00 999.00 999.00 999.00 999.00 999.00 999.00 999.00 999.00 999.00 999.00 999.00 999.00 999.00 999.00 999.00 999.00 999.00 999.00 999.00 999.00 999.00 999.00 999.00 999.00 999.00 999.00 999.00 999.00 999.00 999.00 999.00 999.00 999.00 999.00 999.00 999.00 999.00 999.00 999.00 999.00 999.00 999.00 999.00 999.00 999.00 999.00 999.00 999.00 999.00 999.00 999.00 999.00 999.00 999.00 999.00 999.00 999.00 999.00 999.00 999.00 999.00 999.00 999.00 999.00 999.00 999.00 999.00 999.00 999.00 999.00 999.00 999.00 999.00 999.00 999.00 999.00 999.00 999.00 999.00 999.00 999.00 999.00 999.00 999.00 999.00 999.00 999.00 999.00 999.00 999.00 999.00 999.00 999.00 999.00 999.00 999.00 999.00 999.00 999.00 999.00 999.00 999.00 999.00 999.00 999.00 999.00 999.00 999.00 999.00 999.00 999.00 999.00 999.00 999.00 999.00 999.00 999.00 999.00 999.00 999.00 999.00 999.00 999.00 999.00 999.00 999.00 999.00 999.00 999.00 999.00 999.00 999.00 999.00 999.00 999.00
53.99 53.75 53.58 53.53 53.55 53.52 53.35 53.10 51.88 51.74 52.03 53.29 53.63 53.47 53.47 53.68 53.81 54.13 54.40 54.61 54.56 54.51 54.58 54.77 54.98 55.09 55.58 55.77 55.93 56.19 56.48 56.56 56.51 56.52 56.45 56.54 56.26 55.97 55.63 56.05 56.40 56.36 56.47 56.36 56.57 56.09 55.40 55.34 55.82 55.37 55.75 56.60 56.87 57.21 57.43 57.53 57.60 57.65 57.78 58.00 58.13 58.28 58.41 58.34 58.27 58.93 59.20 59.98 62.79 62.14 61.30 61.33 61.59 61.91 61.63 61.89 60.89 61.37 61.84 62.63 63.47 64.12 64.78 65.41 66.05 66.43 66.72 66.86 67.22 67.08 66.67 66.28 66.27 66.42 66.42 66.33 66.68 67.03 67.59 68.15 68.65 69.27 69.95 70.64 71.31 72.19 71.91 71.42 71.32 70.83 70.46 69.86 69.24 68.93 68.72 68.25 67.69 67.29 67.20 67.60 68.38 68.82 64.86 63.46 65.83 70.54 66.53 66.33 69.75 71.83 72.20 69.57 65.46 63.00 61.78 60.34 58.99 59.38 60.58 60.62 60.26 59.77 59.55 58.69 58.27 57.90 57.38 56.97 56.57 56.32 56.18 55.91 55.28 54.80 54.45 54.05 53.52 53.09 53.54 53.97 54.20 53.99 53.50 53.04 52.64 52.71 53.11 52.69 52.23 52.37 52.88 53.22 53.30 54.68 59.35 999.00 999.00 999.00 999.00 999.00 999.00 999.00 999.00 999.00 999.00 999.00 999.00 999.00 999.00 999.00 999.00 999.00 999.00 999.00 999.00 999.00 999.00 999.00 999.00 999.00 999.00 999.00 999.00 999.00 999.00 999.00 999.00 999.00 999.00 999.00 999.00 999.00 999.00 999.00 999.00 999.00 999.00 999.00 999.00 999.00 999.00 999.00 999.00 999.00 999.00 999.00 999.00 999.00 999.00 999.00 999.00 999.00 999.00 999.00 999.00 999.00 999.00 999.00 999.00 999.00 999.00 999.00 999.00 999.00 999.00 999.00 999.00 999.00 999.00 999.00 999.00 999.00 999.00 999.00 999.00 999.00 999.00 999.00 999.00 999.00 999.00 999.00 999.00 999.00 999.00 999.00 999.00 999.00 999.00 999.00 999.00 999.00 999.00 999.00 999.00 999.00 999.00 999.00 999.00 999.00 999.00 999.00 999.00 999.00 999.00 999.00 999.00 999.00 999.00 999.00 999.00 999.00 999.00 999.00 999.00 999.00 999.00 999.00 999.00 999.00 999.00 999.00 999.00 999.00 999.00 999.00 999.00 999.00 999.00 999.00 999.00 999.00 999.00 999.00 999.00 999.00 999.00 999.00 999.00 999.00 999.00 999.00 999.00 999.00 999.00 999.00 999.00 999.00 999.00 999.00 999.00 999.00 999.00 999.00 999.00 999.00 999.00 999.00 999.00 999.00 999.00 999.00 999.00 999.00 999.00 999.00 999.00 999.00 999.00 999.00 999.00 999.00 999.00 999.00 999.00 999.00 999.00 999.00 999.00 999.00 999.00 999.00 999.00 999.00 999.00 999.00 999.00 999.00 999.00 999.00 999.00 999.00 999.00 999.00 999.00 999.00 999.00 999.00 999.00 999.00 999.00 999.00 999.00 999.00 999.00 999.00 999.00 999.00 999.00 999.00 999.00 999.00 999.00 999.00 999.00 999.00 999.00 999.00 999.00 999.00
53.96 53.80 53.79 53.82 53.78 53.52 53.34 53.11 52.01 52.60 52.29 52.95 53.43 53.02 53.09 53.74 53.98 54.27 54.26 54.45 54.64 54.54 54.59 54.80 54.98 55.25 55.65 55.86 55.92 56.20 56.49 56.49 56.43 56.59 56.82 56.82 56.53 56.22 55.91 56.02 56.45 56.51 56.52 56.45 56.48 56.09 55.73 55.39 55.95 56.07 55.51 56.23 56.87 57.35 57.77 57.88 57.97 58.07 57.98 57.99 58.07 58.27 58.26 58.27 58.45 59.24 59.57 59.37 60.55 61.36 61.28 60.81 61.44 61.95 61.58 61.51 60.89 61.31 61.85 62.56 63.30 64.04 64.84 65.57 66.10 66.62 67.09 67.43 67.86 68.16 67.66 67.09 67.02 67.02 66.84 66.83 66.97 67.13 67.41 67.86 68.51 69.25 70.04 70.79 71.56 72.31 72.10 72.16 72.91 73.63 73.62 71.48 69.97 69.45 69.10 68.58 68.04 67.45 67.36 67.43 67.53 62.45 53.46 52.78 58.36 68.54 60.46 59.60 66.89 69.91 68.84 66.71 62.49 61.34 59.85 59.63 59.05 59.29 61.04 60.64 60.03 59.51 59.06 58.42 58.05 57.60 57.22 57.04 56.79 56.42 56.36 56.09 55.36 54.75 54.15 53.90 53.66 53.46 54.01 54.31 54.29 54.15 53.91 53.26 53.05 52.86 52.67 52.65 52.67 52.60 52.74 53.17 53.28 57.09 58.57 999.00 999.00 999.00 999.00 999.00 999.00 999.00 999.00 999.00 999.00 999.00 999.00 999.00 999.00 999.00 999.00 999.00 999.00 999.00 999.00 999.00 999.00 999.00 999.00 999.00 999.00 999.00 999.00 999.00 999.00 999.00 999.00 999.00 999.00 999.00 999.00 999.00 999.00 999.00 999.00 999.00 999.00 999.00 999.00 999.00 999.00 999.00 999.00 999.00 999.00 999.00 999.00 999.00 999.00 999.00 999.00 999.00 999.00 999.00 999.00 999.00 999.00 999.00 999.00 999.00 999.00 999.00 999.00 999.00 999.00 999.00 999.00 999.00 999.00 999.00 999.00 999.00 999.00 999.00 999.00 999.00 999.00 999.00 999.00 999.00 999.00 999.00 999.00 999.00 999.00 999.00 999.00 999.00 999.00 999.00 999.00 999.00 999.00 999.00 999.00 999.00 999.00 999.00 999.00 999.00 999.00 999.00 999.00 999.00 999.00 999.00 999.00 999.00 999.00 999.00 999.00 999.00 999.00 999.00 999.00 999.00 999.00 999.00 999.00 999.00 999.00 999.00 999.00 999.00 999.00 999.00 999.00 999.00 999.00 999.00 999.00 999.00 999.00 999.00 999.00 999.00 999.00 999.00 999.00 999.00 999.00 999.00 999.00 999.00 999.00 999.00 999.00 999.00 999.00 999.00 999.00 999.00 999.00 999.00 999.00 999.00 999.00 999.00 999.00 999.00 999.00 999.00 999.00 999.00 999.00 999.00 999.00 999.00 999.00 999.00 999.00 999.00 999.00 999.00 999.00 999.00 999.00 999.00 999.00 999.00 999.00 999.00 999.00 999.00 999.00 999.00 999.00 999.00 999.00 999.00 999.00 999.00 999.00 999.00 999.00 999.00 999.00 999.00 999.00 999.00 999.00 999.00 999.00 999.00 999.00 999.00 999.00 999.00 999.00 999.00 999.00 999.00 999.00 999.00 999.00 999.00 999.00 999.00 999.00 999.00
54.12 54.05 53.96 53.88 53.73 53.57 53.41 52.93 51.91 52.72 53.20 53.32 52.67 52.83 53.71 54.24 54.05 53.91 54.01 54.49 54.76 54.79 54.92 55.00 55.20 55.41 55.56 55.78 55.99 56.34 56.52 56.62 56.56 56.71 56.86 56.89 56.70 56.35 56.12 55.91 56.46 56.53 56.62 56.64 56.25 56.29 56.52 55.83 55.63 56.49 56.35 56.43 57.26 57.56 57.95 58.03 58.10 58.30 58.34 59.23 59.74 60.04 59.74 59.70 59.69 59.71 60.47 59.22 60.31 61.46 60.89 60.20 60.43 61.14 60.98 61.45 61.51 61.40 61.83 62.52 63.12 63.90 64.77 65.48 66.18 66.78 67.34 67.81 68.28 68.81 68.97 68.48 67.62 67.46 67.28 67.30 67.49 67.52 67.57 68.11 68.66 69.19 69.95 70.71 71.32 72.15 72.39 72.73 73.60 74.80 75.42 73.21 71.38 70.38 69.58 68.88 68.15 67.50 67.03 66.42 66.53 58.60 47.32 46.57 55.37 66.92 59.21 58.98 68.27 71.05 65.90 60.77 59.81 60.16 59.60 60.57 60.88 60.91 61.18 60.69 60.07 59.43 58.86 58.28 57.73 57.43 57.11 56.93 56.90 56.56 56.36 55.78 55.09 54.44 54.15 53.95 53.87 53.86 54.11 54.37 54.31 54.13 53.88 53.53 53.37 53.11 53.06 52.99 52.90 52.86 52.58 52.20 53.95 59.11 999.00 999.00 999.00 999.00 999.00 999.00 999.00 999.00 999.00 999.00 999.00 999.00 999.00 999.00 999.00 999.00 999.00 999.00 999.00 999.00 999.00 999.00 999.00 999.00 999.00 999.00 999.00 999.00 999.00 999.00 999.00 999.00 999.00 999.00 999.00 999.00 999.00 999.00 999.00 999.00 999.00 999.00 999.00 999.00 999.00 999.00 999.00 999.00 999.00 999.00 999.00 999.00 999.00 999.00 999.00 999.00 999.00 999.00 999.00 999.00 999.00 999.00 999.00 999.00 999.00 999.00 999.00 999.00 999.00 999.00 999.00 999.00 999.00 999.00 999.00 999.00 999.00 999.00 999.00 999.00 999.00 999.00 999.00 999.00 999.00 999.00 999.00 999.00 999.00 999.00 999.00 999.00 999.00 999.00 999.00 999.00 999.00 999.00 999.00 999.00 999.00 999.00 999.00 999.00 999.00 999.00 999.00 999.00 999.00 999.00 999.00 999.00 999.00 999.00 999.00 999.00 999.00 999.00 999.00 999.00 999.00 999.00 999.00 999.00 999.00 999.00 999.00 999.00 999.00 999.00 999.00 999.00 999.00 999.00 999.00 999.00 999.00 999.00 999.00 999.00 999.00 999.00 999.00 999.00 999.00 999.00 999.00 999.00 999.00 999.00 999.00 999.00 999.00 999.00 999.00 999.00 999.00 999.00 999.00 999.00 999.00 999.00 999.00 999.00 999.00 999.00 999.00 999.00 999.00 999.00 999.00 999.00 999.00 999.00 999.00 999.00 999.00 999.00 999.00 999.00 999.00 999.00 999.00 999.00 999.00 999.00 999.00 999.00 999.00 999.00 999.00 999.00 999.00 999.00 999.00 999.00 999.00 999.00 999.00 999.00 999.00 999.00 999.00 999.00 999.00 999.00 999.00 999.00 999.00 999.00 999.00 999.00 999.00 999.00 999.00 999.00 999.00 999.00 999.00 999.00 999.00 999.00 999.00 999.00 999.00 999.00
54.46 54.18 54.10 53.87 53.71 53.65 53.39 52.77 52.82 52.77 53.19 53.48 53.61 54.11 54.27 53.95 53.69 53.78 54.10 54.74 55.06 55.26 55.71 55.79 56.12 55.83 55.83 56.02 56.20 56.39 56.55 56.68 56.67 56.73 56.75 56.92 56.88 56.56 56.37 55.99 56.41 56.69 56.79 56.68 56.42 56.27 56.43 56.48 55.64 56.24 56.59 56.16 57.03 57.53 57.89 58.12 58.27 58.86 60.09 60.50 60.07 59.65 59.02 59.60 59.36 60.37 61.12 59.88 60.49 61.07 60.32 60.14 60.37 60.77 61.09 62.08 62.36 61.69 61.95 62.48 63.15 63.74 64.51 65.16 65.98 66.53 67.20 67.86 68.40 69.05 69.59 69.27 68.20 67.86 67.79 67.74 67.76 67.76 67.63 68.13 68.81 69.31 69.96 70.67 71.25 71.86 72.44 73.03 73.96 74.87 75.17 74.60 73.27 71.75 70.38 69.26 68.13 67.63 65.05 59.23 63.53 62.64 50.11 50.23 57.80 63.52 61.76 60.92 66.58 69.91 67.21 63.02 61.28 60.58 60.92 62.16 62.10 61.89 61.45 60.89 60.29 59.63 58.95 58.20 57.73 57.24 56.82 56.42 56.64 56.70 56.26 55.46 54.78 54.55 54.51 54.31 54.63 54.62 54.54 54.44 54.33 54.24 54.11 53.80 53.49 53.24 53.00 52.89 52.91 53.09 53.23 53.23 57.08 58.37 999.00 999.00 999.00 999.00 999.00 999.00 999.00 999.00 999.00 999.00 999.00 999.00 999.00 999.00 999.00 999.00 999.00 999.00 999.00 999.00 999.00 999.00 999.00 999.00 999.00 999.00 999.00 999.00 999.00 999.00 999.00 999.00 999.00 999.00 999.00 999.00 999.00 999.00 999.00 999.00 999.00 999.00 999.00 999.00 999.00 999.00 999.00 999.00 999.00 999.00 999.00 999.00 999.00 999.00 999.00 999.00 999.00 999.00 999.00 999.00 999.00 999.00 999.00 999.00 999.00 999.00 999.00 999.00 999.00 999.00 999.00 999.00 999.00 999.00 999.00 999.00 999.00 999.00 999.00 999.00 999.00 999.00 999.00 999.00 999.00 999.00 999.00 999.00 999.00 999.00 999.00 999.00 999.00 999.00 999.00 999.00 999.00 999.00 999.00 999.00 999.00 999.00 999.00 999.00 999.00 999.00 999.00 999.00 999.00 999.00 999.00 999.00 999.00 999.00 999.00 999.00 999.00 999.00 999.00 999.00 999.00 999.00 999.00 999.00 999.00 999.00 999.00 999.00 999.00 999.00 999.00 999.00 999.00 999.00 999.00 999.00 999.00 999.00 999.00 999.00 999.00 999.00 999.00 999.00 999.00 999.00 999.00 999.00 999.00 999.00 999.00 999.00 999.00 999.00 999.00 999.00 999.00 999.00 999.00 999.00 999.00 999.00 999.00 999.00 999.00 999.00 999.00 999.00 999.00 999.00 999.00 999.00 999.00 999.00 999.00 999.00 999.00 999.00 999.00 999.00 999.00 999.00 999.00 999.00 999.00 999.00 999.00 999.00 999.00 999.00 999.00 999.00 999.00 999.00 999.00 999.00 999.00 999.00 999.00 999.00 999.00 999.00 999.00 999.00 999.00 999.00 999.00 999.00 999.00 999.00 999.00 999.00 999.00 999.00 999.00 999.00 999.00 999.00 999.00 999.00 999.00 999.00 999.00 999.00 999.00 999.00
54.61 54.40 54.27 54.00 53.85 53.52 53.11 53.17 53.13 53.05 53.26 53.56 54.09 54.01 53.70 53.64 53.65 53.88 54.32 54.81 54.97 55.42 56.12 56.36 56.51 56.09 55.95 56.03 56.27 56.52 56.75 56.89 56.84 56.86 56.93 57.06 57.05 56.74 56.59 56.27 56.31 56.84 56.88 56.83 56.72 56.50 56.62 56.65 56.06 55.53 56.31 56.15 56.69 57.45 57.65 57.99 58.25 59.26 60.47 60.33 59.07 59.90 59.60 59.74 59.71 59.68 60.19 59.75 60.70 61.18 60.73 60.74 60.67 61.78 62.03 61.55 61.85 61.94 62.40 62.87 63.20 63.67 64.34 64.98 65.60 66.30 67.09 67.79 68.38 69.09 69.54 69.61 69.25 68.63 68.45 68.44 68.39 68.19 67.92 68.10 68.74 69.37 69.96 70.62 71.21 71.85 72.43 73.17 73.88 74.98 76.27 75.84 74.14 71.96 70.81 69.29 68.29 66.71 58.38 53.71 56.38 61.51 58.34 59.21 61.11 61.06 63.64 64.80 65.96 65.89 64.05 64.01 61.79 60.91 61.80 62.86 62.74 62.39 61.71 61.00 60.39 59.81 59.24 58.50 58.05 57.45 56.51 56.06 56.04 56.03 55.44 54.93 54.88 55.29 55.26 55.01 55.28 55.21 54.99 54.70 54.61 54.68 54.59 54.17 53.60 53.25 53.11 53.10 53.11 53.41 53.50 55.01 59.18 57.05 999.00 999.00 999.00 999.00 999.00 999.00 999.00 999.00 999.00 999.00 999.00 999.00 999.00 999.00 999.00 999.00 999.00 999.00 999.00 999.00 999.00 999.00 999.00 999.00 999.00 999.00 999.00 999.00 999.00 999.00 999.00 999.00 999.00 999.00 999.00 999.00 999.00 999.00 999.00 999.00 999.00 999.00 999.00 999.00 999.00 999.00 999.00 999.00 999.00 999.00 999.00 999.00 999.00 999.00 999.00 999.00 999.00 999.00 999.00 999.00 999.00 999.00 999.00 999.00 999.00 999.00 999.00 999.00 999.00 999.00 999.00 999.00 999.00 999.00 999.00 999.00 999.00 999.00 999.00 999.00 999.00 999.00 999.00 999.00 999.00 999.00 999.00 999.00 999.00 999.00 999.00 999.00 999.00 999.00 999.00 999.00 999.00 999.00 999.00 999.00 999.00 999.00 999.00 999.00 999.00 999.00 999.00 999.00 999.00 999.00 999.00 999.00 999.00 999.00 999.00 999.00 999.00 999.00 999.00 999.00 999.00 999.00 999.00 999.00 999.00 999.00 999.00 999.00 999.00 999.00 999.00 999.00 999.00 999.00 999.00 999.00 999.00 999.00 999.00 999.00 999.00 999.00 999.00 999.00 999.00 999.00 999.00 999.00 999.00 999.00 999.00 999.00 999.00 999.00 999.00 999.00 999.00 999.00 999.00 999.00 999.00 999.00 999.00 999.00 999.00 999.00 999.00 999.00 999.00 999.00 999.00 999.00 999.00 999.00 999.00 999.00 999.00 999.00 999.00 999.00 999.00 999.00 999.00 999.00 999.00 999.00 999.00 999.00 999.00 999.00 999.00 999.00 999.00 999.00 999.00 999.00 999.00 999.00 999.00 999.00 999.00 999.00 999.00 999.00 999.00 999.00 999.00 999.00 999.00 999.00 999.00 999.00 999.00 999.00 999.00 999.00 999.00 999.00 999.00 999.00 999.00 999.00 999.00 999.00 999.00 999.00
54.73 54.62 54.37 54.25 53.78 53.40 53.49 53.16 53.09 53.38 53.79 53.94 53.90 53.70 53.55 53.48 53.57 54.00 54.41 54.96 54.91 55.16 55.69 56.41 56.59 56.33 56.26 56.03 56.19 56.60 56.91 57.05 57.10 57.11 57.20 57.22 57.22 56.99 56.90 56.49 56.50 56.96 57.06 57.32 57.01 56.70 56.99 56.92 56.01 55.68 56.35 56.42 56.55 57.38 57.49 57.72 58.07 58.68 58.97 59.19 59.37 59.69 59.48 59.83 59.48 59.00 59.25 59.54 60.66 61.24 61.11 60.88 60.75 62.17 62.34 61.53 61.63 61.86 62.52 63.02 63.42 63.97 64.52 65.08 65.61 66.30 67.01 67.69 68.24 68.93 69.24 69.37 69.92 70.13 69.82 69.35 69.16 68.85 68.48 68.46 68.84 69.31 69.92 70.56 71.42 72.15 72.70 73.29 73.92 74.74 75.43 74.55 72.78 70.99 70.02 69.14 68.68 67.03 56.70 51.40 55.00 54.54 52.32 58.28 57.67 58.99 61.33 64.66 63.78 62.79 61.68 62.32 63.91 63.01 63.12 63.36 63.45 62.95 62.29 61.40 60.29 59.61 59.38 58.69 58.10 57.29 56.50 56.12 55.84 55.63 55.35 55.54 55.69 55.84 55.68 55.58 55.64 55.55 55.38 55.06 54.96 54.90 54.64 54.19 53.80 53.48 53.44 53.36 53.14 53.29 53.65 57.47 58.40 999.00 999.00 999.00 999.00 999.00 999.00 999.00 999.00 999.00 999.00 999.00 999.00 999.00 999.00 999.00 999.00 999.00 999.00 999.00 999.00 999.00 999.00 999.00 999.00 999.00 999.00 999.00 999.00 999.00 999.00 999.00 999.00 999.00 999.00 999.00 999.00 999.00 999.00 999.00 999.00 999.00 999.00 999.00 999.00 999.00 999.00 999.00 999.00 999.00 999.00 999.00 999.00 999.00 999.00 999.00 999.00 999.00 999.00 999.00 999.00 999.00 999.00 999.00 999.00 999.00 999.00 999.00 999.00 999.00 999.00 999.00 999.00 999.00 999.00 999.00 999.00 999.00 999.00 999.00 999.00 999.00 999.00 999.00 999.00 999.00 999.00 999.00 999.00 999.00 999.00 999.00 999.00 999.00 999.00 999.00 999.00 999.00 999.00 999.00 999.00 999.00 999.00 999.00 999.00 999.00 999.00 999.00 999.00 999.00 999.00 999.00 999.00 999.00 999.00 999.00 999.00 999.00 999.00 999.00 999.00 999.00 999.00 999.00 999.00 999.00 999.00 999.00 999.00 999.00 999.00 999.00 999.00 999.00 999.00 999.00 999.00 999.00 999.00 999.00 999.00 999.00 999.00 999.00 999.00 999.00 999.00 999.00 999.00 999.00 999.00 999.00 999.00 999.00 999.00 999.00 999.00 999.00 999.00 999.00 999.00 999.00 999.00 999.00 999.00 999.00 999.00 999.00 999.00 999.00 999.00 999.00 999.00 999.00 999.00 999.00 999.00 999.00 999.00 999.00 999.00 999.00 999.00 999.00 999.00 999.00 999.00 999.00 999.00 999.00 999.00 999.00 999.00 999.00 999.00 999.00 999.00 999.00 999.00 999.00 999.00 999.00 999.00 999.00 999.00 999.00 999.00 999.00 999.00 999.00 999.00 999.00 999.00 999.00 999.00 999.00 999.00 999.00 999.00 999.00 999.00 999.00 999.00 999.00 999.00 999.00 999.00 999.00
54.94 54.83 54.55 54.36 53.68 53.59 53.41 53.26 53.51 53.77 53.87 53.85 53.69 53.59 53.72 53.41 53.81 54.28 54.69 54.98 54.88 54.89 55.20 56.11 56.61 56.67 56.67 56.44 56.28 56.63 56.94 57.15 57.29 57.25 57.24 57.41 57.38 57.15 57.05 56.73 56.62 57.05 57.23 57.46 57.05 56.85 56.79 56.72 56.38 56.59 56.91 56.75 56.25 56.89 57.60 57.88 58.21 58.61 58.87 58.68 59.11 59.14 59.09 59.14 59.31 59.16 58.98 59.37 60.19 60.78 60.49 60.70 61.09 61.66 61.30 61.15 61.33 61.85 62.52 63.02 63.47 64.03 64.51 64.92 65.46 66.21 66.66 67.12 67.64 68.17 68.77 69.25 69.98 70.78 70.89 70.39 70.10 69.67 69.02 68.91 68.93 69.23 69.97 70.47 71.39 72.19 72.69 73.32 73.92 74.03 73.68 72.95 71.90 70.43 69.64 68.85 68.47 67.87 65.73 62.30 57.58 50.94 57.03 59.84 56.20 57.41 60.60 62.99 62.08 62.04 61.88 61.74 63.79 64.90 64.28 64.17 64.06 63.53 62.84 61.96 60.93 60.39 59.82 58.79 57.96 57.13 56.64 56.47 56.25 56.11 56.07 56.13 56.19 56.20 56.02 56.02 56.01 55.89 55.67 55.33 55.10 55.00 54.88 54.59 54.13 53.76 53.53 53.46 53.33 53.36 55.09 59.08 56.98 999.00 999.00 999.00 999.00 999.00 999.00 999.00 999.00 999.00 999.00 999.00 999.00 999.00 999.00 999.00 999.00 999.00 999.00 999.00 999.00 999.00 999.00 999.00 999.00 999.00 999.00 999.00 999.00 999.00 999.00 999.00 999.00 999.00 999.00 999.00 999.00 999.00 999.00 999.00 999.00 999.00 999.00 999.00 999.00 999.00 999.00 999.00 999.00 999.00 999.00 999.00 999.00 999.00 999.00 999.00 999.00 999.00 999.00 999.00 999.00 999.00 999.00 999.00 999.00 999.00 999.00 999.00 999.00 999.00 999.00 999.00 999.00 999.00 999.00 999.00 999.00 999.00 999.00 999.00 999.00 999.00 999.00 999.00 999.00 999.00 999.00 999.00 999.00 999.00 999.00 999.00 999.00 999.00 999.00 999.00 999.00 999.00 999.00 999.00 999.00 999.00 999.00 999.00 999.00 999.00 999.00 999.00 999.00 999.00 999.00 999.00 999.00 999.00 999.00 999.00 999.00 999.00 999.00 999.00 999.00 999.00 999.00 999.00 999.00 999.00 999.00 999.00 999.00 999.00 999.00 999.00 999.00 999.00 999.00 999.00 999.00 999.00 999.00 999.00 999.00 999.00 999.00 999.00 999.00 999.00 999.00 999.00 999.00 999.00 999.00 999.00 999.00 999.00 999.00 999.00 999.00 999.00 999.00 999.00 999.00 999.00 999.00 999.00 999.00 999.00 999.00 999.00 999.00 999.00 999.00 999.00 999.00 999.00 999.00 999.00 999.00 999.00 999.00 999.00 999.00 999.00 999.00 999.00 999.00 999.00 999.00 999.00 999.00 999.00 999.00 999.00 999.00 999.00 999.00 999.00 999.00 999.00 999.00 999.00 999.00 999.00 999.00 999.00 999.00 999.00 999.00 999.00 999.00 999.00 999.00 999.00 999.00 999.00 999.00 999.00 999.00 999.00 999.00 999.00 999.00 999.00 999.00 999.00 999.00 999.00 999.00 999.00
54.92 54.82 54.53 54.13 53.38 53.48 53.53 53.62 53.83 53.86 53.81 53.64 53.77 53.63 53.76 53.56 53.73 54.26 54.69 54.89 54.88 55.01 55.31 55.91 56.30 56.84 56.94 56.66 56.56 56.68 57.03 57.28 57.46 57.39 57.34 57.48 57.40 57.30 57.14 56.66 56.83 57.16 57.38 57.42 56.88 56.52 56.73 56.44 56.66 57.18 57.38 57.30 56.92 56.70 57.13 57.84 58.37 58.61 58.78 58.98 59.82 59.38 59.30 59.27 59.42 59.30 59.21 59.59 60.07 60.93 61.27 61.06 61.34 61.63 61.00 60.99 61.30 61.70 62.19 62.58 63.10 63.77 64.31 64.72 65.33 65.99 66.48 66.90 67.31 67.73 68.45 69.09 69.77 70.91 71.45 71.51 71.04 70.88 69.91 69.50 69.26 69.40 69.95 70.43 71.38 72.10 72.66 73.25 73.52 73.31 72.68 71.49 71.62 70.31 69.67 68.99 68.64 66.85 66.04 63.81 61.65 60.63 63.43 62.83 61.36 61.27 62.40 62.81 63.27 64.11 64.55 64.27 63.95 66.29 66.43 65.52 65.40 64.70 63.68 62.82 61.80 60.89 60.09 59.21 58.48 58.10 57.16 56.66 56.62 56.80 56.78 56.57 56.60 56.53 56.42 56.43 56.39 56.27 55.95 55.75 55.41 55.23 55.18 55.02 54.52 54.07 53.77 53.60 53.48 53.78 57.48 58.53 56.58 999.00 999.00 999.00 999.00 999.00 999.00 999.00 999.00 999.00 999.00 999.00 999.00 999.00 999.00 999.00 999.00 999.00 999.00 999.00 999.00 999.00 999.00 999.00 999.00 999.00 999.00 999.00 999.00 999.00 999.00 999.00 999.00 999.00 999.00 999.00 999.00 999.00 999.00 999.00 999.00 999.00 999.00 999.00 999.00 999.00 999.00 999.00 999.00 999.00 999.00 999.00 999.00 999.00 999.00 999.00 999.00 999.00 999.00 999.00 999.00 999.00 999.00 999.00 999.00 999.00 999.00 999.00 999.00 999.00 999.00 999.00 999.00 999.00 999.00 999.00 999.00 999.00 999.00 999.00 999.00 999.00 999.00 999.00 999.00 999.00 999.00 999.00 999.00 999.00 999.00 999.00 999.00 999.00 999.00 999.00 999.00 999.00 999.00 999.00 999.00 999.00 999.00 999.00 999.00 999.00 999.00 999.00 999.00 999.00 999.00 999.00 999.00 999.00 999.00 999.00 999.00 999.00 999.00 999.00 999.00 999.00 999.00 999.00 999.00 999.00 999.00 999.00 999.00 999.00 999.00 999.00 999.00 999.00 999.00 999.00 999.00 999.00 999.00 999.00 999.00 999.00 999.00 999.00 999.00 999.00 999.00 999.00 999.00 999.00 999.00 999.00 999.00 999.00 999.00 999.00 999.00 999.00 999.00 999.00 999.00 999.00 999.00 999.00 999.00 999.00 999.00 999.00 999.00 999.00 999.00 999.00 999.00 999.00 999.00 999.00 999.00 999.00 999.00 999.00 999.00 999.00 999.00 999.00 999.00 999.00 999.00 999.00 999.00 999.00 999.00 999.00 999.00 999.00 999.00 999.00 999.00 999.00 999.00 999.00 999.00 999.00 999.00 999.00 999.00 999.00 999.00 999.00 999.00 999.00 999.00 999.00 999.00 999.00 999.00 999.00 999.00 999.00 999.00 999.00 999.00 999.00 999.00 999.00 999.00 999.00 999.00 999.00
54.95 54.60 54.36 53.73 53.27 53.55 53.69 53.77 53.64 53.54 53.63 53.82 53.97 53.86 53.87 53.87 54.05 54.36 54.49 54.75 54.81 55.05 55.30 55.82 56.07 56.68 57.13 56.80 56.91 57.08 57.38 57.53 57.67 57.72 57.52 57.58 57.54 57.38 57.35 56.78 56.99 56.97 57.25 57.27 56.93 56.69 57.12 56.81 56.83 57.59 57.61 57.55 57.21 56.85 56.48 57.64 58.28 58.74 58.65 59.02 60.13 59.81 59.98 59.62 59.56 59.55 59.68 60.09 59.91 60.13 61.99 61.40 61.17 61.19 61.08 61.11 61.32 61.53 61.90 62.53 63.05 63.62 64.16 64.60 65.62 66.49 67.08 67.59 67.98 68.17 68.52 68.98 69.59 70.64 71.22 71.70 72.40 72.40 71.22 69.97 69.50 69.48 69.92 70.46 71.27 71.91 72.58 73.05 73.07 72.67 72.23 71.61 71.58 70.27 69.48 69.04 68.29 66.14 64.90 62.37 62.14 63.87 65.59 66.73 66.81 65.55 66.21 65.62 65.11 64.74 67.42 66.84 65.95 67.27 68.06 67.48 67.22 66.12 65.10 63.66 62.61 61.49 60.46 59.59 59.00 58.62 57.91 57.13 57.00 57.07 57.10 56.89 56.85 56.75 56.95 57.09 56.84 56.60 56.21 56.18 55.96 55.57 55.30 55.35 54.98 54.40 54.04 53.81 54.03 55.27 59.03 57.08 999.00 999.00 999.00 999.00 999.00 999.00 999.00 999.00 999.00 999.00 999.00 999.00 999.00 999.00 999.00 999.00 999.00 999.00 999.00 999.00 999.00 999.00 999.00 999.00 999.00 999.00 999.00 999.00 999.00 999.00 999.00 999.00 999.00 999.00 999.00 999.00 999.00 999.00 999.00 999.00 999.00 999.00 999.00 999.00 999.00 999.00 999.00 999.00 999.00 999.00 999.00 999.00 999.00 999.00 999.00 999.00 999.00 999.00 999.00 999.00 999.00 999.00 999.00 999.00 999.00 999.00 999.00 999.00 999.00 999.00 999.00 999.00 999.00 999.00 999.00 999.00 999.00 999.00 999.00 999.00 999.00 999.00 999.00 999.00 999.00 999.00 999.00 999.00 999.00 999.00 999.00 999.00 999.00 999.00 999.00 999.00 999.00 999.00 999.00 999.00 999.00 999.00 999.00 999.00 999.00 999.00 999.00 999.00 999.00 999.00 999.00 999.00 999.00 999.00 999.00 999.00 999.00 999.00 999.00 999.00 999.00 999.00 999.00 999.00 999.00 999.00 999.00 999.00 999.00 999.00 999.00 999.00 999.00 999.00 999.00 999.00 999.00 999.00 999.00 999.00 999.00 999.00 999.00 999.00 999.00 999.00 999.00 999.00 999.00 999.00 999.00 999.00 999.00 999.00 999.00 999.00 999.00 999.00 999.00 999.00 999.00 999.00 999.00 999.00 999.00 999.00 999.00 999.00 999.00 999.00 999.00 999.00 999.00 999.00 999.00 999.00 999.00 999.00 999.00 999.00 999.00 999.00 999.00 999.00 999.00 999.00 999.00 999.00 999.00 999.00 999.00 999.00 999.00 999.00 999.00 999.00 999.00 999.00 999.00 999.00 999.00 999.00 999.00 999.00 999.00 999.00 999.00 999.00 999.00 999.00 999.00 999.00 999.00 999.00 999.00 999.00 999.00 999.00 999.00 999.00 999.00 999.00 999.00 999.00 999.00 999.00 999.00 999.00
54.66 54.23 53.92 53.49 53.42 53.84 53.95 53.49 53.40 53.47 53.59 54.05 54.13 54.10 54.18 54.26 53.75 53.53 54.25 54.57 54.69 55.18 55.36 56.17 56.63 57.09 57.15 56.87 56.87 57.05 57.32 57.69 57.84 57.82 57.75 57.67 57.64 57.61 57.53 57.07 57.17 56.95 57.30 57.47 57.46 57.17 57.52 57.55 56.83 57.62 58.22 57.92 57.59 57.72 56.87 57.60 58.04 58.51 58.28 58.97 60.11 59.90 59.89 60.30 60.18 60.03 59.82 60.61 60.24 60.42 61.75 61.65 61.42 60.88 60.87 61.29 61.61 62.05 62.34 62.79 63.11 63.45 64.00 64.63 65.59 66.36 67.03 67.82 68.27 68.59 68.73 69.36 69.98 70.65 71.18 71.44 72.47 72.74 71.61 70.18 69.82 69.81 70.02 70.45 71.07 71.74 72.27 72.82 73.05 72.58 72.20 72.22 71.47 70.06 69.42 68.96 67.79 67.21 65.69 63.78 63.93 65.61 67.46 69.24 69.60 67.46 68.05 69.54 69.18 66.13 69.69 68.77 67.87 68.01 68.91 70.79 70.90 68.52 67.16 65.20 63.40 62.18 61.15 60.14 59.59 59.16 58.58 57.61 57.47 57.52 57.71 57.47 57.39 57.13 57.39 57.68 57.30 56.90 56.50 56.51 56.31 56.04 55.64 55.62 55.36 54.75 54.28 54.08 54.55 57.56 58.53 56.55 999.00 999.00 999.00 999.00 999.00 999.00 999.00 999.00 999.00 999.00 999.00 999.00 999.00 999.00 999.00 999.00 999.00 999.00 999.00 999.00 999.00 999.00 999.00 999.00 999.00 999.00 999.00 999.00 999.00 999.00 999.00 999.00 999.00 999.00 999.00 999.00 999.00 999.00 999.00 999.00 999.00 999.00 999.00 999.00 999.00 999.00 999.00 999.00 999.00 999.00 999.00 999.00 999.00 999.00 999.00 999.00 999.00 999.00 999.00 999.00 999.00 999.00 999.00 999.00 999.00 999.00 999.00 999.00 999.00 999.00 999.00 999.00 999.00 999.00 999.00 999.00 999.00 999.00 999.00 999.00 999.00 999.00 999.00 999.00 999.00 999.00 999.00 999.00 999.00 999.00 999.00 999.00 999.00 999.00 999.00 999.00 999.00 999.00 999.00 999.00 999.00 999.00 999.00 999.00 999.00 999.00 999.00 999.00 999.00 999.00 999.00 999.00 999.00 999.00 999.00 999.00 999.00 999.00 999.00 999.00 999.00 999.00 999.00 999.00 999.00 999.00 999.00 999.00 999.00 999.00 999.00 999.00 999.00 999.00 999.00 999.00 999.00 999.00 999.00 999.00 999.00 999.00 999.00 999.00 999.00 999.00 999.00 999.00 999.00 999.00 999.00 999.00 999.00 999.00 999.00 999.00 999.00 999.00 999.00 999.00 999.00 999.00 999.00 999.00 999.00 999.00 999.00 999.00 999.00 999.00 999.00 999.00 999.00 999.00 999.00 999.00 999.00 999.00 999.00 999.00 999.00 999.00 999.00 999.00 999.00 999.00 999.00 999.00 999.00 999.00 999.00 999.00 999.00 999.00 999.00 999.00 999.00 999.00 999.00 999.00 999.00 999.00 999.00 999.00 999.00 999.00 999.00 999.00 999.00 999.00 999.00 999.00 999.00 999.00 999.00 999.00 999.00 999.00 999.00 999.00 999.00 999.00 999.00 999.00 999.00 999.00 999.00 999.00
54.38 54.17 53.98 54.28 53.66 53.65 53.82 53.56 53.63 53.91 53.89 54.00 54.48 54.45 54.61 54.58 53.96 53.33 54.32 54.54 54.73 55.32 55.69 56.18 56.92 57.35 57.26 57.13 57.10 57.21 57.41 57.70 57.84 58.01 57.87 57.86 57.95 58.01 57.58 57.29 57.25 57.12 57.39 57.67 57.54 57.29 56.97 57.27 56.92 57.28 58.18 58.26 57.93 57.99 57.22 57.55 58.27 58.76 58.79 59.77 60.66 60.31 59.90 60.35 60.23 60.25 60.11 60.99 60.41 60.21 60.66 61.64 61.46 60.51 60.87 61.20 61.36 61.74 62.02 62.53 62.91 63.44 64.05 64.74 65.48 66.18 66.91 67.74 68.26 68.85 69.22 69.73 70.37 70.95 71.07 71.02 71.39 72.08 71.73 70.56 70.19 70.21 70.28 70.59 71.12 71.48 71.96 72.56 72.79 72.63 72.04 71.33 70.42 69.68 69.41 68.89 67.75 67.15 67.20 67.15 66.76 67.36 68.03 69.22 70.39 69.25 68.23 71.17 73.13 72.63 74.45 71.11 70.17 70.39 70.05 72.04 74.41 71.21 68.31 67.40 64.40 62.64 61.81 61.06 60.44 59.96 59.51 58.57 58.04 58.16 58.22 58.08 57.83 57.49 57.65 57.74 57.58 57.10 56.70 56.58 56.53 56.46 55.96 55.60 55.44 54.95 54.64 54.64 55.47 59.05 57.14 56.50 999.00 999.00 999.00 999.00 999.00 999.00 999.00 999.00 999.00 999.00 999.00 999.00 999.00 999.00 999.00 999.00 999.00 999.00 999.00 999.00 999.00 999.00 999.00 999.00 999.00 999.00 999.00 999.00 999.00 999.00 999.00 999.00 999.00 999.00 999.00 999.00 999.00 999.00 999.00 999.00 999.00 999.00 999.00 999.00 999.00 999.00 999.00 999.00 999.00 999.00 999.00 999.00 999.00 999.00 999.00 999.00 999.00 999.00 999.00 999.00 999.00 999.00 999.00 999.00 999.00 999.00 999.00 999.00 999.00 999.00 999.00 999.00 999.00 999.00 999.00 999.00 999.00 999.00 999.00 999.00 999.00 999.00 999.00 999.00 999.00 999.00 999.00 999.00 999.00 999.00 999.00 999.00 999.00 999.00 999.00 999.00 999.00 999.00 999.00 999.00 999.00 999.00 999.00 999.00 999.00 999.00 999.00 999.00 999.00 999.00 999.00 999.00 999.00 999.00 999.00 999.00 999.00 999.00 999.00 999.00 999.00 999.00 999.00 999.00 999.00 999.00 999.00 999.00 999.00 999.00 999.00 999.00 999.00 999.00 999.00 999.00 999.00 999.00 999.00 999.00 999.00 999.00 999.00 999.00 999.00 999.00 999.00 999.00 999.00 999.00 999.00 999.00 999.00 999.00 999.00 999.00 999.00 999.00 999.00 999.00 999.00 999.00 999.00 999.00 999.00 999.00 999.00 999.00 999.00 999.00 999.00 999.00 999.00 999.00 999.00 999.00 999.00 999.00 999.00 999.00 999.00 999.00 999.00 999.00 999.00 999.00 999.00 999.00 999.00 999.00 999.00 999.00 999.00 999.00 999.00 999.00 999.00 999.00 999.00 999.00 999.00 999.00 999.00 999.00 999.00 999.00 999.00 999.00 999.00 999.00 999.00 999.00 999.00 999.00 999.00 999.00 999.00 999.00 999.00 999.00 999.00 999.00 999.00 999.00 999.00 999.00 999.00 999.00
54.69 54.36 54.58 54.06 53.97 54.15 54.12 54.11 54.01 52.54 54.02 54.18 54.52 54.67 54.87 54.68 54.42 53.99 54.56 54.79 55.14 55.34 56.16 56.69 57.10 57.49 57.65 57.47 57.45 57.51 57.66 57.89 57.93 58.27 58.12 58.09 58.14 58.03 57.58 57.33 57.27 57.14 57.37 57.53 57.61 57.59 57.06 57.44 57.50 57.81 57.91 58.27 58.36 58.55 57.84 57.69 58.31 58.81 59.76 60.51 60.96 59.98 59.85 61.17 61.43 60.50 60.98 61.47 60.54 60.47 60.76 61.71 61.76 61.31 60.98 61.19 61.50 61.73 62.01 62.39 62.76 63.30 64.04 64.73 65.36 65.97 66.49 67.28 67.92 68.62 69.29 69.91 70.54 71.11 71.08 70.40 70.28 70.69 71.04 70.87 70.42 70.06 70.07 70.42 70.97 71.34 71.83 72.19 72.30 72.19 71.69 71.38 70.37 69.63 69.54 68.84 67.93 68.04 68.09 67.55 67.28 67.87 68.21 68.99 70.01 70.62 69.43 71.28 74.24 76.65 76.83 73.22 73.02 74.89 73.53 72.79 75.89 74.72 71.10 70.12 66.28 63.61 62.83 61.99 61.39 60.73 60.15 59.08 58.45 58.60 58.68 58.23 57.98 57.81 58.10 58.04 57.66 57.30 57.06 56.95 56.95 56.84 56.39 55.91 55.59 55.28 55.22 55.43 57.45 58.53 56.54 999.00 999.00 999.00 999.00 999.00 999.00 999.00 999.00 999.00 999.00 999.00 999.00 999.00 999.00 999.00 999.00 999.00 999.00 999.00 999.00 999.00 999.00 999.00 999.00 999.00 999.00 999.00 999.00 999.00 999.00 999.00 999.00 999.00 999.00 999.00 999.00 999.00 999.00 999.00 999.00 999.00 999.00 999.00 999.00 999.00 999.00 999.00 999.00 999.00 999.00 999.00 999.00 999.00 999.00 999.00 999.00 999.00 999.00 999.00 999.00 999.00 999.00 999.00 999.00 999.00 999.00 999.00 999.00 999.00 999.00 999.00 999.00 999.00 999.00 999.00 999.00 999.00 999.00 999.00 999.00 999.00 999.00 999.00 999.00 999.00 999.00 999.00 999.00 999.00 999.00 999.00 999.00 999.00 999.00 999.00 999.00 999.00 999.00 999.00 999.00 999.00 999.00 999.00 999.00 999.00 999.00 999.00 999.00 999.00 999.00 999.00 999.00 999.00 999.00 999.00 999.00 999.00 999.00 999.00 999.00 999.00 999.00 999.00 999.00 999.00 999.00 999.00 999.00 999.00 999.00 999.00 999.00 999.00 999.00 999.00 999.00 999.00 999.00 999.00 999.00 999.00 999.00 999.00 999.00 999.00 999.00 999.00 999.00 999.00 999.00 999.00 999.00 999.00 999.00 999.00 999.00 999.00 999.00 999.00 999.00 999.00 999.00 999.00 999.00 999.00 999.00 999.00 999.00 999.00 999.00 999.00 999.00 999.00 999.00 999.00 999.00 999.00 999.00 999.00 999.00 999.00 999.00 999.00 999.00 999.00 999.00 999.00 999.00 999.00 999.00 999.00 999.00 999.00 999.00 999.00 999.00 999.00 999.00 999.00 999.00 999.00 999.00 999.00 999.00 999.00 999.00 999.00 999.00 999.00 999.00 999.00 999.00 999.00 999.00 999.00 999.00 999.00 999.00 999.00 999.00 999.00 999.00 999.00 999.00 999.00 999.00 999.00 999.00 999.00
54.83 54.81 54.22 53.56 53.86 54.54 54.30 54.42 54.04 53.78 54.24 54.34 54.62 54.73 55.02 55.11 54.98 54.66 54.72 54.93 55.26 55.55 56.30 57.13 57.22 57.65 57.89 57.92 57.83 57.91 58.02 58.13 58.03 58.30 58.23 58.27 58.21 58.11 57.88 57.48 57.41 57.47 57.52 57.51 57.76 57.57 56.92 57.44 57.91 58.39 58.32 58.16 58.60 59.31 58.55 57.80 57.82 58.85 59.64 59.33 59.49 59.46 59.66 59.95 60.93 60.60 60.83 61.23 60.59 60.31 60.70 62.38 64.05 62.08 61.16 61.21 61.58 61.96 62.27 62.54 62.97 63.36 64.07 64.67 65.15 65.54 65.91 66.57 67.23 68.02 69.08 69.71 70.41 71.01 71.21 70.14 69.62 69.67 70.17 70.29 70.18 69.80 69.76 70.23 70.58 70.99 71.45 71.81 71.75 71.60 71.26 71.03 70.38 69.33 68.89 68.51 68.34 68.61 68.32 68.11 67.73 68.30 68.89 69.24 69.93 70.70 70.68 71.42 73.41 75.64 77.21 76.45 76.30 77.92 78.51 76.06 76.34 77.23 73.07 69.95 67.32 64.56 63.36 62.54 61.91 61.25 60.44 59.39 58.85 59.02 58.82 58.22 58.18 58.02 58.57 58.65 58.12 57.77 57.60 57.68 57.56 57.35 56.82 56.42 56.20 55.89 56.08 56.29 59.14 57.08 56.50 999.00 999.00 999.00 999.00 999.00 999.00 999.00 999.00 999.00 999.00 999.00 999.00 999.00 999.00 999.00 999.00 999.00 999.00 999.00 999.00 999.00 999.00 999.00 999.00 999.00 999.00 999.00 999.00 999.00 999.00 999.00 999.00 999.00 999.00 999.00 999.00 999.00 999.00 999.00 999.00 999.00 999.00 999.00 999.00 999.00 999.00 999.00 999.00 999.00 999.00 999.00 999.00 999.00 999.00 999.00 999.00 999.00 999.00 999.00 999.00 999.00 999.00 999.00 999.00 999.00 999.00 999.00 999.00 999.00 999.00 999.00 999.00 999.00 999.00 999.00 999.00 999.00 999.00 999.00 999.00 999.00 999.00 999.00 999.00 999.00 999.00 999.00 999.00 999.00 999.00 999.00 999.00 999.00 999.00 999.00 999.00 999.00 999.00 999.00 999.00 999.00 999.00 999.00 999.00 999.00 999.00 999.00 999.00 999.00 999.00 999.00 999.00 999.00 999.00 999.00 999.00 999.00 999.00 999.00 999.00 999.00 999.00 999.00 999.00 999.00 999.00 999.00 999.00 999.00 999.00 999.00 999.00 999.00 999.00 999.00 999.00 999.00 999.00 999.00 999.00 999.00 999.00 999.00 999.00 999.00 999.00 999.00 999.00 999.00 999.00 999.00 999.00 999.00 999.00 999.00 999.00 999.00 999.00 999.00 999.00 999.00 999.00 999.00 999.00 999.00 999.00 999.00 999.00 999.00 999.00 999.00 999.00 999.00 999.00 999.00 999.00 999.00 999.00 999.00 999.00 999.00 999.00 999.00 999.00 999.00 999.00 999.00 999.00 999.00 999.00 999.00 999.00 999.00 999.00 999.00 999.00 999.00 999.00 999.00 999.00 999.00 999.00 999.00 999.00 999.00 999.00 999.00 999.00 999.00 999.00 999.00 999.00 999.00 999.00 999.00 999.00 999.00 999.00 999.00 999.00 999.00 999.00 999.00 999.00 999.00 999.00 999.00 999.00 999.00
54.85 54.43 54.26 54.43 54.02 54.55 54.31 54.64 54.09 54.54 54.33 54.52 54.87 54.81 55.12 55.34 55.10 55.10 54.85 54.76 55.59 55.74 56.81 57.39 57.54 57.78 57.92 58.02 58.03 58.10 58.11 58.06 57.94 58.05 58.08 58.35 58.34 58.16 57.85 57.70 57.70 57.76 57.70 57.60 57.87 57.72 57.14 57.07 57.97 58.40 58.68 58.52 58.83 59.18 59.22 58.28 57.10 58.34 59.80 59.45 59.37 59.88 60.83 60.50 61.85 61.46 61.00 60.38 60.21 60.18 60.17 60.65 61.01 61.07 61.18 61.47 61.66 62.04 62.15 62.39 62.83 63.27 64.20 64.65 64.72 65.07 65.55 66.15 66.73 67.57 68.54 69.48 70.44 70.91 71.09 70.12 69.27 69.09 69.65 69.95 69.94 69.63 69.48 69.77 70.06 70.49 70.88 71.28 71.38 71.25 71.00 70.71 70.00 69.37 68.90 68.53 68.41 68.44 68.61 68.51 68.46 68.68 69.67 70.06 70.31 70.90 71.45 72.11 72.90 74.64 76.74 77.91 78.85 78.90 81.93 81.33 78.35 74.91 71.74 68.34 66.51 64.95 63.63 63.21 62.50 61.77 60.77 59.73 59.40 59.28 58.86 58.52 58.60 58.52 58.88 59.04 58.73 58.48 58.53 58.61 58.13 57.74 57.28 57.21 56.71 56.44 56.74 58.00 58.56 56.50 56.50 999.00 999.00 999.00 999.00 999.00 999.00 999.00 999.00 999.00 999.00 999.00 999.00 999.00 999.00 999.00 999.00 999.00 999.00 999.00 999.00 999.00 999.00 999.00 999.00 999.00 999.00 999.00 999.00 999.00 999.00 999.00 999.00 999.00 999.00 999.00 999.00 999.00 999.00 999.00 999.00 999.00 999.00 999.00 999.00 999.00 999.00 999.00 999.00 999.00 999.00 999.00 999.00 999.00 999.00 999.00 999.00 999.00 999.00 999.00 999.00 999.00 999.00 999.00 999.00 999.00 999.00 999.00 999.00 999.00 999.00 999.00 999.00 999.00 999.00 999.00 999.00 999.00 999.00 999.00 999.00 999.00 999.00 999.00 999.00 999.00 999.00 999.00 999.00 999.00 999.00 999.00 999.00 999.00 999.00 999.00 999.00 999.00 999.00 999.00 999.00 999.00 999.00 999.00 999.00 999.00 999.00 999.00 999.00 999.00 999.00 999.00 999.00 999.00 999.00 999.00 999.00 999.00 999.00 999.00 999.00 999.00 999.00 999.00 999.00 999.00 999.00 999.00 999.00 999.00 999.00 999.00 999.00 999.00 999.00 999.00 999.00 999.00 999.00 999.00 999.00 999.00 999.00 999.00 999.00 999.00 999.00 999.00 999.00 999.00 999.00 999.00 999.00 999.00 999.00 999.00 999.00 999.00 999.00 999.00 999.00 999.00 999.00 999.00 999.00 999.00 999.00 999.00 999.00 999.00 999.00 999.00 999.00 999.00 999.00 999.00 999.00 999.00 999.00 999.00 999.00 999.00 999.00 999.00 999.00 999.00 999.00 999.00 999.00 999.00 999.00 999.00 999.00 999.00 999.00 999.00 999.00 999.00 999.00 999.00 999.00 999.00 999.00 999.00 999.00 999.00 999.00 999.00 999.00 999.00 999.00 999.00 999.00 999.00 999.00 999.00 999.00 999.00 999.00 999.00 999.00 999.00 999.00 999.00 999.00 999.00 999.00 999.00 999.00 999.00
54.85 54.92 54.98 54.83 54.03 54.42 54.58 54.70 54.35 54.58 54.66 54.94 54.91 54.80 55.05 55.49 55.34 55.20 55.17 55.04 55.85 55.82 57.18 57.80 57.83 57.95 58.00 58.24 58.27 58.30 58.24 58.03 57.91 58.07 58.18 58.32 58.30 58.23 57.97 57.77 57.91 57.99 57.78 57.65 57.86 57.51 56.90 56.85 57.76 58.70 58.90 58.84 59.06 59.08 59.51 58.77 57.97 58.32 58.87 59.74 60.18 61.40 62.63 61.37 61.34 61.22 61.31 60.12 59.97 60.09 60.19 60.44 60.58 60.98 61.26 61.56 61.71 61.79 61.80 62.02 62.72 63.44 64.07 64.31 64.39 64.90 65.47 65.93 66.37 67.35 68.27 68.59 69.37 70.34 70.63 70.21 69.14 68.97 69.71 69.95 69.76 69.55 69.42 69.36 69.72 70.10 70.56 71.05 71.31 71.12 70.95 70.69 70.16 69.50 69.23 68.80 68.68 68.79 68.90 68.60 69.03 69.18 69.79 70.45 70.85 71.31 71.93 73.06 73.54 74.43 75.97 77.49 79.50 80.56 82.00 84.49 81.91 75.96 71.86 68.98 66.75 65.23 64.35 64.01 63.25 62.28 61.26 60.48 60.28 59.85 59.40 59.22 58.90 58.82 58.96 59.54 59.36 59.19 59.28 59.27 58.89 58.67 58.03 57.66 57.12 57.04 57.12 59.56 57.00 56.50 999.00 999.00 999.00 999.00 999.00 999.00 999.00 999.00 999.00 999.00 999.00 999.00 999.00 999.00 999.00 999.00 999.00 999.00 999.00 999.00 999.00 999.00 999.00 999.00 999.00 999.00 999.00 999.00 999.00 999.00 999.00 999.00 999.00 999.00 999.00 999.00 999.00 999.00 999.00 999.00 999.00 999.00 999.00 999.00 999.00 999.00 999.00 999.00 999.00 999.00 999.00 999.00 999.00 999.00 999.00 999.00 999.00 999.00 999.00 999.00 999.00 999.00 999.00 999.00 999.00 999.00 999.00 999.00 999.00 999.00 999.00 999.00 999.00 999.00 999.00 999.00 999.00 999.00 999.00 999.00 999.00 999.00 999.00 999.00 999.00 999.00 999.00 999.00 999.00 999.00 999.00 999.00 999.00 999.00 999.00 999.00 999.00 999.00 999.00 999.00 999.00 999.00 999.00 999.00 999.00 999.00 999.00 999.00 999.00 999.00 999.00 999.00 999.00 999.00 999.00 999.00 999.00 999.00 999.00 999.00 999.00 999.00 999.00 999.00 999.00 999.00 999.00 999.00 999.00 999.00 999.00 999.00 999.00 999.00 999.00 999.00 999.00 999.00 999.00 999.00 999.00 999.00 999.00 999.00 999.00 999.00 999.00 999.00 999.00 999.00 999.00 999.00 999.00 999.00 999.00 999.00 999.00 999.00 999.00 999.00 999.00 999.00 999.00 999.00 999.00 999.00 999.00 999.00 999.00 999.00 999.00 999.00 999.00 999.00 999.00 999.00 999.00 999.00 999.00 999.00 999.00 999.00 999.00 999.00 999.00 999.00 999.00 999.00 999.00 999.00 999.00 999.00 999.00 999.00 999.00 999.00 999.00 999.00 999.00 999.00 999.00 999.00 999.00 999.00 999.00 999.00 999.00 999.00 999.00 999.00 999.00 999.00 999.00 999.00 999.00 999.00 999.00 999.00 999.00 999.00 999.00 999.00 999.00 999.00 999.00 999.00 999.00 999.00 999.00 999.00
55.76 55.64 55.33 55.13 54.65 54.51 54.86 54.65 54.55 54.65 55.02 55.24 55.26 55.13 55.13 55.55 55.39 54.93 55.21 55.33 55.58 56.36 57.50 57.93 58.07 58.11 58.16 58.43 58.53 58.59 58.66 58.36 58.08 58.22 58.21 58.38 58.53 58.48 58.21 57.97 58.23 58.21 57.92 57.84 58.03 57.66 57.23 56.96 57.35 58.04 58.58 58.83 59.27 59.56 59.66 58.96 58.71 58.64 58.50 58.67 59.23 61.37 62.45 60.90 60.70 61.57 61.19 60.02 59.95 60.21 60.36 60.47 60.62 60.87 61.32 61.64 61.48 61.42 61.44 62.01 62.75 63.35 63.67 64.07 64.59 65.00 65.62 66.17 66.67 67.35 67.91 68.09 68.27 68.80 69.07 68.93 68.68 68.96 69.75 69.90 69.75 69.50 69.10 68.99 69.40 69.79 70.24 70.74 71.17 70.98 70.86 70.82 70.62 69.94 69.63 69.14 69.12 69.28 68.98 68.66 69.22 69.37 70.02 70.72 71.19 71.83 72.38 73.22 74.91 75.71 76.99 78.28 79.80 81.49 83.10 85.05 83.82 78.71 74.48 70.31 67.60 65.86 65.30 64.78 63.92 62.87 61.86 61.23 60.92 60.34 60.09 59.74 59.34 59.10 59.05 59.79 60.11 59.80 59.72 59.53 59.35 58.84 57.93 58.07 57.68 57.33 58.62 58.22 56.50 56.50 999.00 999.00 999.00 999.00 999.00 999.00 999.00 999.00 999.00 999.00 999.00 999.00 999.00 999.00 999.00 999.00 999.00 999.00 999.00 999.00 999.00 999.00 999.00 999.00 999.00 999.00 999.00 999.00 999.00 999.00 999.00 999.00 999.00 999.00 999.00 999.00 999.00 999.00 999.00 999.00 999.00 999.00 999.00 999.00 999.00 999.00 999.00 999.00 999.00 999.00 999.00 999.00 999.00 999.00 999.00 999.00 999.00 999.00 999.00 999.00 999.00 999.00 999.00 999.00 999.00 999.00 999.00 999.00 999.00 999.00 999.00 999.00 999.00 999.00 999.00 999.00 999.00 999.00 999.00 999.00 999.00 999.00 999.00 999.00 999.00 999.00 999.00 999.00 999.00 999.00 999.00 999.00 999.00 999.00 999.00 999.00 999.00 999.00 999.00 999.00 999.00 999.00 999.00 999.00 999.00 999.00 999.00 999.00 999.00 999.00 999.00 999.00 999.00 999.00 999.00 999.00 999.00 999.00 999.00 999.00 999.00 999.00 999.00 999.00 999.00 999.00 999.00 999.00 999.00 999.00 999.00 999.00 999.00 999.00 999.00 999.00 999.00 999.00 999.00 999.00 999.00 999.00 999.00 999.00 999.00 999.00 999.00 999.00 999.00 999.00 999.00 999.00 999.00 999.00 999.00 999.00 999.00 999.00 999.00 999.00 999.00 999.00 999.00 999.00 999.00 999.00 999.00 999.00 999.00 999.00 999.00 999.00 999.00 999.00 999.00 999.00 999.00 999.00 999.00 999.00 999.00 999.00 999.00 999.00 999.00 999.00 999.00 999.00 999.00 999.00 999.00 999.00 999.00 999.00 999.00 999.00 999.00 999.00 999.00 999.00 999.00 999.00 999.00 999.00 999.00 999.00 999.00 999.00 999.00 999.00 999.00 999.00 999.00 999.00 999.00 999.00 999.00 999.00 999.00 999.00 999.00 999.00 999.00 999.00 999.00 999.00 999.00 999.00 999.00 999.00
56.05 55.70 55.38 55.26 55.11 54.84 54.86 54.77 54.95 55.14 55.22 55.53 55.44 55.38 55.39 55.63 55.47 54.99 55.40 55.60 55.93 57.28 57.89 57.95 58.14 58.31 58.47 58.53 58.70 58.70 58.73 58.61 58.65 58.66 58.56 58.62 58.60 58.42 58.04 58.01 58.31 58.34 58.10 58.01 58.13 57.88 58.00 57.59 57.07 57.76 58.13 58.39 59.09 59.49 59.46 59.22 59.27 58.84 58.54 58.50 58.51 59.24 60.83 60.50 61.18 61.85 60.91 60.00 59.87 60.20 60.68 60.80 60.98 61.01 61.03 61.34 61.04 61.18 61.48 61.92 62.73 63.05 63.29 63.78 64.23 64.68 65.31 66.19 66.78 67.09 67.20 67.20 67.35 67.85 68.20 68.22 68.24 68.72 69.37 69.42 69.53 69.05 68.60 68.87 69.28 69.55 70.04 70.63 71.11 71.10 71.09 71.20 71.42 70.76 69.94 69.50 69.37 69.57 69.14 69.01 69.30 69.54 70.25 70.86 71.48 72.18 72.93 73.34 74.63 76.26 78.42 79.43 81.47 83.03 83.73 85.14 85.45 82.33 76.95 71.98 68.55 66.81 66.16 65.36 64.45 63.42 62.59 62.04 61.45 60.84 60.53 60.07 59.62 59.33 59.35 60.18 60.63 60.13 59.92 59.46 58.83 58.64 59.25 59.41 58.63 58.54 59.88 57.05 56.50 56.50 999.00 999.00 999.00 999.00 999.00 999.00 999.00 999.00 999.00 999.00 999.00 999.00 999.00 999.00 999.00 999.00 999.00 999.00 999.00 999.00 999.00 999.00 999.00 999.00 999.00 999.00 999.00 999.00 999.00 999.00 999.00 999.00 999.00 999.00 999.00 999.00 999.00 999.00 999.00 999.00 999.00 999.00 999.00 999.00 999.00 999.00 999.00 999.00 999.00 999.00 999.00 999.00 999.00 999.00 999.00 999.00 999.00 999.00 999.00 999.00 999.00 999.00 999.00 999.00 999.00 999.00 999.00 999.00 999.00 999.00 999.00 999.00 999.00 999.00 999.00 999.00 999.00 999.00 999.00 999.00 999.00 999.00 999.00 999.00 999.00 999.00 999.00 999.00 999.00 999.00 999.00 999.00 999.00 999.00 999.00 999.00 999.00 999.00 999.00 999.00 999.00 999.00 999.00 999.00 999.00 999.00 999.00 999.00 999.00 999.00 999.00 999.00 999.00 999.00 999.00 999.00 999.00 999.00 999.00 999.00 999.00 999.00 999.00 999.00 999.00 999.00 999.00 999.00 999.00 999.00 999.00 999.00 999.00 999.00 999.00 999.00 999.00 999.00 999.00 999.00 999.00 999.00 999.00 999.00 999.00 999.00 999.00 999.00 999.00 999.00 999.00 999.00 999.00 999.00 999.00 999.00 999.00 999.00 999.00 999.00 999.00 999.00 999.00 999.00 999.00 999.00 999.00 999.00 999.00 999.00 999.00 999.00 999.00 999.00 999.00 999.00 999.00 999.00 999.00 999.00 999.00 999.00 999.00 999.00 999.00 999.00 999.00 999.00 999.00 999.00 999.00 999.00 999.00 999.00 999.00 999.00 999.00 999.00 999.00 999.00 999.00 999.00 999.00 999.00 999.00 999.00 999.00 999.00 999.00 999.00 999.00 999.00 999.00 999.00 999.00 999.00 999.00 999.00 999.00 999.00 999.00 999.00 999.00 999.00 999.00 999.00 999.00 999.00 999.00 999.00
56.00 55.57 55.45 55.36 55.24 55.31 55.27 54.93 55.31 55.69 55.41 55.64 55.62 55.74 55.68 55.77 55.45 55.02 55.62 55.75 56.05 57.68 58.11 58.21 58.32 58.47 58.73 58.86 58.84 58.82 58.72 58.84 58.97 58.97 59.01 58.98 58.66 58.41 58.13 58.16 58.20 58.40 58.34 58.21 58.21 57.99 58.12 57.94 57.10 57.22 57.48 57.65 58.26 58.80 59.19 59.06 59.25 58.83 58.81 58.66 58.53 58.58 58.81 57.75 58.84 60.49 60.06 59.92 59.85 60.11 60.77 61.00 60.96 61.13 61.16 60.92 60.33 60.75 61.16 61.32 61.77 62.37 62.79 63.23 63.69 64.22 64.86 65.55 65.94 66.20 66.35 66.46 66.51 67.03 67.45 67.70 67.65 67.87 68.07 68.37 69.21 68.73 68.50 68.85 69.25 69.55 69.97 70.55 70.86 71.11 71.34 71.54 72.02 71.70 70.63 69.79 69.61 69.62 69.47 69.49 69.83 69.76 70.17 70.78 71.14 72.08 73.14 73.75 73.96 75.61 77.92 80.05 81.77 84.12 84.92 85.64 85.61 84.10 79.76 73.90 69.30 67.83 66.94 65.88 64.90 63.89 63.26 62.71 62.10 61.45 60.93 60.46 60.04 59.62 59.80 60.63 61.25 60.73 60.04 59.28 58.77 59.32 60.30 60.52 59.82 60.22 58.53 56.54 56.50 999.00 999.00 999.00 999.00 999.00 999.00 999.00 999.00 999.00 999.00 999.00 999.00 999.00 999.00 999.00 999.00 999.00 999.00 999.00 999.00 999.00 999.00 999.00 999.00 999.00 999.00 999.00 999.00 999.00 999.00 999.00 999.00 999.00 999.00 999.00 999.00 999.00 999.00 999.00 999.00 999.00 999.00 999.00 999.00 999.00 999.00 999.00 999.00 999.00 999.00 999.00 999.00 999.00 999.00 999.00 999.00 999.00 999.00 999.00 999.00 999.00 999.00 999.00 999.00 999.00 999.00 999.00 999.00 999.00 999.00 999.00 999.00 999.00 999.00 999.00 999.00 999.00 999.00 999.00 999.00 999.00 999.00 999.00 999.00 999.00 999.00 999.00 999.00 999.00 999.00 999.00 999.00 999.00 999.00 999.00 999.00 999.00 999.00 999.00 999.00 999.00 999.00 999.00 999.00 999.00 999.00 999.00 999.00 999.00 999.00 999.00 999.00 999.00 999.00 999.00 999.00 999.00 999.00 999.00 999.00 999.00 999.00 999.00 999.00 999.00 999.00 999.00 999.00 999.00 999.00 999.00 999.00 999.00 999.00 999.00 999.00 999.00 999.00 999.00 999.00 999.00 999.00 999.00 999.00 999.00 999.00 999.00 999.00 999.00 999.00 999.00 999.00 999.00 999.00 999.00 999.00 999.00 999.00 999.00 999.00 999.00 999.00 999.00 999.00 999.00 999.00 999.00 999.00 999.00 999.00 999.00 999.00 999.00 999.00 999.00 999.00 999.00 999.00 999.00 999.00 999.00 999.00 999.00 999.00 999.00 999.00 999.00 999.00 999.00 999.00 999.00 999.00 999.00 999.00 999.00 999.00 999.00 999.00 999.00 999.00 999.00 999.00 999.00 999.00 999.00 999.00 999.00 999.00 999.00 999.00 999.00 999.00 999.00 999.00 999.00 999.00 999.00 999.00 999.00 999.00 999.00 999.00 999.00 999.00 999.00 999.00 999.00 999.00 999.00 999.00 999.00
56.18 55.81 55.65 55.48 55.48 55.71 55.48 55.17 55.38 55.87 55.66 55.82 56.00 56.07 55.99 55.92 55.61 55.30 55.75 55.82 55.87 57.57 58.42 58.58 58.80 58.89 58.81 58.79 58.84 58.86 58.95 59.01 59.10 59.00 58.94 58.81 58.59 58.29 58.29 58.35 58.29 58.61 58.41 58.29 58.45 58.21 58.09 58.37 57.94 57.72 57.63 57.67 57.64 58.07 58.60 58.42 58.94 58.95 59.23 59.06 58.82 58.53 58.63 58.47 59.37 60.15 59.70 59.39 59.60 59.57 59.61 59.60 59.35 59.62 59.97 59.81 59.43 60.01 60.23 60.49 61.10 61.12 61.86 62.50 62.97 63.99 64.03 64.41 64.47 65.05 65.58 65.73 65.85 66.19 66.69 67.13 67.09 66.55 67.14 67.65 68.21 68.25 68.46 68.94 69.17 69.40 69.82 70.16 70.74 71.11 71.51 71.81 72.37 72.42 71.25 70.13 70.15 69.92 69.90 69.85 70.06 69.95 70.34 70.80 71.23 72.05 73.35 74.38 74.74 74.77 76.08 78.49 80.13 82.41 84.50 85.13 83.33 81.66 79.32 74.32 69.84 68.55 67.57 66.40 65.32 64.47 63.80 63.21 62.74 62.00 61.35 60.78 60.41 60.07 60.15 60.82 61.40 61.16 60.10 59.14 59.42 60.65 61.25 61.00 60.47 60.36 57.12 56.50 56.50 999.00 999.00 999.00 999.00 999.00 999.00 999.00 999.00 999.00 999.00 999.00 999.00 999.00 999.00 999.00 999.00 999.00 999.00 999.00 999.00 999.00 999.00 999.00 999.00 999.00 999.00 999.00 999.00 999.00 999.00 999.00 999.00 999.00 999.00 999.00 999.00 999.00 999.00 999.00 999.00 999.00 999.00 999.00 999.00 999.00 999.00 999.00 999.00 999.00 999.00 999.00 999.00 999.00 999.00 999.00 999.00 999.00 999.00 999.00 999.00 999.00 999.00 999.00 999.00 999.00 999.00 999.00 999.00 999.00 999.00 999.00 999.00 999.00 999.00 999.00 999.00 999.00 999.00 999.00 999.00 999.00 999.00 999.00 999.00 999.00 999.00 999.00 999.00 999.00 999.00 999.00 999.00 999.00 999.00 999.00 999.00 999.00 999.00 999.00 999.00 999.00 999.00 999.00 999.00 999.00 999.00 999.00 999.00 999.00 999.00 999.00 999.00 999.00 999.00 999.00 999.00 999.00 999.00 999.00 999.00 999.00 999.00 999.00 999.00 999.00 999.00 999.00 999.00 999.00 999.00 999.00 999.00 999.00 999.00 999.00 999.00 999.00 999.00 999.00 999.00 999.00 999.00 999.00 999.00 999.00 999.00 999.00 999.00 999.00 999.00 999.00 999.00 999.00 999.00 999.00 999.00 999.00 999.00 999.00 999.00 999.00 999.00 999.00 999.00 999.00 999.00 999.00 999.00 999.00 999.00 999.00 999.00 999.00 999.00 999.00 999.00 999.00 999.00 999.00 999.00 999.00 999.00 999.00 999.00 999.00 999.00 999.00 999.00 999.00 999.00 999.00 999.00 999.00 999.00 999.00 999.00 999.00 999.00 999.00 999.00 999.00 999.00 999.00 999.00 999.00 999.00 999.00 999.00 999.00 999.00 999.00 999.00 999.00 999.00 999.00 999.00 999.00 999.00 999.00 999.00 999.00 999.00 999.00 999.00 999.00 999.00 999.00 999.00 999.00 999.00 999.00
56.50 55.99 56.01 55.96 55.83 55.58 55.28 55.42 55.63 55.98 56.01 55.75 56.11 56.26 56.04 56.03 55.96 55.89 56.03 55.90 55.79 57.88 58.63 58.89 59.17 59.08 59.03 59.02 58.96 58.91 58.89 59.07 59.00 59.01 58.98 58.85 58.50 58.21 58.40 58.29 58.31 58.68 58.51 58.35 58.52 58.35 58.19 58.45 58.48 58.58 58.07 57.82 57.68 57.82 58.70 58.64 58.78 58.83 59.35 59.40 59.24 58.90 58.70 59.25 60.06 59.49 59.03 58.99 60.35 60.54 59.91 59.56 59.67 59.35 59.34 59.48 59.73 59.94 60.77 61.28 61.75 62.31 62.25 62.57 62.82 63.42 63.09 63.15 63.50 63.89 64.57 64.76 65.01 65.39 65.89 66.46 66.42 65.92 66.56 67.12 67.56 67.93 68.32 68.75 68.89 69.46 70.04 70.38 70.88 71.31 71.68 72.23 72.82 72.60 71.15 70.30 70.11 70.09 70.08 70.11 70.46 70.30 70.67 71.19 71.75 72.40 73.36 74.58 75.62 75.81 75.58 76.76 78.55 80.53 83.55 83.66 79.98 77.87 75.15 72.11 70.33 69.19 67.87 66.78 65.76 64.90 64.41 64.06 63.44 62.76 62.01 61.31 60.86 60.66 60.60 60.96 61.35 61.00 60.22 59.84 60.37 61.56 62.18 61.30 61.13 59.64 56.69 56.50 56.50 999.00 999.00 999.00 999.00 999.00 999.00 999.00 999.00 999.00 999.00 999.00 999.00 999.00 999.00 999.00 999.00 999.00 999.00 999.00 999.00 999.00 999.00 999.00 999.00 999.00 999.00 999.00 999.00 999.00 999.00 999.00 999.00 999.00 999.00 999.00 999.00 999.00 999.00 999.00 999.00 999.00 999.00 999.00 999.00 999.00 999.00 999.00 999.00 999.00 999.00 999.00 999.00 999.00 999.00 999.00 999.00 999.00 999.00 999.00 999.00 999.00 999.00 999.00 999.00 999.00 999.00 999.00 999.00 999.00 999.00 999.00 999.00 999.00 999.00 999.00 999.00 999.00 999.00 999.00 999.00 999.00 999.00 999.00 999.00 999.00 999.00 999.00 999.00 999.00 999.00 999.00 999.00 999.00 999.00 999.00 999.00 999.00 999.00 999.00 999.00 999.00 999.00 999.00 999.00 999.00 999.00 999.00 999.00 999.00 999.00 999.00 999.00 999.00 999.00 999.00 999.00 999.00 999.00 999.00 999.00 999.00 999.00 999.00 999.00 999.00 999.00 999.00 999.00 999.00 999.00 999.00 999.00 999.00 999.00 999.00 999.00 999.00 999.00 999.00 999.00 999.00 999.00 999.00 999.00 999.00 999.00 999.00 999.00 999.00 999.00 999.00 999.00 999.00 999.00 999.00 999.00 999.00 999.00 999.00 999.00 999.00 999.00 999.00 999.00 999.00 999.00 999.00 999.00 999.00 999.00 999.00 999.00 999.00 999.00 999.00 999.00 999.00 999.00 999.00 999.00 999.00 999.00 999.00 999.00 999.00 999.00 999.00 999.00 999.00 999.00 999.00 999.00 999.00 999.00 999.00 999.00 999.00 999.00 999.00 999.00 999.00 999.00 999.00 999.00 999.00 999.00 999.00 999.00 999.00 999.00 999.00 999.00 999.00 999.00 999.00 999.00 999.00 999.00 999.00 999.00 999.00 999.00 999.00 999.00 999.00 999.00 999.00 999.00 999.00 999.00 999.00
56.77 56.39 56.07 56.06 55.81 55.54 55.40 55.59 55.87 56.25 56.29 56.03 56.23 56.35 56.10 56.39 56.49 56.42 56.30 55.99 56.45 58.15 58.66 58.93 59.10 59.10 59.25 59.21 59.11 59.05 58.92 58.90 58.96 59.09 59.06 58.95 58.58 58.44 58.53 58.39 58.52 58.64 58.54 58.38 58.57 58.39 58.28 58.68 58.66 59.00 58.62 57.96 57.59 57.78 58.91 59.01 59.02 58.94 59.60 60.08 59.46 59.38 58.93 58.88 59.87 59.06 59.05 59.62 60.93 61.19 61.14 60.94 61.06 60.90 60.62 60.85 61.09 60.51 60.86 61.32 62.03 62.66 62.85 63.11 63.45 63.72 63.66 63.24 63.46 63.71 64.07 64.94 64.94 64.66 64.95 65.43 65.90 66.74 66.94 66.97 67.27 67.88 68.19 68.56 68.81 69.41 70.04 70.52 71.06 71.61 71.95 72.42 73.05 72.74 71.15 70.51 70.27 70.50 70.71 70.60 70.84 71.06 71.49 71.83 72.37 73.03 73.72 74.53 75.85 77.10 76.83 76.66 78.17 80.05 82.56 83.00 78.28 75.20 73.96 73.41 72.02 69.95 68.37 67.30 66.44 65.78 65.26 64.97 64.34 63.50 62.75 62.07 61.51 61.35 61.15 61.16 61.26 60.81 60.42 60.88 61.46 62.25 63.00 61.67 61.34 58.75 56.59 56.50 999.00 999.00 999.00 999.00 999.00 999.00 999.00 999.00 999.00 999.00 999.00 999.00 999.00 999.00 999.00 999.00 999.00 999.00 999.00 999.00 999.00 999.00 999.00 999.00 999.00 999.00 999.00 999.00 999.00 999.00 999.00 999.00 999.00 999.00 999.00 999.00 999.00 999.00 999.00 999.00 999.00 999.00 999.00 999.00 999.00 999.00 999.00 999.00 999.00 999.00 999.00 999.00 999.00 999.00 999.00 999.00 999.00 999.00 999.00 999.00 999.00 999.00 999.00 999.00 999.00 999.00 999.00 999.00 999.00 999.00 999.00 999.00 999.00 999.00 999.00 999.00 999.00 999.00 999.00 999.00 999.00 999.00 999.00 999.00 999.00 999.00 999.00 999.00 999.00 999.00 999.00 999.00 999.00 999.00 999.00 999.00 999.00 999.00 999.00 999.00 999.00 999.00 999.00 999.00 999.00 999.00 999.00 999.00 999.00 999.00 999.00 999.00 999.00 999.00 999.00 999.00 999.00 999.00 999.00 999.00 999.00 999.00 999.00 999.00 999.00 999.00 999.00 999.00 999.00 999.00 999.00 999.00 999.00 999.00 999.00 999.00 999.00 999.00 999.00 999.00 999.00 999.00 999.00 999.00 999.00 999.00 999.00 999.00 999.00 999.00 999.00 999.00 999.00 999.00 999.00 999.00 999.00 999.00 999.00 999.00 999.00 999.00 999.00 999.00 999.00 999.00 999.00 999.00 999.00 999.00 999.00 999.00 999.00 999.00 999.00 999.00 999.00 999.00 999.00 999.00 999.00 999.00 999.00 999.00 999.00 999.00 999.00 999.00 999.00 999.00 999.00 999.00 999.00 999.00 999.00 999.00 999.00 999.00 999.00 999.00 999.00 999.00 999.00 999.00 999.00 999.00 999.00 999.00 999.00 999.00 999.00 999.00 999.00 999.00 999.00 999.00 999.00 999.00 999.00 999.00 999.00 999.00 999.00 999.00 999.00 999.00 999.00 999.00 999.00 999.00 999.00 999.00
56.64 56.49 56.19 56.06 56.04 55.72 55.79 55.91 56.02 56.32 56.47 56.21 56.35 56.49 56.30 56.58 56.72 56.64 56.32 56.30 57.03 58.38 58.80 59.03 59.17 59.25 59.44 59.37 59.35 59.43 59.19 59.04 59.20 59.28 59.22 59.07 58.68 58.65 58.59 58.51 58.66 58.81 58.77 58.53 58.80 58.66 58.59 59.07 59.31 58.98 58.76 58.26 57.88 57.45 58.33 59.09 59.24 59.43 60.09 60.76 60.69 60.00 59.92 59.42 59.52 59.65 59.94 60.17 61.00 61.33 61.43 61.54 61.68 61.50 61.14 61.40 61.29 60.91 60.96 61.36 62.16 62.64 62.80 63.15 63.59 63.82 64.03 63.95 63.58 63.60 64.15 65.17 64.58 64.25 64.62 65.52 65.77 66.55 66.88 67.21 67.27 67.58 67.90 68.37 68.44 69.19 69.81 70.38 70.96 71.54 72.01 72.38 72.97 72.83 71.35 70.95 70.81 70.69 70.88 70.98 71.39 71.64 71.96 72.34 72.87 73.59 74.50 75.46 76.42 78.05 78.83 77.85 78.07 79.85 81.49 81.89 78.46 77.17 77.25 76.60 74.99 71.77 69.56 68.16 67.28 66.81 66.42 65.72 64.71 63.76 63.08 62.47 62.11 61.94 61.67 61.41 61.16 60.75 60.74 61.39 62.01 62.90 63.61 61.69 60.79 59.83 57.16 56.52 999.00 999.00 999.00 999.00 999.00 999.00 999.00 999.00 999.00 999.00 999.00 999.00 999.00 999.00 999.00 999.00 999.00 999.00 999.00 999.00 999.00 999.00 999.00 999.00 999.00 999.00 999.00 999.00 999.00 999.00 999.00 999.00 999.00 999.00 999.00 999.00 999.00 999.00 999.00 999.00 999.00 999.00 999.00 999.00 999.00 999.00 999.00 999.00 999.00 999.00 999.00 999.00 999.00 999.00 999.00 999.00 999.00 999.00 999.00 999.00 999.00 999.00 999.00 999.00 999.00 999.00 999.00 999.00 999.00 999.00 999.00 999.00 999.00 999.00 999.00 999.00 999.00 999.00 999.00 999.00 999.00 999.00 999.00 999.00 999.00 999.00 999.00 999.00 999.00 999.00 999.00 999.00 999.00 999.00 999.00 999.00 999.00 999.00 999.00 999.00 999.00 999.00 999.00 999.00 999.00 999.00 999.00 999.00 999.00 999.00 999.00 999.00 999.00 999.00 999.00 999.00 999.00 999.00 999.00 999.00 999.00 999.00 999.00 999.00 999.00 999.00 999.00 999.00 999.00 999.00 999.00 999.00 999.00 999.00 999.00 999.00 999.00 999.00 999.00 999.00 999.00 999.00 999.00 999.00 999.00 999.00 999.00 999.00 999.00 999.00 999.00 999.00 999.00 999.00 999.00 999.00 999.00 999.00 999.00 999.00 999.00 999.00 999.00 999.00 999.00 999.00 999.00 999.00 999.00 999.00 999.00 999.00 999.00 999.00 999.00 999.00 999.00 999.00 999.00 999.00 999.00 999.00 999.00 999.00 999.00 999.00 999.00 999.00 999.00 999.00 999.00 999.00 999.00 999.00 999.00 999.00 999.00 999.00 999.00 999.00 999.00 999.00 999.00 999.00 999.00 999.00 999.00 999.00 999.00 999.00 999.00 999.00 999.00 999.00 999.00 999.00 999.00 999.00 999.00 999.00 999.00 999.00 999.00 999.00 999.00 999.00 999.00 999.00 999.00 999.00 999.00 999.00
56.68 56.49 56.27 56.11 55.98 55.90 55.97 55.88 56.17 56.40 56.69 56.55 56.67 56.76 56.58 56.84 56.99 57.03 56.81 56.44 57.31 58.62 58.95 59.20 59.35 59.37 59.50 59.55 59.62 59.67 59.39 59.15 59.27 59.36 59.32 59.28 59.08 58.91 58.83 58.64 58.79 59.00 58.94 58.71 58.91 58.91 58.78 59.25 59.46 59.09 59.08 58.63 58.11 58.00 58.33 58.37 59.05 59.87 60.51 61.10 61.34 61.06 60.67 60.54 60.14 59.74 60.60 60.70 61.01 61.37 61.54 61.71 61.87 61.73 61.61 61.69 61.53 61.29 61.33 61.85 62.45 62.84 62.95 63.08 63.48 63.77 63.96 64.48 64.12 63.91 64.12 64.44 63.58 64.22 64.63 65.28 65.92 65.89 66.37 66.87 66.77 66.96 67.72 68.30 68.38 69.03 69.61 70.27 70.80 71.46 72.05 72.47 72.84 72.77 71.73 71.50 71.35 70.93 71.12 71.26 71.81 72.13 72.32 72.78 73.36 74.04 75.13 76.24 77.43 78.76 79.86 79.25 78.40 79.84 81.75 82.25 80.76 80.74 80.74 79.71 78.34 74.18 71.19 69.74 68.58 67.99 67.37 66.50 65.51 64.71 63.99 63.36 62.69 62.44 62.16 61.73 61.39 61.02 61.20 61.99 62.64 64.04 64.14 62.40 60.91 60.88 60.19 58.24 999.00 999.00 999.00 999.00 999.00 999.00 999.00 999.00 999.00 999.00 999.00 999.00 999.00 999.00 999.00 999.00 999.00 999.00 999.00 999.00 999.00 999.00 999.00 999.00 999.00 999.00 999.00 999.00 999.00 999.00 999.00 999.00 999.00 999.00 999.00 999.00 999.00 999.00 999.00 999.00 999.00 999.00 999.00 999.00 999.00 999.00 999.00 999.00 999.00 999.00 999.00 999.00 999.00 999.00 999.00 999.00 999.00 999.00 999.00 999.00 999.00 999.00 999.00 999.00 999.00 999.00 999.00 999.00 999.00 999.00 999.00 999.00 999.00 999.00 999.00 999.00 999.00 999.00 999.00 999.00 999.00 999.00 999.00 999.00 999.00 999.00 999.00 999.00 999.00 999.00 999.00 999.00 999.00 999.00 999.00 999.00 999.00 999.00 999.00 999.00 999.00 999.00 999.00 999.00 999.00 999.00 999.00 999.00 999.00 999.00 999.00 999.00 999.00 999.00 999.00 999.00 999.00 999.00 999.00 999.00 999.00 999.00 999.00 999.00 999.00 999.00 999.00 999.00 999.00 999.00 999.00 999.00 999.00 999.00 999.00 999.00 999.00 999.00 999.00 999.00 999.00 999.00 999.00 999.00 999.00 999.00 999.00 999.00 999.00 999.00 999.00 999.00 999.00 999.00 999.00 999.00 999.00 999.00 999.00 999.00 999.00 999.00 999.00 999.00 999.00 999.00 999.00 999.00 999.00 999.00 999.00 999.00 999.00 999.00 999.00 999.00 999.00 999.00 999.00 999.00 999.00 999.00 999.00 999.00 999.00 999.00 999.00 999.00 999.00 999.00 999.00 999.00 999.00 999.00 999.00 999.00 999.00 999.00 999.00 999.00 999.00 999.00 999.00 999.00 999.00 999.00 999.00 999.00 999.00 999.00 999.00 999.00 999.00 999.00 999.00 999.00 999.00 999.00 999.00 999.00 999.00 999.00 999.00 999.00 999.00 999.00 999.00 999.00 999.00 999.00 999.00 999.00
56.95 56.69 56.43 56.30 56.04 56.10 56.05 56.18 56.39 56.59 56.79 56.86 56.94 57.04 56.85 57.00 57.25 57.47 57.05 56.40 57.47 58.73 58.78 59.14 59.37 59.44 59.57 59.69 59.66 59.48 59.33 59.25 59.47 59.63 59.40 59.38 59.22 59.07 59.13 59.06 59.20 59.18 59.10 58.90 59.14 59.10 59.00 59.24 59.53 59.39 59.28 58.93 58.21 58.12 59.16 59.18 58.82 59.51 60.29 61.43 61.31 61.42 61.12 61.71 61.33 60.27 61.08 60.85 61.00 61.37 61.47 61.53 61.87 62.04 62.12 62.17 61.95 61.50 61.42 62.10 62.59 62.94 63.15 63.38 63.56 63.83 63.94 64.43 64.25 64.21 64.34 64.49 64.45 64.55 64.68 65.11 65.67 65.84 66.20 66.52 66.83 66.93 67.33 68.01 68.49 68.99 69.60 70.29 70.68 71.34 72.04 72.50 72.88 72.72 71.93 71.45 71.25 71.29 71.43 71.47 71.90 72.41 72.76 73.24 73.89 74.68 75.73 76.95 78.39 79.43 80.42 79.99 78.85 79.79 81.72 83.14 83.43 83.02 84.05 82.27 82.45 77.33 73.17 71.30 69.97 69.21 68.62 67.57 66.34 65.61 64.64 63.87 63.22 62.88 62.57 62.14 61.80 61.37 61.46 62.40 63.81 65.30 65.03 64.13 62.23 62.55 63.10 999.00 999.00 999.00 999.00 999.00 999.00 999.00 999.00 999.00 999.00 999.00 999.00 999.00 999.00 999.00 999.00 999.00 999.00 999.00 999.00 999.00 999.00 999.00 999.00 999.00 999.00 999.00 999.00 999.00 999.00 999.00 999.00 999.00 999.00 999.00 999.00 999.00 999.00 999.00 999.00 999.00 999.00 999.00 999.00 999.00 999.00 999.00 999.00 999.00 999.00 999.00 999.00 999.00 999.00 999.00 999.00 999.00 999.00 999.00 999.00 999.00 999.00 999.00 999.00 999.00 999.00 999.00 999.00 999.00 999.00 999.00 999.00 999.00 999.00 999.00 999.00 999.00 999.00 999.00 999.00 999.00 999.00 999.00 999.00 999.00 999.00 999.00 999.00 999.00 999.00 999.00 999.00 999.00 999.00 999.00 999.00 999.00 999.00 999.00 999.00 999.00 999.00 999.00 999.00 999.00 999.00 999.00 999.00 999.00 999.00 999.00 999.00 999.00 999.00 999.00 999.00 999.00 999.00 999.00 999.00 999.00 999.00 999.00 999.00 999.00 999.00 999.00 999.00 999.00 999.00 999.00 999.00 999.00 999.00 999.00 999.00 999.00 999.00 999.00 999.00 999.00 999.00 999.00 999.00 999.00 999.00 999.00 999.00 999.00 999.00 999.00 999.00 999.00 999.00 999.00 999.00 999.00 999.00 999.00 999.00 999.00 999.00 999.00 999.00 999.00 999.00 999.00 999.00 999.00 999.00 999.00 999.00 999.00 999.00 999.00 999.00 999.00 999.00 999.00 999.00 999.00 999.00 999.00 999.00 999.00 999.00 999.00 999.00 999.00 999.00 999.00 999.00 999.00 999.00 999.00 999.00 999.00 999.00 999.00 999.00 999.00 999.00 999.00 999.00 999.00 999.00 999.00 999.00 999.00 999.00 999.00 999.00 999.00 999.00 999.00 999.00 999.00 999.00 999.00 999.00 999.00 999.00 999.00 999.00 999.00 999.00 999.00 999.00 999.00 999.00 999.00 999.00 999.00
57.05 56.85 56.47 56.37 56.34 56.35 56.24 56.46 56.71 57.22 57.22 57.26 57.41 57.40 57.07 56.98 57.23 57.33 57.03 57.40 58.29 58.52 58.72 59.05 59.38 59.60 59.73 59.76 59.62 59.53 59.47 59.49 59.68 59.74 59.53 59.53 59.48 59.19 59.22 59.24 59.34 59.28 59.22 59.17 59.21 59.10 58.97 59.06 59.42 59.49 59.44 59.29 59.10 58.44 57.83 59.35 59.02 59.71 60.61 61.14 61.89 61.97 61.63 62.01 60.79 60.63 61.81 61.56 61.04 60.98 61.24 61.50 61.93 62.22 62.32 62.52 62.38 61.74 61.60 61.93 62.33 62.85 63.14 63.52 63.83 63.95 64.05 64.03 64.20 64.45 64.80 64.85 65.04 65.37 65.34 65.18 65.60 65.82 66.19 66.53 66.86 67.35 67.59 68.10 68.53 69.00 69.67 70.14 70.67 71.32 71.95 72.54 72.91 72.91 72.20 71.76 71.56 71.57 71.65 71.92 72.40 72.89 73.37 73.93 74.53 75.30 76.22 77.41 78.81 79.85 80.89 81.16 80.28 79.99 81.19 82.40 83.91 84.82 85.78 85.57 86.51 79.68 74.97 72.71 71.15 70.45 69.71 68.58 67.11 66.23 65.27 64.61 64.21 63.31 62.96 62.56 62.30 61.77 61.74 62.54 64.22 65.82 65.61 64.55 62.57 62.66 63.17 999.00 999.00 999.00 999.00 999.00 999.00 999.00 999.00 999.00 999.00 999.00 999.00 999.00 999.00 999.00 999.00 999.00 999.00 999.00 999.00 999.00 999.00 999.00 999.00 999.00 999.00 999.00 999.00 999.00 999.00 999.00 999.00 999.00 999.00 999.00 999.00 999.00 999.00 999.00 999.00 999.00 999.00 999.00 999.00 999.00 999.00 999.00 999.00 999.00 999.00 999.00 999.00 999.00 999.00 999.00 999.00 999.00 999.00 999.00 999.00 999.00 999.00 999.00 999.00 999.00 999.00 999.00 999.00 999.00 999.00 999.00 999.00 999.00 999.00 999.00 999.00 999.00 999.00 999.00 999.00 999.00 999.00 999.00 999.00 999.00 999.00 999.00 999.00 999.00 999.00 999.00 999.00 999.00 999.00 999.00 999.00 999.00 999.00 999.00 999.00 999.00 999.00 999.00 999.00 999.00 999.00 999.00 999.00 999.00 999.00 999.00 999.00 999.00 999.00 999.00 999.00 999.00 999.00 999.00 999.00 999.00 999.00 999.00 999.00 999.00 999.00 999.00 999.00 999.00 999.00 999.00 999.00 999.00 999.00 999.00 999.00 999.00 999.00 999.00 999.00 999.00 999.00 999.00 999.00 999.00 999.00 999.00 999.00 999.00 999.00 999.00 999.00 999.00 999.00 999.00 999.00 999.00 999.00 999.00 999.00 999.00 999.00 999.00 999.00 999.00 999.00 999.00 999.00 999.00 999.00 999.00 999.00 999.00 999.00 999.00 999.00 999.00 999.00 999.00 999.00 999.00 999.00 999.00 999.00 999.00 999.00 999.00 999.00 999.00 999.00 999.00 999.00 999.00 999.00 999.00 999.00 999.00 999.00 999.00 999.00 999.00 999.00 999.00 999.00 999.00 999.00 999.00 999.00 999.00 999.00 999.00 999.00 999.00 999.00 999.00 999.00 999.00 999.00 999.00 999.00 999.00 999.00 999.00 999.00 999.00 999.00 999.00 999.00 999.00 999.00 999.00 999.00 999.00
57.05 56.91 56.61 56.56 56.59 56.40 56.36 56.71 57.16 57.59 57.63 57.61 57.70 57.82 57.43 57.31 57.42 57.66 57.85 58.38 58.58 58.64 59.11 59.44 59.57 59.76 59.71 59.72 59.74 59.81 59.68 59.62 59.82 59.88 59.87 59.76 59.71 59.39 59.28 59.37 59.31 59.38 59.53 59.54 59.39 59.36 59.31 59.21 59.46 59.64 59.64 59.60 59.82 58.53 57.49 59.31 58.79 59.13 60.48 61.25 61.88 61.30 60.76 61.16 61.56 61.75 62.14 61.55 61.14 61.18 61.28 61.66 62.13 62.34 62.45 62.58 62.59 62.25 62.04 62.24 62.40 62.95 63.22 63.51 63.80 64.18 64.21 64.13 64.37 64.61 64.84 65.04 65.25 65.54 65.78 65.65 65.56 65.82 66.18 66.45 66.79 67.26 67.58 68.17 68.63 69.13 70.03 70.61 70.89 71.34 71.81 72.41 72.92 73.09 72.51 72.24 71.81 71.88 72.01 72.48 73.04 73.39 73.77 74.36 74.98 75.82 76.73 77.78 79.13 80.24 81.40 82.43 82.22 81.05 80.84 81.98 83.48 85.31 86.72 89.23 88.43 81.93 77.54 74.51 72.75 71.69 70.69 69.16 67.59 66.68 65.65 65.06 64.31 63.43 63.15 62.80 62.62 62.16 62.00 63.08 65.25 65.55 64.55 63.52 63.29 63.01 62.13 999.00 999.00 999.00 999.00 999.00 999.00 999.00 999.00 999.00 999.00 999.00 999.00 999.00 999.00 999.00 999.00 999.00 999.00 999.00 999.00 999.00 999.00 999.00 999.00 999.00 999.00 999.00 999.00 999.00 999.00 999.00 999.00 999.00 999.00 999.00 999.00 999.00 999.00 999.00 999.00 999.00 999.00 999.00 999.00 999.00 999.00 999.00 999.00 999.00 999.00 999.00 999.00 999.00 999.00 999.00 999.00 999.00 999.00 999.00 999.00 999.00 999.00 999.00 999.00 999.00 999.00 999.00 999.00 999.00 999.00 999.00 999.00 999.00 999.00 999.00 999.00 999.00 999.00 999.00 999.00 999.00 999.00 999.00 999.00 999.00 999.00 999.00 999.00 999.00 999.00 999.00 999.00 999.00 999.00 999.00 999.00 999.00 999.00 999.00 999.00 999.00 999.00 999.00 999.00 999.00 999.00 999.00 999.00 999.00 999.00 999.00 999.00 999.00 999.00 999.00 999.00 999.00 999.00 999.00 999.00 999.00 999.00 999.00 999.00 999.00 999.00 999.00 999.00 999.00 999.00 999.00 999.00 999.00 999.00 999.00 999.00 999.00 999.00 999.00 999.00 999.00 999.00 999.00 999.00 999.00 999.00 999.00 999.00 999.00 999.00 999.00 999.00 999.00 999.00 999.00 999.00 999.00 999.00 999.00 999.00 999.00 999.00 999.00 999.00 999.00 999.00 999.00 999.00 999.00 999.00 999.00 999.00 999.00 999.00 999.00 999.00 999.00 999.00 999.00 999.00 999.00 999.00 999.00 999.00 999.00 999.00 999.00 999.00 999.00 999.00 999.00 999.00 999.00 999.00 999.00 999.00 999.00 999.00 999.00 999.00 999.00 999.00 999.00 999.00 999.00 999.00 999.00 999.00 999.00 999.00 999.00 999.00 999.00 999.00 999.00 999.00 999.00 999.00 999.00 999.00 999.00 999.00 999.00 999.00 999.00 999.00 999.00 999.00 999.00 999.00 999.00 999.00 999.00
57.46 57.26 56.87 56.85 56.90 56.66 56.43 56.81 57.38 57.71 58.00 58.06 58.13 58.13 57.85 57.93 58.00 58.00 58.34 58.82 58.87 58.87 59.47 59.80 59.91 59.92 59.84 59.93 59.99 59.98 59.83 59.79 60.00 60.03 60.01 60.08 59.95 59.69 59.45 59.53 59.43 59.51 59.85 59.81 59.57 59.51 59.54 59.50 59.30 59.65 59.81 59.81 59.90 58.87 58.24 59.33 59.52 59.47 59.39 60.39 61.32 61.09 60.74 61.09 62.39 62.95 62.88 61.90 61.43 61.52 61.36 61.42 62.16 62.45 62.63 62.73 62.72 62.54 62.37 62.66 62.96 63.33 63.42 63.39 63.43 63.91 64.08 64.20 64.39 64.75 65.07 65.45 65.68 65.71 65.87 66.10 65.70 65.89 66.25 66.65 67.03 67.42 67.62 68.37 68.69 69.26 69.92 70.48 70.96 71.49 71.86 72.44 73.00 73.33 72.89 72.54 72.22 72.34 72.47 72.69 73.13 73.65 74.26 74.87 75.39 76.16 76.97 77.99 79.22 80.37 81.66 82.74 83.37 82.78 81.91 81.87 83.08 84.79 86.70 89.42 90.67 86.52 81.27 77.57 74.64 72.87 71.44 69.46 68.07 67.28 66.18 65.31 64.39 63.73 63.50 63.08 62.83 62.51 62.43 63.01 64.67 65.23 64.78 63.95 63.34 62.59 62.11 999.00 999.00 999.00 999.00 999.00 999.00 999.00 999.00 999.00 999.00 999.00 999.00 999.00 999.00 999.00 999.00 999.00 999.00 999.00 999.00 999.00 999.00 999.00 999.00 999.00 999.00 999.00 999.00 999.00 999.00 999.00 999.00 999.00 999.00 999.00 999.00 999.00 999.00 999.00 999.00 999.00 999.00 999.00 999.00 999.00 999.00 999.00 999.00 999.00 999.00 999.00 999.00 999.00 999.00 999.00 999.00 999.00 999.00 999.00 999.00 999.00 999.00 999.00 999.00 999.00 999.00 999.00 999.00 999.00 999.00 999.00 999.00 999.00 999.00 999.00 999.00 999.00 999.00 999.00 999.00 999.00 999.00 999.00 999.00 999.00 999.00 999.00 999.00 999.00 999.00 999.00 999.00 999.00 999.00 999.00 999.00 999.00 999.00 999.00 999.00 999.00 999.00 999.00 999.00 999.00 999.00 999.00 999.00 999.00 999.00 999.00 999.00 999.00 999.00 999.00 999.00 999.00 999.00 999.00 999.00 999.00 999.00 999.00 999.00 999.00 999.00 999.00 999.00 999.00 999.00 999.00 999.00 999.00 999.00 999.00 999.00 999.00 999.00 999.00 999.00 999.00 999.00 999.00 999.00 999.00 999.00 999.00 999.00 999.00 999.00 999.00 999.00 999.00 999.00 999.00 999.00 999.00 999.00 999.00 999.00 999.00 999.00 999.00 999.00 999.00 999.00 999.00 999.00 999.00 999.00 999.00 999.00 999.00 999.00 999.00 999.00 999.00 999.00 999.00 999.00 999.00 999.00 999.00 999.00 999.00 999.00 999.00 999.00 999.00 999.00 999.00 999.00 999.00 999.00 999.00 999.00 999.00 999.00 999.00 999.00 999.00 999.00 999.00 999.00 999.00 999.00 999.00 999.00 999.00 999.00 999.00 999.00 999.00 999.00 999.00 999.00 999.00 999.00 999.00 999.00 999.00 999.00 999.00 999.00 999.00 999.00 999.00 999.00 999.00 999.00 999.00 999.00 999.00
57.54 57.44 57.29 56.98 57.17 57.01 56.71 56.89 57.40 57.65 57.79 58.20 58.40 58.37 58.23 58.33 58.33 58.19 58.32 58.98 59.21 59.20 59.62 59.95 60.34 60.13 60.06 60.24 60.17 60.06 60.00 59.94 60.09 60.28 60.29 60.22 60.04 59.75 59.55 59.63 59.55 59.52 59.92 59.99 59.70 59.64 59.63 59.68 59.27 59.54 59.83 59.75 59.94 59.51 58.52 59.50 60.09 60.03 59.64 58.56 59.42 60.18 60.80 61.41 63.06 64.16 63.58 62.40 61.85 61.83 61.72 61.73 62.01 62.20 62.50 62.71 62.87 62.82 62.67 62.99 63.30 63.46 63.59 63.50 63.33 63.82 64.23 64.33 64.46 64.89 65.30 65.66 66.01 66.03 66.19 66.52 66.02 65.91 66.25 66.63 67.27 67.79 68.05 68.31 68.60 69.41 70.03 70.31 70.78 71.36 71.86 72.52 73.17 73.76 73.70 73.25 72.65 72.36 72.53 72.86 73.16 73.78 74.40 75.11 75.73 76.51 77.11 77.98 78.92 79.88 81.11 81.81 82.82 83.78 83.66 82.68 83.20 84.68 86.47 88.90 91.58 89.73 84.01 79.49 75.92 73.83 71.99 69.87 68.62 67.97 66.89 65.63 64.68 64.02 63.52 63.02 62.88 62.61 62.58 62.92 63.78 64.33 64.54 64.72 63.55 61.46 60.58 999.00 999.00 999.00 999.00 999.00 999.00 999.00 999.00 999.00 999.00 999.00 999.00 999.00 999.00 999.00 999.00 999.00 999.00 999.00 999.00 999.00 999.00 999.00 999.00 999.00 999.00 999.00 999.00 999.00 999.00 999.00 999.00 999.00 999.00 999.00 999.00 999.00 999.00 999.00 999.00 999.00 999.00 999.00 999.00 999.00 999.00 999.00 999.00 999.00 999.00 999.00 999.00 999.00 999.00 999.00 999.00 999.00 999.00 999.00 999.00 999.00 999.00 999.00 999.00 999.00 999.00 999.00 999.00 999.00 999.00 999.00 999.00 999.00 999.00 999.00 999.00 999.00 999.00 999.00 999.00 999.00 999.00 999.00 999.00 999.00 999.00 999.00 999.00 999.00 999.00 999.00 999.00 999.00 999.00 999.00 999.00 999.00 999.00 999.00 999.00 999.00 999.00 999.00 999.00 999.00 999.00 999.00 999.00 999.00 999.00 999.00 999.00 999.00 999.00 999.00 999.00 999.00 999.00 999.00 999.00 999.00 999.00 999.00 999.00 999.00 999.00 999.00 999.00 999.00 999.00 999.00 999.00 999.00 999.00 999.00 999.00 999.00 999.00 999.00 999.00 999.00 999.00 999.00 999.00 999.00 999.00 999.00 999.00 999.00 999.00 999.00 999.00 999.00 999.00 999.00 999.00 999.00 999.00 999.00 999.00 999.00 999.00 999.00 999.00 999.00 999.00 999.00 999.00 999.00 999.00 999.00 999.00 999.00 999.00 999.00 999.00 999.00 999.00 999.00 999.00 999.00 999.00 999.00 999.00 999.00 999.00 999.00 999.00 999.00 999.00 999.00 999.00 999.00 999.00 999.00 999.00 999.00 999.00 999.00 999.00 999.00 999.00 999.00 999.00 999.00 999.00 999.00 999.00 999.00 999.00 999.00 999.00 999.00 999.00 999.00 999.00 999.00 999.00 999.00 999.00 999.00 999.00 999.00 999.00 999.00 999.00 999.00 999.00 999.00 999.00 999.00 999.00 999.00
57.59 57.62 57.54 57.24 57.38 57.38 57.00 56.92 57.27 57.67 57.92 58.34 58.73 58.55 58.16 58.19 58.34 58.43 58.43 59.02 59.51 59.62 59.83 60.12 60.30 60.40 60.27 60.31 60.28 60.32 60.22 60.19 60.26 60.43 60.51 60.51 60.22 59.85 59.46 59.63 59.69 59.60 59.81 60.04 59.84 59.83 59.82 59.86 59.30 58.94 59.73 59.58 59.85 59.50 59.55 59.64 59.85 59.64 59.89 58.91 57.87 59.63 60.47 61.36 62.75 63.32 62.54 62.05 62.03 61.80 61.83 61.82 62.01 62.11 62.35 62.49 62.65 62.69 62.68 63.15 63.47 63.42 63.38 63.46 63.53 63.83 64.34 64.70 64.61 65.05 65.46 65.72 66.11 66.33 66.41 66.69 66.25 66.09 66.37 67.01 67.48 67.78 68.04 68.35 68.77 69.31 69.85 70.42 70.91 71.56 72.13 72.78 73.49 74.10 74.59 74.17 73.33 72.83 72.95 73.46 73.65 74.80 74.88 75.21 75.69 76.43 77.19 77.87 78.29 78.40 79.87 80.81 81.81 83.00 84.09 84.25 83.80 84.78 86.54 88.75 91.16 91.91 85.80 80.65 78.33 74.29 72.08 70.54 69.37 68.38 67.22 65.81 64.84 64.18 63.67 63.17 62.73 62.58 62.60 62.87 63.37 63.76 63.96 64.26 63.17 61.18 58.48 999.00 999.00 999.00 999.00 999.00 999.00 999.00 999.00 999.00 999.00 999.00 999.00 999.00 999.00 999.00 999.00 999.00 999.00 999.00 999.00 999.00 999.00 999.00 999.00 999.00 999.00 999.00 999.00 999.00 999.00 999.00 999.00 999.00 999.00 999.00 999.00 999.00 999.00 999.00 999.00 999.00 999.00 999.00 999.00 999.00 999.00 999.00 999.00 999.00 999.00 999.00 999.00 999.00 999.00 999.00 999.00 999.00 999.00 999.00 999.00 999.00 999.00 999.00 999.00 999.00 999.00 999.00 999.00 999.00 999.00 999.00 999.00 999.00 999.00 999.00 999.00 999.00 999.00 999.00 999.00 999.00 999.00 999.00 999.00 999.00 999.00 999.00 999.00 999.00 999.00 999.00 999.00 999.00 999.00 999.00 999.00 999.00 999.00 999.00 999.00 999.00 999.00 999.00 999.00 999.00 999.00 999.00 999.00 999.00 999.00 999.00 999.00 999.00 999.00 999.00 999.00 999.00 999.00 999.00 999.00 999.00 999.00 999.00 999.00 999.00 999.00 999.00 999.00 999.00 999.00 999.00 999.00 999.00 999.00 999.00 999.00 999.00 999.00 999.00 999.00 999.00 999.00 999.00 999.00 999.00 999.00 999.00 999.00 999.00 999.00 999.00 999.00 999.00 999.00 999.00 999.00 999.00 999.00 999.00 999.00 999.00 999.00 999.00 999.00 999.00 999.00 999.00 999.00 999.00 999.00 999.00 999.00 999.00 999.00 999.00 999.00 999.00 999.00 999.00 999.00 999.00 999.00 999.00 999.00 999.00 999.00 999.00 999.00 999.00 999.00 999.00 999.00 999.00 999.00 999.00 999.00 999.00 999.00 999.00 999.00 999.00 999.00 999.00 999.00 999.00 999.00 999.00 999.00 999.00 999.00 999.00 999.00 999.00 999.00 999.00 999.00 999.00 999.00 999.00 999.00 999.00 999.00 999.00 999.00 999.00 999.00 999.00 999.00 999.00 999.00 999.00 999.00 999.00
57.90 57.86 57.61 57.36 57.55 57.62 57.30 57.23 57.64 58.11 58.47 58.59 58.75 58.62 58.35 58.41 58.55 58.80 58.69 59.02 59.64 59.93 60.14 60.38 60.51 60.51 60.56 60.33 60.39 60.53 60.42 60.40 60.49 60.49 60.64 60.58 60.47 60.14 59.70 59.78 59.79 59.78 59.79 60.07 59.92 59.84 59.79 59.82 59.47 59.01 59.79 59.97 60.23 59.78 59.87 59.89 59.87 59.95 60.05 60.72 61.06 60.38 59.84 61.35 61.96 62.37 62.89 62.31 62.22 62.07 62.04 62.09 62.22 62.52 62.70 62.63 62.66 62.72 62.65 62.99 63.33 63.35 63.32 63.50 63.93 64.22 64.42 64.81 64.93 65.26 65.57 65.77 66.00 66.27 66.48 66.73 66.51 66.27 66.54 67.20 67.65 67.87 68.16 68.57 69.05 69.46 69.91 70.59 71.15 71.70 72.34 73.11 73.73 74.33 75.34 74.79 73.84 73.41 73.32 73.57 73.71 74.57 75.18 75.43 75.90 76.67 77.46 78.12 78.92 79.79 80.47 80.57 81.33 82.87 84.55 85.75 85.45 85.36 86.42 88.04 90.45 92.10 87.79 84.11 80.86 75.61 73.07 71.32 69.91 68.68 67.34 65.82 64.83 63.91 63.36 62.93 62.67 62.60 62.58 62.82 63.04 63.07 63.20 63.54 61.88 59.56 57.90 999.00 999.00 999.00 999.00 999.00 999.00 999.00 999.00 999.00 999.00 999.00 999.00 999.00 999.00 999.00 999.00 999.00 999.00 999.00 999.00 999.00 999.00 999.00 999.00 999.00 999.00 999.00 999.00 999.00 999.00 999.00 999.00 999.00 999.00 999.00 999.00 999.00 999.00 999.00 999.00 999.00 999.00 999.00 999.00 999.00 999.00 999.00 999.00 999.00 999.00 999.00 999.00 999.00 999.00 999.00 999.00 999.00 999.00 999.00 999.00 999.00 999.00 999.00 999.00 999.00 999.00 999.00 999.00 999.00 999.00 999.00 999.00 999.00 999.00 999.00 999.00 999.00 999.00 999.00 999.00 999.00 999.00 999.00 999.00 999.00 999.00 999.00 999.00 999.00 999.00 999.00 999.00 999.00 999.00 999.00 999.00 999.00 999.00 999.00 999.00 999.00 999.00 999.00 999.00 999.00 999.00 999.00 999.00 999.00 999.00 999.00 999.00 999.00 999.00 999.00 999.00 999.00 999.00 999.00 999.00 999.00 999.00 999.00 999.00 999.00 999.00 999.00 999.00 999.00 999.00 999.00 999.00 999.00 999.00 999.00 999.00 999.00 999.00 999.00 999.00 999.00 999.00 999.00 999.00 999.00 999.00 999.00 999.00 999.00 999.00 999.00 999.00 999.00 999.00 999.00 999.00 999.00 999.00 999.00 999.00 999.00 999.00 999.00 999.00 999.00 999.00 999.00 999.00 999.00 999.00 999.00 999.00 999.00 999.00 999.00 999.00 999.00 999.00 999.00 999.00 999.00 999.00 999.00 999.00 999.00 999.00 999.00 999.00 999.00 999.00 999.00 999.00 999.00 999.00 999.00 999.00 999.00 999.00 999.00 999.00 999.00 999.00 999.00 999.00 999.00 999.00 999.00 999.00 999.00 999.00 999.00 999.00 999.00 999.00 999.00 999.00 999.00 999.00 999.00 999.00 999.00 999.00 999.00 999.00 999.00 999.00 999.00 999.00 999.00 999.00 999.00 999.00 999.00
58.34 58.05 57.72 57.55 57.85 57.91 57.60 57.41 57.90 58.41 58.67 58.73 58.70 58.64 58.58 58.62 58.68 58.81 58.83 59.13 59.70 60.11 60.36 60.48 60.69 60.64 60.53 60.40 60.54 60.64 60.64 60.61 60.53 60.55 60.82 60.76 60.59 60.30 59.79 59.71 59.84 59.87 59.96 60.21 60.17 60.08 59.93 59.93 59.91 60.18 60.65 60.69 61.06 60.41 59.96 59.66 59.78 60.19 60.70 61.65 61.36 60.88 60.02 60.13 60.85 61.96 61.59 61.66 62.02 62.24 62.24 62.21 62.38 62.69 62.86 62.90 62.92 63.14 63.13 63.06 62.60 62.45 63.03 63.61 64.10 64.44 64.51 64.66 65.03 65.27 65.54 65.66 65.91 66.21 66.49 66.60 66.72 66.57 66.78 67.45 67.80 68.02 68.27 68.62 69.11 69.61 70.09 70.65 71.34 71.89 72.52 73.11 73.83 74.47 75.30 74.65 74.11 73.79 74.07 73.86 74.02 74.34 74.98 75.49 76.14 76.78 77.53 78.34 79.32 80.51 81.72 81.53 81.42 82.73 84.33 85.67 86.51 86.54 86.96 88.11 90.15 91.71 91.15 88.63 82.82 77.86 74.29 71.85 70.12 68.60 67.40 66.10 65.16 64.14 63.16 62.38 61.85 61.93 62.13 62.28 62.40 62.14 61.69 62.31 61.13 58.34 58.06 999.00 999.00 999.00 999.00 999.00 999.00 999.00 999.00 999.00 999.00 999.00 999.00 999.00 999.00 999.00 999.00 999.00 999.00 999.00 999.00 999.00 999.00 999.00 999.00 999.00 999.00 999.00 999.00 999.00 999.00 999.00 999.00 999.00 999.00 999.00 999.00 999.00 999.00 999.00 999.00 999.00 999.00 999.00 999.00 999.00 999.00 999.00 999.00 999.00 999.00 999.00 999.00 999.00 999.00 999.00 999.00 999.00 999.00 999.00 999.00 999.00 999.00 999.00 999.00 999.00 999.00 999.00 999.00 999.00 999.00 999.00 999.00 999.00 999.00 999.00 999.00 999.00 999.00 999.00 999.00 999.00 999.00 999.00 999.00 999.00 999.00 999.00 999.00 999.00 999.00 999.00 999.00 999.00 999.00 999.00 999.00 999.00 999.00 999.00 999.00 999.00 999.00 999.00 999.00 999.00 999.00 999.00 999.00 999.00 999.00 999.00 999.00 999.00 999.00 999.00 999.00 999.00 999.00 999.00 999.00 999.00 999.00 999.00 999.00 999.00 999.00 999.00 999.00 999.00 999.00 999.00 999.00 999.00 999.00 999.00 999.00 999.00 999.00 999.00 999.00 999.00 999.00 999.00 999.00 999.00 999.00 999.00 999.00 999.00 999.00 999.00 999.00 999.00 999.00 999.00 999.00 999.00 999.00 999.00 999.00 999.00 999.00 999.00 999.00 999.00 999.00 999.00 999.00 999.00 999.00 999.00 999.00 999.00 999.00 999.00 999.00 999.00 999.00 999.00 999.00 999.00 999.00 999.00 999.00 999.00 999.00 999.00 999.00 999.00 999.00 999.00 999.00 999.00 999.00 999.00 999.00 999.00 999.00 999.00 999.00 999.00 999.00 999.00 999.00 999.00 999.00 999.00 999.00 999.00 999.00 999.00 999.00 999.00 999.00 999.00 999.00 999.00 999.00 999.00 999.00 999.00 999.00 999.00 999.00 999.00 999.00 999.00 999.00 999.00 999.00 999.00 999.00 999.00
58.76 58.27 58.07 58.00 58.21 58.06 57.79 57.61 58.18 58.66 58.74 58.82 58.87 58.86 58.79 58.69 58.95 59.11 59.01 59.14 59.75 60.26 60.49 60.52 60.63 60.75 60.76 60.84 60.88 60.73 60.76 60.75 60.58 60.70 60.91 60.78 60.50 60.32 59.92 59.86 60.10 60.13 60.10 60.68 60.70 60.43 59.93 60.06 59.95 60.37 60.84 60.86 61.07 60.64 60.23 60.02 60.09 60.37 60.80 61.41 61.31 60.81 60.81 60.58 59.98 60.79 61.09 61.40 61.83 62.19 62.25 62.44 62.54 62.70 62.93 63.05 63.17 63.40 63.56 63.53 63.13 62.61 62.98 63.41 63.98 64.43 64.63 64.69 64.93 65.21 65.39 65.63 66.02 66.20 66.53 66.80 66.95 66.99 66.93 67.38 67.89 68.25 68.59 68.94 69.19 69.61 70.09 70.79 71.43 71.96 72.54 73.40 74.06 74.65 75.23 74.89 74.37 74.15 75.20 74.76 74.45 74.64 75.04 75.36 76.05 76.70 77.47 78.36 79.43 80.63 81.72 82.41 82.08 82.52 83.58 85.04 86.31 87.23 88.31 88.62 89.52 90.13 90.17 90.81 87.48 81.24 76.62 72.57 70.60 68.94 67.64 66.49 65.65 64.39 63.20 61.69 60.99 61.04 61.25 61.64 61.68 61.02 60.00 60.36 60.03 58.42 58.79 999.00 999.00 999.00 999.00 999.00 999.00 999.00 999.00 999.00 999.00 999.00 999.00 999.00 999.00 999.00 999.00 999.00 999.00 999.00 999.00 999.00 999.00 999.00 999.00 999.00 999.00 999.00 999.00 999.00 999.00 999.00 999.00 999.00 999.00 999.00 999.00 999.00 999.00 999.00 999.00 999.00 999.00 999.00 999.00 999.00 999.00 999.00 999.00 999.00 999.00 999.00 999.00 999.00 999.00 999.00 999.00 999.00 999.00 999.00 999.00 999.00 999.00 999.00 999.00 999.00 999.00 999.00 999.00 999.00 999.00 999.00 999.00 999.00 999.00 999.00 999.00 999.00 999.00 999.00 999.00 999.00 999.00 999.00 999.00 999.00 999.00 999.00 999.00 999.00 999.00 999.00 999.00 999.00 999.00 999.00 999.00 999.00 999.00 999.00 999.00 999.00 999.00 999.00 999.00 999.00 999.00 999.00 999.00 999.00 999.00 999.00 999.00 999.00 999.00 999.00 999.00 999.00 999.00 999.00 999.00 999.00 999.00 999.00 999.00 999.00 999.00 999.00 999.00 999.00 999.00 999.00 999.00 999.00 999.00 999.00 999.00 999.00 999.00 999.00 999.00 999.00 999.00 999.00 999.00 999.00 999.00 999.00 999.00 999.00 999.00 999.00 999.00 999.00 999.00 999.00 999.00 999.00 999.00 999.00 999.00 999.00 999.00 999.00 999.00 999.00 999.00 999.00 999.00 999.00 999.00 999.00 999.00 999.00 999.00 999.00 999.00 999.00 999.00 999.00 999.00 999.00 999.00 999.00 999.00 999.00 999.00 999.00 999.00 999.00 999.00 999.00 999.00 999.00 999.00 999.00 999.00 999.00 999.00 999.00 999.00 999.00 999.00 999.00 999.00 999.00 999.00 999.00 999.00 999.00 999.00 999.00 999.00 999.00 999.00 999.00 999.00 999.00 999.00 999.00 999.00 999.00 999.00 999.00 999.00 999.00 999.00 999.00 999.00 999.00 999.00 999.00 999.00 999.00
59.06 58.57 58.40 58.47 58.45 58.09 58.00 57.94 58.23 58.72 58.75 58.93 58.84 58.79 58.80 58.84 59.07 59.38 59.39 59.40 59.67 60.10 60.40 60.45 60.53 60.79 60.92 60.92 60.84 60.76 60.74 60.76 60.58 60.68 60.73 60.77 60.55 60.22 59.96 60.11 60.30 60.27 60.35 60.61 60.54 60.17 60.11 60.20 60.10 60.49 61.04 61.14 61.18 60.98 60.81 60.91 60.70 60.80 61.64 61.97 61.37 60.60 60.56 60.87 60.62 60.72 61.05 61.45 61.63 62.02 61.99 62.25 62.76 62.60 62.87 63.12 63.18 63.36 63.63 63.78 63.65 63.43 63.40 63.60 64.13 64.43 64.80 64.91 65.02 65.32 65.52 65.64 65.91 66.21 66.56 66.94 67.13 67.23 67.20 67.28 68.08 68.48 68.76 69.09 69.13 69.30 69.98 70.90 71.43 71.94 72.51 73.34 74.39 75.13 75.53 75.75 75.32 75.23 76.05 75.34 74.67 74.81 75.00 75.42 76.06 76.75 77.44 78.39 79.45 80.52 81.56 82.59 82.88 83.15 83.89 84.65 85.95 87.12 88.59 88.68 87.67 87.87 87.63 89.43 88.60 85.69 79.62 74.22 71.12 69.10 67.39 66.17 65.35 64.40 62.87 60.98 60.69 60.64 60.45 61.23 61.75 61.17 59.45 58.43 59.32 59.01 59.58 999.00 999.00 999.00 999.00 999.00 999.00 999.00 999.00 999.00 999.00 999.00 999.00 999.00 999.00 999.00 999.00 999.00 999.00 999.00 999.00 999.00 999.00 999.00 999.00 999.00 999.00 999.00 999.00 999.00 999.00 999.00 999.00 999.00 999.00 999.00 999.00 999.00 999.00 999.00 999.00 999.00 999.00 999.00 999.00 999.00 999.00 999.00 999.00 999.00 999.00 999.00 999.00 999.00 999.00 999.00 999.00 999.00 999.00 999.00 999.00 999.00 999.00 999.00 999.00 999.00 999.00 999.00 999.00 999.00 999.00 999.00 999.00 999.00 999.00 999.00 999.00 999.00 999.00 999.00 999.00 999.00 999.00 999.00 999.00 999.00 999.00 999.00 999.00 999.00 999.00 999.00 999.00 999.00 999.00 999.00 999.00 999.00 999.00 999.00 999.00 999.00 999.00 999.00 999.00 999.00 999.00 999.00 999.00 999.00 999.00 999.00 999.00 999.00 999.00 999.00 999.00 999.00 999.00 999.00 999.00 999.00 999.00 999.00 999.00 999.00 999.00 999.00 999.00 999.00 999.00 999.00 999.00 999.00 999.00 999.00 999.00 999.00 999.00 999.00 999.00 999.00 999.00 999.00 999.00 999.00 999.00 999.00 999.00 999.00 999.00 999.00 999.00 999.00 999.00 999.00 999.00 999.00 999.00 999.00 999.00 999.00 999.00 999.00 999.00 999.00 999.00 999.00 999.00 999.00 999.00 999.00 999.00 999.00 999.00 999.00 999.00 999.00 999.00 999.00 999.00 999.00 999.00 999.00 999.00 999.00 999.00 999.00 999.00 999.00 999.00 999.00 999.00 999.00 999.00 999.00 999.00 999.00 999.00 999.00 999.00 999.00 999.00 999.00 999.00 999.00 999.00 999.00 999.00 999.00 999.00 999.00 999.00 999.00 999.00 999.00 999.00 999.00 999.00 999.00 999.00 999.00 999.00 999.00 999.00 999.00 999.00 999.00 999.00 999.00 999.00 999.00 999.00 999.00
59.66 58.88 58.55 58.53 58.49 58.15 58.11 57.98 58.09 58.50 58.66 58.79 58.77 58.81 58.78 58.88 59.19 59.38 59.45 59.47 59.65 59.89 60.22 60.40 60.59 60.90 61.06 60.98 60.93 60.91 60.92 60.92 60.81 60.87 60.68 60.71 60.52 60.31 60.11 60.36 60.55 60.48 60.51 60.49 60.54 60.28 60.37 60.33 60.31 60.91 61.29 61.36 61.52 61.20 61.50 62.02 61.29 61.12 61.84 62.21 61.46 60.49 60.00 60.12 60.93 61.46 61.08 61.20 61.38 61.90 61.68 62.32 62.76 62.72 62.76 63.04 63.07 63.13 63.33 63.49 63.62 63.54 63.78 64.09 64.22 64.38 64.73 64.85 65.10 65.26 65.48 65.73 66.01 66.24 66.60 66.88 67.10 67.36 67.49 67.59 68.11 68.46 68.83 69.28 69.51 69.51 70.11 70.96 71.34 71.90 72.53 73.36 74.19 75.10 75.85 77.11 76.34 75.48 76.09 75.69 75.19 75.27 75.44 75.59 76.09 76.80 77.57 78.56 79.49 80.37 81.35 82.44 83.42 84.21 84.99 85.47 85.96 86.95 88.54 88.99 86.09 85.01 85.62 86.60 86.29 87.25 82.20 75.89 71.47 69.31 67.29 65.86 64.85 63.96 63.03 61.66 61.23 61.41 60.76 60.27 60.86 60.31 59.38 59.15 60.45 60.04 59.39 58.64 999.00 999.00 999.00 999.00 999.00 999.00 999.00 999.00 999.00 999.00 999.00 999.00 999.00 999.00 999.00 999.00 999.00 999.00 999.00 999.00 999.00 999.00 999.00 999.00 999.00 999.00 999.00 999.00 999.00 999.00 999.00 999.00 999.00 999.00 999.00 999.00 999.00 999.00 999.00 999.00 999.00 999.00 999.00 999.00 999.00 999.00 999.00 999.00 999.00 999.00 999.00 999.00 999.00 999.00 999.00 999.00 999.00 999.00 999.00 999.00 999.00 999.00 999.00 999.00 999.00 999.00 999.00 999.00 999.00 999.00 999.00 999.00 999.00 999.00 999.00 999.00 999.00 999.00 999.00 999.00 999.00 999.00 999.00 999.00 999.00 999.00 999.00 999.00 999.00 999.00 999.00 999.00 999.00 999.00 999.00 999.00 999.00 999.00 999.00 999.00 999.00 999.00 999.00 999.00 999.00 999.00 999.00 999.00 999.00 999.00 999.00 999.00 999.00 999.00 999.00 999.00 999.00 999.00 999.00 999.00 999.00 999.00 999.00 999.00 999.00 999.00 999.00 999.00 999.00 999.00 999.00 999.00 999.00 999.00 999.00 999.00 999.00 999.00 999.00 999.00 999.00 999.00 999.00 999.00 999.00 999.00 999.00 999.00 999.00 999.00 999.00 999.00 999.00 999.00 999.00 999.00 999.00 999.00 999.00 999.00 999.00 999.00 999.00 999.00 999.00 999.00 999.00 999.00 999.00 999.00 999.00 999.00 999.00 999.00 999.00 999.00 999.00 999.00 999.00 999.00 999.00 999.00 999.00 999.00 999.00 999.00 999.00 999.00 999.00 999.00 999.00 999.00 999.00 999.00 999.00 999.00 999.00 999.00 999.00 999.00 999.00 999.00 999.00 999.00 999.00 999.00 999.00 999.00 999.00 999.00 999.00 999.00 999.00 999.00 999.00 999.00 999.00 999.00 999.00 999.00 999.00 999.00 999.00 999.00 999.00 999.00 999.00 999.00 999.00 999.00 999.00 999.00
59.87 59.33 58.94 58.56 58.40 58.21 58.28 58.19 58.25 58.46 58.59 58.70 58.78 58.88 58.88 59.02 59.26 59.29 59.49 59.54 59.75 60.02 60.23 60.42 60.67 60.93 61.07 61.01 61.06 61.15 61.03 61.10 61.02 61.15 60.93 60.78 60.54 60.42 60.37 60.58 60.67 60.65 60.60 60.63 60.80 60.67 60.52 60.53 60.60 60.86 61.12 61.32 61.57 61.34 61.02 61.04 61.02 61.01 61.33 61.57 61.33 60.17 60.12 60.82 61.73 61.81 61.58 61.21 61.14 61.13 61.55 62.32 62.85 62.90 62.88 63.16 63.27 63.26 63.11 63.35 63.60 63.75 64.00 64.14 64.45 64.48 64.59 64.84 65.12 65.33 65.53 65.73 65.86 66.10 66.47 66.78 67.08 67.36 67.68 68.12 68.37 68.61 68.94 69.45 69.85 69.97 70.45 70.83 71.29 71.91 72.68 73.38 74.08 74.83 75.74 76.46 76.55 76.77 76.46 75.88 75.59 75.74 75.70 76.02 76.39 77.04 77.62 78.66 79.65 80.82 82.14 83.33 84.56 85.31 85.88 86.54 87.15 87.73 88.12 88.71 86.09 82.20 83.48 83.24 85.39 86.91 85.12 79.95 72.61 69.29 67.45 66.15 65.07 63.94 63.14 61.60 61.61 61.97 61.27 60.04 59.19 58.58 58.76 59.79 60.34 59.95 59.20 58.88 999.00 999.00 999.00 999.00 999.00 999.00 999.00 999.00 999.00 999.00 999.00 999.00 999.00 999.00 999.00 999.00 999.00 999.00 999.00 999.00 999.00 999.00 999.00 999.00 999.00 999.00 999.00 999.00 999.00 999.00 999.00 999.00 999.00 999.00 999.00 999.00 999.00 999.00 999.00 999.00 999.00 999.00 999.00 999.00 999.00 999.00 999.00 999.00 999.00 999.00 999.00 999.00 999.00 999.00 999.00 999.00 999.00 999.00 999.00 999.00 999.00 999.00 999.00 999.00 999.00 999.00 999.00 999.00 999.00 999.00 999.00 999.00 999.00 999.00 999.00 999.00 999.00 999.00 999.00 999.00 999.00 999.00 999.00 999.00 999.00 999.00 999.00 999.00 999.00 999.00 999.00 999.00 999.00 999.00 999.00 999.00 999.00 999.00 999.00 999.00 999.00 999.00 999.00 999.00 999.00 999.00 999.00 999.00 999.00 999.00 999.00 999.00 999.00 999.00 999.00 999.00 999.00 999.00 999.00 999.00 999.00 999.00 999.00 999.00 999.00 999.00 999.00 999.00 999.00 999.00 999.00 999.00 999.00 999.00 999.00 999.00 999.00 999.00 999.00 999.00 999.00 999.00 999.00 999.00 999.00 999.00 999.00 999.00 999.00 999.00 999.00 999.00 999.00 999.00 999.00 999.00 999.00 999.00 999.00 999.00 999.00 999.00 999.00 999.00 999.00 999.00 999.00 999.00 999.00 999.00 999.00 999.00 999.00 999.00 999.00 999.00 999.00 999.00 999.00 999.00 999.00 999.00 999.00 999.00 999.00 999.00 999.00 999.00 999.00 999.00 999.00 999.00 999.00 999.00 999.00 999.00 999.00 999.00 999.00 999.00 999.00 999.00 999.00 999.00 999.00 999.00 999.00 999.00 999.00 999.00 999.00 999.00 999.00 999.00 999.00 999.00 999.00 999.00 999.00 999.00 999.00 999.00 999.00 999.00 999.00 999.00 999.00 999.00 999.00 999.00 999.00 999.00
59.72 59.17 58.98 58.62 58.53 58.47 58.36 58.54 58.50 58.45 58.48 58.70 58.72 58.76 58.83 59.03 59.27 59.39 59.49 59.59 59.71 59.92 60.14 60.54 60.89 61.08 61.12 61.08 61.15 61.28 61.12 61.11 61.15 61.08 60.91 61.01 60.67 60.45 60.44 60.59 60.74 60.88 61.00 60.97 61.06 60.95 60.85 60.78 60.82 61.03 61.17 61.36 61.46 61.29 60.88 61.08 61.14 61.13 61.21 61.68 61.26 60.58 60.86 61.33 61.77 61.90 62.04 61.80 61.72 61.53 61.36 62.03 62.83 63.00 63.06 63.33 63.58 63.58 63.54 63.46 63.63 63.94 64.23 64.22 64.54 64.76 64.82 65.00 65.22 65.54 65.84 65.97 65.82 66.12 66.59 66.92 67.24 67.40 67.71 68.20 68.54 68.76 69.14 69.52 69.94 70.29 70.65 70.89 71.34 71.90 72.69 73.42 74.05 74.90 75.66 76.42 77.29 77.04 76.66 76.45 76.02 76.15 76.10 76.42 76.89 77.53 78.13 78.74 79.80 81.13 82.65 83.91 85.37 86.39 87.27 88.17 88.77 88.66 87.08 86.50 85.67 81.16 80.22 82.10 84.93 85.64 83.93 80.11 73.11 69.50 67.76 66.27 65.16 64.40 63.48 62.13 61.73 62.09 60.99 59.99 60.48 60.59 60.78 60.75 60.34 59.96 59.40 59.63 999.00 999.00 999.00 999.00 999.00 999.00 999.00 999.00 999.00 999.00 999.00 999.00 999.00 999.00 999.00 999.00 999.00 999.00 999.00 999.00 999.00 999.00 999.00 999.00 999.00 999.00 999.00 999.00 999.00 999.00 999.00 999.00 999.00 999.00 999.00 999.00 999.00 999.00 999.00 999.00 999.00 999.00 999.00 999.00 999.00 999.00 999.00 999.00 999.00 999.00 999.00 999.00 999.00 999.00 999.00 999.00 999.00 999.00 999.00 999.00 999.00 999.00 999.00 999.00 999.00 999.00 999.00 999.00 999.00 999.00 999.00 999.00 999.00 999.00 999.00 999.00 999.00 999.00 999.00 999.00 999.00 999.00 999.00 999.00 999.00 999.00 999.00 999.00 999.00 999.00 999.00 999.00 999.00 999.00 999.00 999.00 999.00 999.00 999.00 999.00 999.00 999.00 999.00 999.00 999.00 999.00 999.00 999.00 999.00 999.00 999.00 999.00 999.00 999.00 999.00 999.00 999.00 999.00 999.00 999.00 999.00 999.00 999.00 999.00 999.00 999.00 999.00 999.00 999.00 999.00 999.00 999.00 999.00 999.00 999.00 999.00 999.00 999.00 999.00 999.00 999.00 999.00 999.00 999.00 999.00 999.00 999.00 999.00 999.00 999.00 999.00 999.00 999.00 999.00 999.00 999.00 999.00 999.00 999.00 999.00 999.00 999.00 999.00 999.00 999.00 999.00 999.00 999.00 999.00 999.00 999.00 999.00 999.00 999.00 999.00 999.00 999.00 999.00 999.00 999.00 999.00 999.00 999.00 999.00 999.00 999.00 999.00 999.00 999.00 999.00 999.00 999.00 999.00 999.00 999.00 999.00 999.00 999.00 999.00 999.00 999.00 999.00 999.00 999.00 999.00 999.00 999.00 999.00 999.00 999.00 999.00 999.00 999.00 999.00 999.00 999.00 999.00 999.00 999.00 999.00 999.00 999.00 999.00 999.00 999.00 999.00 999.00 999.00 999.00 999.00 999.00 999.00
59.28 58.89 58.85 58.50 58.19 58.24 58.13 58.42 58.48 58.59 58.60 58.59 58.64 58.87 58.83 58.75 58.97 59.29 59.46 59.55 59.75 60.00 60.25 60.55 60.89 61.12 61.19 61.19 61.23 61.32 61.25 61.24 61.24 61.10 61.14 61.05 60.65 60.48 60.56 60.87 61.21 61.40 61.39 61.14 61.28 61.21 61.11 61.06 61.03 61.08 61.37 61.59 61.59 61.71 61.75 62.13 62.44 61.51 61.67 62.07 61.55 61.24 61.19 61.24 61.64 62.11 62.32 62.15 61.98 61.83 61.58 61.66 61.60 62.50 62.98 63.36 63.70 63.94 63.94 63.91 64.03 64.22 64.28 64.48 64.80 64.89 64.95 65.06 65.36 65.77 66.03 66.23 66.12 66.31 66.81 67.08 67.43 67.49 67.73 68.15 68.41 68.75 69.19 69.56 69.89 70.42 70.81 71.11 71.62 72.12 72.67 73.44 74.31 75.17 75.89 76.81 77.78 77.77 77.18 77.34 76.77 76.66 76.46 76.54 77.05 77.71 78.48 79.20 80.09 81.29 82.56 83.83 85.15 86.50 87.60 88.49 89.23 88.91 86.80 84.59 84.51 80.83 77.99 82.23 83.61 80.80 81.74 79.95 75.40 71.06 67.97 66.43 65.36 64.41 63.65 62.75 61.82 61.70 60.65 60.96 61.51 61.45 61.18 60.84 60.40 60.32 59.96 60.03 999.00 999.00 999.00 999.00 999.00 999.00 999.00 999.00 999.00 999.00 999.00 999.00 999.00 999.00 999.00 999.00 999.00 999.00 999.00 999.00 999.00 999.00 999.00 999.00 999.00 999.00 999.00 999.00 999.00 999.00 999.00 999.00 999.00 999.00 999.00 999.00 999.00 999.00 999.00 999.00 999.00 999.00 999.00 999.00 999.00 999.00 999.00 999.00 999.00 999.00 999.00 999.00 999.00 999.00 999.00 999.00 999.00 999.00 999.00 999.00 999.00 999.00 999.00 999.00 999.00 999.00 999.00 999.00 999.00 999.00 999.00 999.00 999.00 999.00 999.00 999.00 999.00 999.00 999.00 999.00 999.00 999.00 999.00 999.00 999.00 999.00 999.00 999.00 999.00 999.00 999.00 999.00 999.00 999.00 999.00 999.00 999.00 999.00 999.00 999.00 999.00 999.00 999.00 999.00 999.00 999.00 999.00 999.00 999.00 999.00 999.00 999.00 999.00 999.00 999.00 999.00 999.00 999.00 999.00 999.00 999.00 999.00 999.00 999.00 999.00 999.00 999.00 999.00 999.00 999.00 999.00 999.00 999.00 999.00 999.00 999.00 999.00 999.00 999.00 999.00 999.00 999.00 999.00 999.00 999.00 999.00 999.00 999.00 999.00 999.00 999.00 999.00 999.00 999.00 999.00 999.00 999.00 999.00 999.00 999.00 999.00 999.00 999.00 999.00 999.00 999.00 999.00 999.00 999.00 999.00 999.00 999.00 999.00 999.00 999.00 999.00 999.00 999.00 999.00 999.00 999.00 999.00 999.00 999.00 999.00 999.00 999.00 999.00 999.00 999.00 999.00 999.00 999.00 999.00 999.00 999.00 999.00 999.00 999.00 999.00 999.00 999.00 999.00 999.00 999.00 999.00 999.00 999.00 999.00 999.00 999.00 999.00 999.00 999.00 999.00 999.00 999.00 999.00 999.00 999.00 999.00 999.00 999.00 999.00 999.00 999.00 999.00 999.00 999.00 999.00 999.00 999.00
59.33 58.74 58.57 58.39 58.00 58.06 57.97 58.22 58.13 58.39 58.35 58.38 58.55 58.82 58.81 58.73 59.00 59.19 59.46 59.59 59.77 60.05 60.27 60.56 60.89 61.10 61.29 61.35 61.36 61.32 61.29 61.33 61.45 61.40 61.31 61.04 60.84 60.77 60.86 61.11 61.35 61.49 61.49 61.32 61.48 61.61 61.45 61.27 61.29 61.46 61.66 61.69 61.93 62.53 61.87 62.15 63.59 62.28 62.44 61.95 62.03 61.51 61.46 61.75 62.01 62.37 62.55 62.50 62.25 62.08 61.87 61.88 61.17 61.26 61.92 62.88 63.59 63.78 63.82 64.01 64.25 64.48 64.62 64.59 64.81 64.92 65.10 65.36 65.43 65.84 66.04 66.30 66.47 66.53 66.76 67.05 67.42 67.73 67.85 68.11 68.44 68.84 69.26 69.63 69.97 70.30 70.76 71.33 71.94 72.55 73.06 73.45 74.26 75.27 76.23 77.29 78.13 78.78 78.67 78.47 77.49 77.26 77.00 76.95 77.39 77.88 78.66 79.75 80.64 81.44 82.50 83.54 84.83 86.10 86.68 86.77 87.87 88.12 87.38 85.98 82.88 80.00 77.12 79.40 80.09 77.40 81.00 80.58 78.72 73.09 68.62 67.11 65.83 64.47 63.49 62.90 62.33 61.42 61.69 62.03 62.04 61.91 61.29 60.83 60.43 60.38 60.84 60.85 999.00 999.00 999.00 999.00 999.00 999.00 999.00 999.00 999.00 999.00 999.00 999.00 999.00 999.00 999.00 999.00 999.00 999.00 999.00 999.00 999.00 999.00 999.00 999.00 999.00 999.00 999.00 999.00 999.00 999.00 999.00 999.00 999.00 999.00 999.00 999.00 999.00 999.00 999.00 999.00 999.00 999.00 999.00 999.00 999.00 999.00 999.00 999.00 999.00 999.00 999.00 999.00 999.00 999.00 999.00 999.00 999.00 999.00 999.00 999.00 999.00 999.00 999.00 999.00 999.00 999.00 999.00 999.00 999.00 999.00 999.00 999.00 999.00 999.00 999.00 999.00 999.00 999.00 999.00 999.00 999.00 999.00 999.00 999.00 999.00 999.00 999.00 999.00 999.00 999.00 999.00 999.00 999.00 999.00 999.00 999.00 999.00 999.00 999.00 999.00 999.00 999.00 999.00 999.00 999.00 999.00 999.00 999.00 999.00 999.00 999.00 999.00 999.00 999.00 999.00 999.00 999.00 999.00 999.00 999.00 999.00 999.00 999.00 999.00 999.00 999.00 999.00 999.00 999.00 999.00 999.00 999.00 999.00 999.00 999.00 999.00 999.00 999.00 999.00 999.00 999.00 999.00 999.00 999.00 999.00 999.00 999.00 999.00 999.00 999.00 999.00 999.00 999.00 999.00 999.00 999.00 999.00 999.00 999.00 999.00 999.00 999.00 999.00 999.00 999.00 999.00 999.00 999.00 999.00 999.00 999.00 999.00 999.00 999.00 999.00 999.00 999.00 999.00 999.00 999.00 999.00 999.00 999.00 999.00 999.00 999.00 999.00 999.00 999.00 999.00 999.00 999.00 999.00 999.00 999.00 999.00 999.00 999.00 999.00 999.00 999.00 999.00 999.00 999.00 999.00 999.00 999.00 999.00 999.00 999.00 999.00 999.00 999.00 999.00 999.00 999.00 999.00 999.00 999.00 999.00 999.00 999.00 999.00 999.00 999.00 999.00 999.00 999.00 999.00 999.00 999.00 999.00
59.25 58.63 58.41 58.28 58.10 58.21 58.01 57.86 57.75 57.86 58.01 58.20 58.52 58.59 58.74 58.90 59.13 59.36 59.63 59.65 59.76 60.01 60.28 60.64 60.87 61.07 61.09 61.10 61.21 61.38 61.46 61.59 61.55 61.49 61.34 61.26 61.11 60.95 60.90 61.05 61.40 61.53 61.70 61.64 61.64 61.62 61.55 61.43 61.46 61.62 61.78 61.62 61.91 62.40 62.01 61.85 62.18 63.02 63.00 61.54 61.71 61.89 61.80 62.01 62.42 62.66 62.84 62.77 62.55 62.43 62.37 62.22 61.94 61.93 62.29 62.12 62.67 63.14 63.49 63.81 64.19 64.57 64.60 64.63 64.98 65.13 65.39 65.64 65.58 65.81 66.10 66.37 66.65 66.82 67.05 67.24 67.60 67.92 68.01 68.24 68.65 68.95 69.30 69.72 70.06 70.31 70.76 71.24 71.70 72.41 73.01 73.61 74.33 75.20 76.18 77.29 78.17 79.05 79.77 79.29 78.49 77.94 77.38 77.50 78.04 78.44 78.75 79.97 81.63 82.47 83.04 83.74 84.69 85.28 85.12 86.21 87.17 87.24 87.64 87.40 84.96 82.01 77.41 75.63 74.77 74.95 76.26 74.87 73.77 70.76 68.99 67.85 66.12 64.74 63.92 63.35 63.12 62.13 62.45 62.41 62.25 62.08 61.37 60.88 60.60 60.71 61.47 61.31 999.00 999.00 999.00 999.00 999.00 999.00 999.00 999.00 999.00 999.00 999.00 999.00 999.00 999.00 999.00 999.00 999.00 999.00 999.00 999.00 999.00 999.00 999.00 999.00 999.00 999.00 999.00 999.00 999.00 999.00 999.00 999.00 999.00 999.00 999.00 999.00 999.00 999.00 999.00 999.00 999.00 999.00 999.00 999.00 999.00 999.00 999.00 999.00 999.00 999.00 999.00 999.00 999.00 999.00 999.00 999.00 999.00 999.00 999.00 999.00 999.00 999.00 999.00 999.00 999.00 999.00 999.00 999.00 999.00 999.00 999.00 999.00 999.00 999.00 999.00 999.00 999.00 999.00 999.00 999.00 999.00 999.00 999.00 999.00 999.00 999.00 999.00 999.00 999.00 999.00 999.00 999.00 999.00 999.00 999.00 999.00 999.00 999.00 999.00 999.00 999.00 999.00 999.00 999.00 999.00 999.00 999.00 999.00 999.00 999.00 999.00 999.00 999.00 999.00 999.00 999.00 999.00 999.00 999.00 999.00 999.00 999.00 999.00 999.00 999.00 999.00 999.00 999.00 999.00 999.00 999.00 999.00 999.00 999.00 999.00 999.00 999.00 999.00 999.00 999.00 999.00 999.00 999.00 999.00 999.00 999.00 999.00 999.00 999.00 999.00 999.00 999.00 999.00 999.00 999.00 999.00 999.00 999.00 999.00 999.00 999.00 999.00 999.00 999.00 999.00 999.00 999.00 999.00 999.00 999.00 999.00 999.00 999.00 999.00 999.00 999.00 999.00 999.00 999.00 999.00 999.00 999.00 999.00 999.00 999.00 999.00 999.00 999.00 999.00 999.00 999.00 999.00 999.00 999.00 999.00 999.00 999.00 999.00 999.00 999.00 999.00 999.00 999.00 999.00 999.00 999.00 999.00 999.00 999.00 999.00 999.00 999.00 999.00 999.00 999.00 999.00 999.00 999.00 999.00 999.00 999.00 999.00 999.00 999.00 999.00 999.00 999.00 999.00 999.00 999.00 999.00 999.00
58.96 58.53 58.16 57.82 57.94 58.26 58.05 57.79 57.54 57.62 57.75 58.03 58.25 58.41 58.62 58.94 59.25 59.51 59.80 59.76 59.83 60.03 60.27 60.54 60.78 61.01 61.01 61.02 61.15 61.47 61.71 61.74 61.61 61.51 61.46 61.49 61.29 61.06 61.03 61.34 61.67 61.87 61.91 61.80 61.75 61.82 61.72 61.53 61.65 61.86 62.53 62.78 62.89 63.76 64.40 64.29 63.66 64.41 62.48 61.77 61.77 61.98 61.90 62.23 62.71 62.94 62.97 63.00 62.81 62.67 62.74 62.80 62.58 62.60 63.16 62.96 62.72 62.40 62.70 63.42 63.92 64.16 64.48 64.88 65.20 65.42 65.57 65.76 65.59 65.57 66.10 66.39 66.61 66.94 67.24 67.54 67.78 68.04 68.21 68.36 68.61 68.90 69.32 69.72 70.10 70.45 70.86 71.39 71.81 72.41 72.99 73.69 74.34 75.11 76.15 77.18 78.11 79.13 80.14 80.25 79.40 78.61 77.92 77.85 78.53 79.12 79.49 79.94 81.61 83.24 83.53 83.87 84.36 83.89 84.10 85.27 85.66 86.09 86.44 86.72 83.74 79.61 75.75 73.92 72.97 72.51 72.32 71.40 70.22 68.73 67.83 66.86 65.94 64.98 64.16 63.94 63.08 62.59 62.67 62.45 62.27 62.05 61.46 61.10 60.85 60.89 61.00 60.28 999.00 999.00 999.00 999.00 999.00 999.00 999.00 999.00 999.00 999.00 999.00 999.00 999.00 999.00 999.00 999.00 999.00 999.00 999.00 999.00 999.00 999.00 999.00 999.00 999.00 999.00 999.00 999.00 999.00 999.00 999.00 999.00 999.00 999.00 999.00 999.00 999.00 999.00 999.00 999.00 999.00 999.00 999.00 999.00 999.00 999.00 999.00 999.00 999.00 999.00 999.00 999.00 999.00 999.00 999.00 999.00 999.00 999.00 999.00 999.00 999.00 999.00 999.00 999.00 999.00 999.00 999.00 999.00 999.00 999.00 999.00 999.00 999.00 999.00 999.00 999.00 999.00 999.00 999.00 999.00 999.00 999.00 999.00 999.00 999.00 999.00 999.00 999.00 999.00 999.00 999.00 999.00 999.00 999.00 999.00 999.00 999.00 999.00 999.00 999.00 999.00 999.00 999.00 999.00 999.00 999.00 999.00 999.00 999.00 999.00 999.00 999.00 999.00 999.00 999.00 999.00 999.00 999.00 999.00 999.00 999.00 999.00 999.00 999.00 999.00 999.00 999.00 999.00 999.00 999.00 999.00 999.00 999.00 999.00 999.00 999.00 999.00 999.00 999.00 999.00 999.00 999.00 999.00 999.00 999.00 999.00 999.00 999.00 999.00 999.00 999.00 999.00 999.00 999.00 999.00 999.00 999.00 999.00 999.00 999.00 999.00 999.00 999.00 999.00 999.00 999.00 999.00 999.00 999.00 999.00 999.00 999.00 999.00 999.00 999.00 999.00 999.00 999.00 999.00 999.00 999.00 999.00 999.00 999.00 999.00 999.00 999.00 999.00 999.00 999.00 999.00 999.00 999.00 999.00 999.00 999.00 999.00 999.00 999.00 999.00 999.00 999.00 999.00 999.00 999.00 999.00 999.00 999.00 999.00 999.00 999.00 999.00 999.00 999.00 999.00 999.00 999.00 999.00 999.00 999.00 999.00 999.00 999.00 999.00 999.00 999.00 999.00 999.00 999.00 999.00 999.00 999.00
58.91 58.54 58.20 57.75 57.76 57.90 57.89 57.64 57.47 57.53 57.54 57.37 57.59 58.15 58.65 59.04 59.32 59.50 59.50 59.58 59.84 59.99 60.11 60.41 60.68 60.95 61.09 61.11 61.24 61.49 61.90 61.86 61.65 61.55 61.65 61.64 61.48 61.27 61.42 61.66 61.80 61.97 62.04 61.91 61.92 62.07 61.92 61.71 61.95 62.14 62.74 62.69 63.06 65.42 66.98 67.09 65.54 64.97 62.27 61.97 61.90 62.19 62.25 62.54 62.78 63.04 63.19 63.21 63.08 62.99 63.03 63.17 63.06 63.27 63.33 63.20 63.41 63.43 63.46 63.23 63.39 63.64 63.94 64.78 65.17 65.34 65.39 65.69 65.80 65.64 65.91 66.27 66.51 66.79 66.94 67.26 67.63 68.07 68.46 68.90 68.94 69.14 69.56 69.81 69.98 70.58 71.11 71.58 71.90 72.50 73.09 73.81 74.46 75.23 76.18 77.21 78.22 79.22 80.20 80.85 80.90 80.05 78.47 78.49 79.06 79.67 80.25 80.50 81.34 82.77 83.27 82.50 82.65 81.87 83.02 84.49 85.89 86.35 85.44 84.73 83.03 78.23 74.77 73.27 72.42 71.50 71.03 69.90 68.58 67.52 66.83 65.69 65.02 64.57 63.83 63.34 62.48 62.94 62.81 62.57 62.24 61.99 61.61 61.21 60.90 60.99 60.71 60.09 999.00 999.00 999.00 999.00 999.00 999.00 999.00 999.00 999.00 999.00 999.00 999.00 999.00 999.00 999.00 999.00 999.00 999.00 999.00 999.00 999.00 999.00 999.00 999.00 999.00 999.00 999.00 999.00 999.00 999.00 999.00 999.00 999.00 999.00 999.00 999.00 999.00 999.00 999.00 999.00 999.00 999.00 999.00 999.00 999.00 999.00 999.00 999.00 999.00 999.00 999.00 999.00 999.00 999.00 999.00 999.00 999.00 999.00 999.00 999.00 999.00 999.00 999.00 999.00 999.00 999.00 999.00 999.00 999.00 999.00 999.00 999.00 999.00 999.00 999.00 999.00 999.00 999.00 999.00 999.00 999.00 999.00 999.00 999.00 999.00 999.00 999.00 999.00 999.00 999.00 999.00 999.00 999.00 999.00 999.00 999.00 999.00 999.00 999.00 999.00 999.00 999.00 999.00 999.00 999.00 999.00 999.00 999.00 999.00 999.00 999.00 999.00 999.00 999.00 999.00 999.00 999.00 999.00 999.00 999.00 999.00 999.00 999.00 999.00 999.00 999.00 999.00 999.00 999.00 999.00 999.00 999.00 999.00 999.00 999.00 999.00 999.00 999.00 999.00 999.00 999.00 999.00 999.00 999.00 999.00 999.00 999.00 999.00 999.00 999.00 999.00 999.00 999.00 999.00 999.00 999.00 999.00 999.00 999.00 999.00 999.00 999.00 999.00 999.00 999.00 999.00 999.00 999.00 999.00 999.00 999.00 999.00 999.00 999.00 999.00 999.00 999.00 999.00 999.00 999.00 999.00 999.00 999.00 999.00 999.00 999.00 999.00 999.00 999.00 999.00 999.00 999.00 999.00 999.00 999.00 999.00 999.00 999.00 999.00 999.00 999.00 999.00 999.00 999.00 999.00 999.00 999.00 999.00 999.00 999.00 999.00 999.00 999.00 999.00 999.00 999.00 999.00 999.00 999.00 999.00 999.00 999.00 999.00 999.00 999.00 999.00 999.00 999.00 999.00 999.00 999.00 999.00
58.94 58.58 58.11 57.75 57.52 57.55 57.54 57.37 57.36 57.31 56.55 56.44 57.53 58.17 58.64 59.03 59.41 59.54 59.50 59.56 59.66 59.82 59.95 60.31 60.66 60.79 61.04 61.08 61.22 61.38 61.73 62.04 61.89 61.66 61.65 61.66 61.56 61.42 61.63 61.65 61.81 62.23 62.24 62.12 62.16 62.21 62.08 61.84 62.05 62.42 63.03 63.73 66.19 66.63 66.67 65.57 64.52 63.06 62.29 62.23 61.99 62.39 62.58 62.53 62.64 63.04 63.23 63.37 63.45 63.36 63.21 63.40 63.46 63.28 63.47 63.51 63.80 64.14 64.21 64.26 64.07 64.03 64.44 64.39 64.56 64.55 64.93 65.62 66.04 66.01 66.02 66.26 66.58 66.81 67.05 67.38 67.75 68.16 68.53 68.98 69.06 69.21 69.66 70.04 70.26 70.83 71.18 71.28 71.65 72.34 73.03 73.84 74.57 75.37 76.25 77.19 78.14 79.23 80.30 81.41 81.72 81.07 79.11 78.84 79.28 79.83 80.48 81.14 81.84 82.41 82.82 82.00 80.58 80.40 82.36 84.26 85.90 85.87 85.45 83.36 80.78 77.77 75.52 73.45 71.99 70.99 70.60 69.91 68.92 68.00 67.14 66.55 65.82 64.98 63.97 62.98 62.37 63.22 63.13 62.77 62.30 61.79 61.46 61.20 61.01 60.96 60.64 60.39 999.00 999.00 999.00 999.00 999.00 999.00 999.00 999.00 999.00 999.00 999.00 999.00 999.00 999.00 999.00 999.00 999.00 999.00 999.00 999.00 999.00 999.00 999.00 999.00 999.00 999.00 999.00 999.00 999.00 999.00 999.00 999.00 999.00 999.00 999.00 999.00 999.00 999.00 999.00 999.00 999.00 999.00 999.00 999.00 999.00 999.00 999.00 999.00 999.00 999.00 999.00 999.00 999.00 999.00 999.00 999.00 999.00 999.00 999.00 999.00 999.00 999.00 999.00 999.00 999.00 999.00 999.00 999.00 999.00 999.00 999.00 999.00 999.00 999.00 999.00 999.00 999.00 999.00 999.00 999.00 999.00 999.00 999.00 999.00 999.00 999.00 999.00 999.00 999.00 999.00 999.00 999.00 999.00 999.00 999.00 999.00 999.00 999.00 999.00 999.00 999.00 999.00 999.00 999.00 999.00 999.00 999.00 999.00 999.00 999.00 999.00 999.00 999.00 999.00 999.00 999.00 999.00 999.00 999.00 999.00 999.00 999.00 999.00 999.00 999.00 999.00 999.00 999.00 999.00 999.00 999.00 999.00 999.00 999.00 999.00 999.00 999.00 999.00 999.00 999.00 999.00 999.00 999.00 999.00 999.00 999.00 999.00 999.00 999.00 999.00 999.00 999.00 999.00 999.00 999.00 999.00 999.00 999.00 999.00 999.00 999.00 999.00 999.00 999.00 999.00 999.00 999.00 999.00 999.00 999.00 999.00 999.00 999.00 999.00 999.00 999.00 999.00 999.00 999.00 999.00 999.00 999.00 999.00 999.00 999.00 999.00 999.00 999.00 999.00 999.00 999.00 999.00 999.00 999.00 999.00 999.00 999.00 999.00 999.00 999.00 999.00 999.00 999.00 999.00 999.00 999.00 999.00 999.00 999.00 999.00 999.00 999.00 999.00 999.00 999.00 999.00 999.00 999.00 999.00 999.00 999.00 999.00 999.00 999.00 999.00 999.00 999.00 999.00 999.00 999.00 999.00 999.00
